;FLAVOR:Marlin
;TIME:16649
;Filament used: 13.5318m
;Layer height: 0.2
;MINX:23.762
;MINY:50.281
;MINZ:0.3
;MAXX:174.536
;MAXY:167.543
;MAXZ:7.575
;Generated with Cura_SteamEngine master
M82 ;absolute extrusion mode
G21                                        ; metric values 
G90                                        ; absolute positioning 
M82                                        ; set extruder to absolute mode 
M107                                       ; start with the fan off 
M140 S60           ; Start heating the bed 
G4 S60                                     ; wait 1 minute 
M104 S210         ; start heating the hot end 
M190 S60           ; wait for bed 
M109 S210         ; wait for hotend 
M300 S1000 P500                            ; BEEP heating done 
G28 X0 Y10 Z0                              ; move X/Y to min endstops 
M420 S1                                    ; Enable leveling 
M420 Z2.0                                  ; Set leveling fading height to 2 mm 
G0 Z0.15                                   ; lift nozzle a bit 
G92 E0                                     ; zero the extruded length 
G1 X50 E25 F500                            ; Extrude 25mm of filament in a 5cm line. 
G92 E0                                     ; zero the extruded length again 
G1 E-2 F500                                ; Retract a little 
G1 X120 F4000                              ; Quickly wipe away from the filament line`
G92 E0
G92 E0
G1 F1500 E-6
;LAYER_COUNT:37
;LAYER:0
M106 S76.5
M205 X10 Y10
G1 F600 Z0.375
;MESH:InterKinectSideV1.stl
G0 F6000 X44.799 Y72.066 Z0.375
M205 X8 Y8
;TYPE:WALL-INNER
G1 F600 Z0.3
G1 F1500 E0
G1 F1200 X44.799 Y123.19 E2.55059
G1 X66.436 Y123.19 E3.63006
G1 X66.436 Y72.066 E6.18065
G1 X44.799 Y72.066 E7.26012
M205 X10 Y10
G0 F6000 X45.199 Y72.466
M205 X8 Y8
G1 F1200 X45.199 Y122.79 E9.7708
G1 X66.036 Y122.79 E10.81036
G1 X66.036 Y72.466 E13.32103
G1 X45.199 Y72.466 E14.3606
M205 X10 Y10
G0 F6000 X45.599 Y72.866
M205 X8 Y8
;TYPE:WALL-OUTER
G1 F1200 X45.599 Y122.39 E16.83136
G1 X65.636 Y122.39 E17.83101
G1 X65.636 Y72.866 E20.30177
G1 X45.599 Y72.866 E21.30142
M205 X10 Y10
G0 F6000 X45.599 Y73.066
G0 X45.159 Y73.066
G1 F1500 E15.30142
G1 F600 Z0.375
G0 F6000 X51.195 Y59.894 Z0.375
M205 X8 Y8
;TYPE:WALL-INNER
G1 F600 Z0.3
G1 F1500 E21.30142
G1 F1200 X71.486 Y59.894 E22.31374
G1 X72.049 Y58.831 E22.37375
G1 X68.987 Y54.316 E22.64592
G1 X68.987 Y51.085 E22.80712
G1 X89.383 Y51.196 E23.8247
G1 X89.383 Y73.471 E24.936
G1 X98.231 Y73.471 E25.37743
G1 X98.231 Y76.514 E25.52924
G1 X89.383 Y76.514 E25.97067
G1 X89.383 Y80.605 E26.17477
G1 X74.717 Y80.605 E26.90646
G1 X74.717 Y123.19 E29.03104
G1 X89.45 Y123.19 E29.76607
G1 X89.45 Y128.957 E30.05379
G1 X98.269 Y128.957 E30.49377
G1 X98.269 Y132.273 E30.6592
G1 X89.45 Y132.273 E31.09919
G1 X89.45 Y148.077 E31.88765
G1 X86.554 Y148.077 E32.03213
G1 X83.961 Y129.832 E32.95153
G1 X39.659 Y129.782 E35.16176
G1 X36.912 Y148.028 E36.08232
G1 X34.688 Y148.028 E36.19327
G1 X34.688 Y142.085 E36.48977
G1 X25.654 Y142.085 E36.94048
G1 X25.653 Y139.09 E37.0899
G1 X34.688 Y139.09 E37.54066
G1 X34.688 Y132.068 E37.89099
G1 X25.654 Y132.068 E38.3417
G1 X25.653 Y129.073 E38.49112
G1 X34.688 Y129.073 E38.94188
G1 X34.688 Y76.382 E41.57064
G1 X25.654 Y76.382 E42.02135
G1 X25.653 Y73.387 E42.17077
G1 X34.688 Y73.387 E42.62153
G1 X34.688 Y51.196 E43.72864
G1 X54.387 Y51.085 E44.71144
G1 X54.387 Y54.355 E44.87458
G1 X51.195 Y59.894 E45.19353
M205 X10 Y10
G0 F6000 X51.887 Y59.494
M205 X8 Y8
G1 F1200 X71.245 Y59.494 E46.1593
G1 X71.583 Y58.856 E46.19532
G1 X68.587 Y54.439 E46.4616
G1 X68.587 Y50.683 E46.64899
G1 X89.783 Y50.798 E47.70647
G1 X89.783 Y73.071 E48.81768
G1 X98.631 Y73.071 E49.25911
G1 X98.631 Y76.914 E49.45084
G1 X89.783 Y76.914 E49.89226
G1 X89.783 Y81.005 E50.09636
G1 X75.117 Y81.005 E50.82805
G1 X75.117 Y122.79 E52.91272
G1 X89.85 Y122.79 E53.64775
G1 X89.85 Y128.557 E53.93547
G1 X98.669 Y128.557 E54.37545
G1 X98.669 Y132.673 E54.5808
G1 X89.85 Y132.673 E55.02078
G1 X89.85 Y148.477 E55.80924
G1 X86.207 Y148.477 E55.99099
G1 X83.614 Y130.232 E56.91039
G1 X40.003 Y130.182 E59.08615
G1 X37.257 Y148.428 E60.0067
G1 X34.288 Y148.428 E60.15482
G1 X34.288 Y142.485 E60.45132
G1 X25.254 Y142.485 E60.90203
G1 X25.253 Y138.69 E61.09136
G1 X34.288 Y138.69 E61.54212
G1 X34.288 Y132.468 E61.85253
G1 X25.254 Y132.468 E62.30324
G1 X25.253 Y128.673 E62.49258
G1 X34.288 Y128.673 E62.94333
G1 X34.288 Y76.782 E65.53219
G1 X25.254 Y76.782 E65.98289
G1 X25.253 Y72.987 E66.17223
G1 X34.288 Y72.987 E66.62299
G1 X34.288 Y50.798 E67.73
G1 X54.787 Y50.683 E68.75271
G1 X54.787 Y54.463 E68.9413
G1 X51.887 Y59.494 E69.23101
M205 X10 Y10
G0 F6000 X52.579 Y59.094
M205 X8 Y8
;TYPE:WALL-OUTER
G1 F1200 X71.004 Y59.094 E70.15024
G1 X71.117 Y58.881 E70.16227
G1 X68.187 Y54.562 E70.42265
G1 X68.187 Y50.281 E70.63623
G1 X90.183 Y50.4 E71.73363
G1 X90.183 Y72.671 E72.84473
G1 X98.759 Y72.671 E73.27259
G1 X99.031 Y72.732 E73.2865
G1 X99.031 Y77.253 E73.51205
G1 X98.759 Y77.314 E73.52596
G1 X90.183 Y77.314 E73.95382
G1 X90.183 Y81.405 E74.15792
G1 X75.517 Y81.405 E74.88961
G1 X75.517 Y122.39 E76.93436
G1 X90.25 Y122.39 E77.66939
G1 X90.25 Y128.157 E77.95711
G1 X98.897 Y128.157 E78.38851
G1 X99.069 Y128.21 E78.39749
G1 X99.069 Y133.02 E78.63746
G1 X98.897 Y133.073 E78.64644
G1 X90.25 Y133.073 E79.07784
G1 X90.25 Y148.877 E79.8663
G1 X85.86 Y148.877 E80.08532
G1 X83.267 Y130.632 E81.00472
G1 X40.347 Y130.582 E83.146
G1 X37.602 Y148.828 E84.06654
G1 X33.888 Y148.828 E84.25184
G1 X33.888 Y142.885 E84.54833
G1 X24.907 Y142.885 E84.9964
G1 X24.854 Y142.859 E84.99934
G1 X24.853 Y138.316 E85.22599
G1 X24.908 Y138.29 E85.22903
G1 X33.888 Y138.29 E85.67704
G1 X33.888 Y132.868 E85.94755
G1 X24.907 Y132.868 E86.39561
G1 X24.854 Y132.842 E86.39856
G1 X24.853 Y128.299 E86.62521
G1 X24.908 Y128.273 E86.62824
G1 X33.888 Y128.273 E87.07626
G1 X33.888 Y77.182 E89.6252
G1 X24.907 Y77.182 E90.07326
G1 X24.854 Y77.156 E90.07621
G1 X24.853 Y72.613 E90.30286
G1 X24.908 Y72.587 E90.30589
G1 X33.888 Y72.587 E90.75391
G1 X33.888 Y50.4 E91.86082
G1 X55.187 Y50.281 E92.92345
G1 X55.187 Y54.571 E93.13748
G1 X52.579 Y59.094 E93.39796
M205 X10 Y10
G0 F6000 X52.779 Y59.094
G0 X52.779 Y59.534
G1 F1500 E87.39796
G1 F600 Z0.375
G0 F6000 X50.52 Y60.284 Z0.375
M205 X8 Y8
;TYPE:SKIN
G1 F600 Z0.3
G1 F1500 E93.39796
G1 F1200 X71.72 Y60.284 E94.45563
G1 X72.503 Y58.806 E94.53908
G1 X69.377 Y54.196 E94.81696
G1 X69.377 Y51.477 E94.95261
G1 X88.993 Y51.584 E95.93127
G1 X88.993 Y73.861 E97.04268
G1 X97.841 Y73.861 E97.4841
G1 X97.841 Y76.124 E97.59701
G1 X88.993 Y76.124 E98.03843
G1 X88.993 Y80.215 E98.24254
G1 X74.327 Y80.215 E98.97423
G1 X74.327 Y123.58 E101.13771
G1 X89.06 Y123.58 E101.87275
G1 X89.06 Y129.347 E102.16046
G1 X97.879 Y129.347 E102.60044
G1 X97.879 Y131.883 E102.72697
G1 X89.06 Y131.883 E103.16695
G1 X89.06 Y147.687 E103.95541
G1 X86.893 Y147.687 E104.06352
G1 X84.3 Y129.442 E104.98292
G1 X39.323 Y129.392 E107.22683
G1 X36.576 Y147.638 E108.14739
G1 X35.078 Y147.638 E108.22212
G1 X35.078 Y141.695 E108.51862
G1 X26.044 Y141.695 E108.96933
G1 X26.043 Y139.48 E109.07983
G1 X35.078 Y139.48 E109.53059
G1 X35.078 Y131.678 E109.91984
G1 X26.044 Y131.678 E110.37054
G1 X26.043 Y129.463 E110.48105
G1 X35.078 Y129.463 E110.93181
G1 X35.078 Y75.992 E113.59949
G1 X26.044 Y75.992 E114.0502
G1 X26.043 Y73.777 E114.1607
G1 X35.078 Y73.777 E114.61146
G1 X35.078 Y51.584 E115.71867
G1 X53.997 Y51.477 E116.66256
G1 X53.997 Y54.25 E116.80091
G1 X50.52 Y60.284 E117.14835
M205 X10 Y10
G1 F1500 E111.14835
G1 F600 Z0.375
G0 F6000 X44.409 Y71.676 Z0.375
M205 X8 Y8
G1 F600 Z0.3
G1 F1500 E117.14835
G1 F1200 X44.409 Y123.58 E119.73785
G1 X66.826 Y123.58 E120.85624
G1 X66.826 Y71.676 E123.44574
G1 X44.409 Y71.676 E124.56413
M205 X10 Y10
G1 F1500 E118.56413
G1 F600 Z0.375
G0 F6000 X88.812 Y52.043 Z0.375
M205 X8 Y8
G1 F600 Z0.3
G1 F1500 E124.56413
G1 F1200 X88.531 Y51.761 E124.58399
M205 X10 Y10
G0 F6000 X87.962 Y51.758
M205 X8 Y8
G1 F1200 X88.812 Y52.608 E124.64396
M205 X10 Y10
G0 F6000 X88.812 Y53.174
M205 X8 Y8
G1 F1200 X87.394 Y51.755 E124.74404
M205 X10 Y10
G0 F6000 X86.824 Y51.752
M205 X8 Y8
G1 F1200 X88.812 Y53.74 E124.88431
M205 X10 Y10
G0 F6000 X88.812 Y54.305
M205 X8 Y8
G1 F1200 X86.256 Y51.749 E125.06465
M205 X10 Y10
G0 F6000 X85.687 Y51.746
M205 X8 Y8
G1 F1200 X88.812 Y54.871 E125.28513
M205 X10 Y10
G0 F6000 X88.812 Y55.437
M205 X8 Y8
G1 F1200 X85.118 Y51.743 E125.54576
M205 X10 Y10
G0 F6000 X84.55 Y51.74
M205 X8 Y8
G1 F1200 X88.812 Y56.002 E125.84647
M205 X10 Y10
G0 F6000 X88.812 Y56.568
M205 X8 Y8
G1 F1200 X83.98 Y51.736 E126.1874
M205 X10 Y10
G0 F6000 X83.412 Y51.734
M205 X8 Y8
G1 F1200 X88.812 Y57.134 E126.56839
M205 X10 Y10
G0 F6000 X88.812 Y57.699
M205 X8 Y8
G1 F1200 X82.843 Y51.73 E126.98954
M205 X10 Y10
G0 F6000 X82.274 Y51.727
M205 X8 Y8
G1 F1200 X88.812 Y58.265 E127.45083
M205 X10 Y10
G0 F6000 X88.812 Y58.831
M205 X8 Y8
G1 F1200 X81.706 Y51.724 E127.95223
M205 X10 Y10
G0 F6000 X81.136 Y51.721
M205 X8 Y8
G1 F1200 X88.812 Y59.396 E128.49378
M205 X10 Y10
G0 F6000 X88.812 Y59.962
M205 X8 Y8
G1 F1200 X80.568 Y51.718 E129.07544
M205 X10 Y10
G0 F6000 X79.999 Y51.714
M205 X8 Y8
G1 F1200 X88.812 Y60.528 E129.69728
M205 X10 Y10
G0 F6000 X88.812 Y61.094
M205 X8 Y8
G1 F1200 X79.43 Y51.712 E130.35923
M205 X10 Y10
G0 F6000 X78.862 Y51.709
M205 X8 Y8
G1 F1200 X88.812 Y61.659 E131.06126
M205 X10 Y10
G0 F6000 X88.812 Y62.225
M205 X8 Y8
G1 F1200 X78.292 Y51.705 E131.8035
M205 X10 Y10
G0 F6000 X77.724 Y51.702
M205 X8 Y8
G1 F1200 X88.812 Y62.791 E132.58585
M205 X10 Y10
G0 F6000 X88.812 Y63.356
M205 X8 Y8
G1 F1200 X77.155 Y51.699 E133.40832
M205 X10 Y10
G0 F6000 X76.586 Y51.696
M205 X8 Y8
G1 F1200 X88.812 Y63.922 E134.27093
M205 X10 Y10
G0 F6000 X88.812 Y64.488
M205 X8 Y8
G1 F1200 X76.017 Y51.693 E135.17368
M205 X10 Y10
G0 F6000 X75.449 Y51.69
M205 X8 Y8
G1 F1200 X88.812 Y65.053 E136.11652
M205 X10 Y10
G0 F6000 X88.812 Y65.619
M205 X8 Y8
G1 F1200 X74.88 Y51.687 E137.09949
M205 X10 Y10
G0 F6000 X74.311 Y51.683
M205 X8 Y8
G1 F1200 X88.812 Y66.185 E138.12265
M205 X10 Y10
G0 F6000 X88.812 Y66.75
M205 X8 Y8
G1 F1200 X73.742 Y51.681 E139.18589
M205 X10 Y10
G0 F6000 X73.173 Y51.677
M205 X8 Y8
G1 F1200 X88.812 Y67.316 E140.2893
M205 X10 Y10
G0 F6000 X88.812 Y67.882
M205 X8 Y8
G1 F1200 X72.605 Y51.674 E141.43283
M205 X10 Y10
G0 F6000 X72.036 Y51.671
M205 X8 Y8
G1 F1200 X88.812 Y68.447 E142.61647
M205 X10 Y10
G0 F6000 X88.812 Y69.013
M205 X8 Y8
G1 F1200 X71.467 Y51.668 E143.84025
M205 X10 Y10
G0 F6000 X70.898 Y51.665
M205 X8 Y8
G1 F1200 X88.812 Y69.579 E145.10418
M205 X10 Y10
G0 F6000 X88.812 Y70.144
M205 X8 Y8
G1 F1200 X70.329 Y51.661 E146.40826
M205 X10 Y10
G0 F6000 X69.761 Y51.659
M205 X8 Y8
G1 F1200 X88.812 Y70.71 E147.75241
M205 X10 Y10
G0 F6000 X88.812 Y71.276
M205 X8 Y8
G1 F1200 X69.555 Y52.019 E149.11109
M205 X10 Y10
G0 F6000 X69.555 Y52.585
M205 X8 Y8
G1 F1200 X88.812 Y71.842 E150.46978
M205 X10 Y10
G0 F6000 X88.812 Y72.407
M205 X8 Y8
G1 F1200 X69.555 Y53.151 E151.82843
M205 X10 Y10
G0 F6000 X69.555 Y53.716
M205 X8 Y8
G1 F1200 X88.812 Y72.973 E153.18711
M205 X10 Y10
G0 F6000 X88.812 Y73.539
M205 X8 Y8
G1 F1200 X69.856 Y54.582 E154.5246
G1 X69.786 Y54.512
M205 X10 Y10
G1 F1500 E148.5246
G1 F600 Z0.375
G0 F6000 X71.046 Y56.338 Z0.375
M205 X8 Y8
G1 F600 Z0.3
G1 F1500 E154.5246
G1 F1200 X90.651 Y75.943 E155.90784
M205 X10 Y10
G0 F6000 X90.086 Y75.943
M205 X8 Y8
G1 F1200 X72.237 Y58.095 E157.16714
G1 X72.167 Y58.025
M205 X10 Y10
G0 F6000 X72.592 Y59.016
M205 X8 Y8
G1 F1200 X89.52 Y75.943 E158.36147
M205 X10 Y10
G0 F6000 X88.954 Y75.943
M205 X8 Y8
G1 F1200 X72.397 Y59.386 E159.52966
M205 X10 Y10
G0 F6000 X72.201 Y59.756
M205 X8 Y8
G1 F1200 X88.811 Y76.366 E160.70158
M205 X10 Y10
G0 F6000 X88.811 Y76.932
M205 X8 Y8
G1 F1200 X72.005 Y60.125 E161.88737
M205 X10 Y10
G0 F6000 X71.777 Y60.463
M205 X8 Y8
G1 F1200 X88.811 Y77.498 E163.08925
M205 X10 Y10
G0 F6000 X88.811 Y78.063
M205 X8 Y8
G1 F1200 X71.212 Y60.463 E164.33099
M205 X10 Y10
G0 F6000 X70.646 Y60.463
M205 X8 Y8
G1 F1200 X88.811 Y78.629 E165.61266
M205 X10 Y10
G0 F6000 X88.811 Y79.195
M205 X8 Y8
G1 F1200 X70.08 Y60.463 E166.93427
M205 X10 Y10
G0 F6000 X69.514 Y60.463
M205 X8 Y8
G1 F1200 X88.811 Y79.76 E168.29578
M205 X10 Y10
G0 F6000 X88.519 Y80.034
M205 X8 Y8
G1 F1200 X68.949 Y60.463 E169.67658
M205 X10 Y10
G0 F6000 X68.383 Y60.463
M205 X8 Y8
G1 F1200 X87.954 Y80.034 E171.05742
M205 X10 Y10
G0 F6000 X87.388 Y80.034
M205 X8 Y8
G1 F1200 X67.817 Y60.463 E172.43826
M205 X10 Y10
G0 F6000 X67.252 Y60.463
M205 X8 Y8
G1 F1200 X86.822 Y80.034 E173.81906
M205 X10 Y10
G0 F6000 X86.257 Y80.034
M205 X8 Y8
G1 F1200 X66.686 Y60.463 E175.1999
M205 X10 Y10
G0 F6000 X66.12 Y60.463
M205 X8 Y8
G1 F1200 X85.691 Y80.034 E176.58074
M205 X10 Y10
G0 F6000 X85.125 Y80.034
M205 X8 Y8
G1 F1200 X65.555 Y60.463 E177.96155
M205 X10 Y10
G0 F6000 X64.989 Y60.463
M205 X8 Y8
G1 F1200 X84.56 Y80.034 E179.34239
M205 X10 Y10
G0 F6000 X83.994 Y80.034
M205 X8 Y8
G1 F1200 X64.423 Y60.463 E180.72323
M205 X10 Y10
G0 F6000 X63.858 Y60.463
M205 X8 Y8
G1 F1200 X83.428 Y80.034 E182.10403
M205 X10 Y10
G0 F6000 X82.863 Y80.034
M205 X8 Y8
G1 F1200 X63.292 Y60.463 E183.48487
M205 X10 Y10
G0 F6000 X62.726 Y60.463
M205 X8 Y8
G1 F1200 X82.297 Y80.034 E184.86571
M205 X10 Y10
G0 F6000 X81.731 Y80.034
M205 X8 Y8
G1 F1200 X62.161 Y60.463 E186.24652
M205 X10 Y10
G0 F6000 X61.595 Y60.463
M205 X8 Y8
G1 F1200 X81.165 Y80.034 E187.62732
M205 X10 Y10
G0 F6000 X80.6 Y80.034
M205 X8 Y8
G1 F1200 X61.029 Y60.463 E189.00816
M205 X10 Y10
G0 F6000 X60.463 Y60.463
M205 X8 Y8
G1 F1200 X80.034 Y80.034 E190.389
M205 X10 Y10
G0 F6000 X79.468 Y80.034
M205 X8 Y8
G1 F1200 X59.898 Y60.463 E191.7698
M205 X10 Y10
G0 F6000 X59.332 Y60.463
M205 X8 Y8
G1 F1200 X78.903 Y80.034 E193.15064
M205 X10 Y10
G0 F6000 X78.337 Y80.034
M205 X8 Y8
G1 F1200 X58.766 Y60.463 E194.53148
M205 X10 Y10
G0 F6000 X58.201 Y60.463
M205 X8 Y8
G1 F1200 X77.771 Y80.034 E195.91229
M205 X10 Y10
G0 F6000 X77.206 Y80.034
M205 X8 Y8
G1 F1200 X57.635 Y60.463 E197.29313
M205 X10 Y10
G0 F6000 X57.069 Y60.463
M205 X8 Y8
G1 F1200 X76.64 Y80.034 E198.67397
M205 X10 Y10
G0 F6000 X76.074 Y80.034
M205 X8 Y8
G1 F1200 X56.504 Y60.463 E200.05477
M205 X10 Y10
G0 F6000 X55.938 Y60.463
M205 X8 Y8
G1 F1200 X66.969 Y71.494 E200.83307
G1 X67.005 Y71.53
G1 X75.509 Y80.034 E201.43307
M205 X10 Y10
G0 F6000 X74.943 Y80.034
M205 X8 Y8
G1 F1200 X67.005 Y72.096 E201.99314
M205 X10 Y10
G0 F6000 X67.005 Y72.662
M205 X8 Y8
G1 F1200 X74.377 Y80.034 E202.51328
M205 X10 Y10
G0 F6000 X74.147 Y80.369
M205 X8 Y8
G1 F1200 X67.005 Y73.227 E203.01718
M205 X10 Y10
G0 F6000 X67.005 Y73.793
M205 X8 Y8
G1 F1200 X74.147 Y80.935 E203.52109
M205 X10 Y10
G0 F6000 X74.147 Y81.501
M205 X8 Y8
G1 F1200 X67.005 Y74.359 E204.025
M205 X10 Y10
G0 F6000 X67.005 Y74.925
M205 X8 Y8
G1 F1200 X74.147 Y82.066 E204.52887
M205 X10 Y10
G0 F6000 X74.147 Y82.632
M205 X8 Y8
G1 F1200 X67.005 Y75.49 E205.03277
M205 X10 Y10
G0 F6000 X67.005 Y76.056
M205 X8 Y8
G1 F1200 X74.147 Y83.198 E205.53668
M205 X10 Y10
G0 F6000 X74.147 Y83.763
M205 X8 Y8
G1 F1200 X67.005 Y76.622 E206.04055
M205 X10 Y10
G0 F6000 X67.005 Y77.187
M205 X8 Y8
G1 F1200 X74.147 Y84.329 E206.54446
M205 X10 Y10
G0 F6000 X74.147 Y84.895
M205 X8 Y8
G1 F1200 X67.005 Y77.753 E207.04837
M205 X10 Y10
G0 F6000 X67.005 Y78.319
M205 X8 Y8
G1 F1200 X74.147 Y85.46 E207.55224
M205 X10 Y10
G0 F6000 X74.147 Y86.026
M205 X8 Y8
G1 F1200 X67.005 Y78.884 E208.05614
M205 X10 Y10
G0 F6000 X67.005 Y79.45
M205 X8 Y8
G1 F1200 X74.147 Y86.592 E208.56005
M205 X10 Y10
G0 F6000 X74.147 Y87.157
M205 X8 Y8
G1 F1200 X67.005 Y80.016 E209.06392
M205 X10 Y10
G0 F6000 X67.005 Y80.581
M205 X8 Y8
G1 F1200 X74.147 Y87.723 E209.56783
M205 X10 Y10
G0 F6000 X74.147 Y88.289
M205 X8 Y8
G1 F1200 X67.005 Y81.147 E210.07173
M205 X10 Y10
G0 F6000 X67.005 Y81.713
M205 X8 Y8
G1 F1200 X74.147 Y88.855 E210.57564
M205 X10 Y10
G0 F6000 X74.147 Y89.42
M205 X8 Y8
G1 F1200 X67.005 Y82.278 E211.07955
M205 X10 Y10
G0 F6000 X67.005 Y82.844
M205 X8 Y8
G1 F1200 X74.147 Y89.986 E211.58345
M205 X10 Y10
G0 F6000 X74.147 Y90.552
M205 X8 Y8
G1 F1200 X67.005 Y83.41 E212.08736
