;FLAVOR:Marlin
;TIME:9344
;Filament used: 7.70751m
;Layer height: 0.2
;MINX:58.657
;MINY:59.748
;MINZ:0.3
;MAXX:151.329
;MAXY:150.244
;MAXZ:4.175
;Generated with Cura_SteamEngine 4.13.1
M82 ;absolute extrusion mode
G21                                        ; metric values 
G90                                        ; absolute positioning 
M82                                        ; set extruder to absolute mode 
M107                                       ; start with the fan off 
M140 S60.0           ; Start heating the bed 
G4 S60                                     ; wait 1 minute 
M104 S220.0         ; start heating the hot end 
M190 S60.0           ; wait for bed 
M109 S220.0         ; wait for hotend 
M300 S1000 P500                            ; BEEP heating done 
G28 X0 Y10 Z0                              ; move X/Y to min endstops 
M420 S1                                    ; Enable leveling 
M420 Z2.0                                  ; Set leveling fading height to 2 mm 
G0 Z0.15                                   ; lift nozzle a bit 
G92 E0                                     ; zero the extruded length 
G1 X50 E25 F500                            ; Extrude 25mm of filament in a 5cm line. 
G92 E0                                     ; zero the extruded length again 
G1 E-2 F500                                ; Retract a little 
G1 X120 F4000                              ; Quickly wipe away from the filament line`
G92 E0
G92 E0
G1 F2400 E-3
;LAYER_COUNT:20
;LAYER:0
M106 S76.5
M205 X10 Y10
G1 F600 Z0.375
G0 F6000 X61.107 Y62.009 Z0.375
M205 X8 Y8
;TYPE:SKIRT
G1 F600 Z0.3
G1 F2400 E0
G1 F1200 X61.695 Y61.482 E0.03939
G1 X62.334 Y61.017 E0.07882
G1 X63.016 Y60.62 E0.11819
G1 X63.735 Y60.293 E0.1576
G1 X64.483 Y60.04 E0.19699
G1 X65.253 Y59.865 E0.23639
G1 X66.037 Y59.768 E0.2758
G1 X66.627 Y59.748 E0.30525
G1 X143.442 Y60.026 E4.13759
G1 X144.231 Y60.069 E4.17701
G1 X145.011 Y60.191 E4.2164
G1 X145.775 Y60.392 E4.25582
G1 X146.514 Y60.669 E4.29519
G1 X147.222 Y61.019 E4.33459
G1 X147.891 Y61.439 E4.374
G1 X148.514 Y61.924 E4.41339
G1 X149.167 Y62.559 E4.45883
G1 X149.286 Y62.689 E4.46762
G1 X149.79 Y63.298 E4.50706
G1 X150.228 Y63.955 E4.54646
G1 X150.599 Y64.652 E4.58585
G1 X150.897 Y65.383 E4.62523
G1 X151.119 Y66.141 E4.66464
G1 X151.264 Y66.917 E4.70402
G1 X151.329 Y67.704 E4.74342
G1 X151.306 Y68.602 E4.78824
G1 X149.789 Y86.869 E5.70272
G1 X149.707 Y87.523 E5.7356
G1 X149.558 Y88.218 E5.77106
G1 X145.398 Y104.093 E6.58981
G1 X145.16 Y104.846 E6.62921
G1 X144.997 Y105.247 E6.65081
G1 X144.647 Y105.955 E6.69021
G1 X144.374 Y106.406 E6.71651
G1 X132.521 Y124.589 E7.79939
G1 X132.057 Y125.227 E7.83875
G1 X131.502 Y125.844 E7.88015
G1 X131.476 Y125.87 E7.88198
G1 X130.89 Y126.4 E7.9214
G1 X130.257 Y126.866 E7.96062
G1 X112.521 Y138.568 E9.02071
G1 X111.81 Y138.984 E9.06181
G1 X110.764 Y139.436 E9.11866
G1 X89.811 Y146.722 E10.22541
G1 X88.934 Y146.971 E10.27089
G1 X74.941 Y150.066 E10.98588
G1 X74.162 Y150.197 E11.02529
G1 X73.666 Y150.239 E11.05012
G1 X72.876 Y150.244 E11.08953
G1 X72.232 Y150.189 E11.12178
G1 X65.568 Y149.337 E11.45696
G1 X64.791 Y149.197 E11.49634
G1 X64.031 Y148.98 E11.53578
G1 X63.298 Y148.687 E11.57516
G1 X62.598 Y148.321 E11.61457
G1 X61.939 Y147.886 E11.65396
G1 X61.327 Y147.387 E11.69336
G1 X60.716 Y146.769 E11.73672
G1 X60.616 Y146.656 E11.74424
G1 X60.123 Y146.039 E11.78364
G1 X59.695 Y145.375 E11.82306
G1 X59.337 Y144.672 E11.86242
G1 X59.051 Y143.935 E11.90186
G1 X58.842 Y143.174 E11.94123
G1 X58.71 Y142.395 E11.98065
G1 X58.657 Y141.483 E12.02622
G1 X58.681 Y91.626 E14.5136
G1 X58.681 Y67.665 E15.70902
G1 X58.721 Y66.876 E15.74843
G1 X58.84 Y66.096 E15.7878
G1 X59.038 Y65.331 E15.82722
G1 X59.312 Y64.591 E15.86659
G1 X59.66 Y63.882 E15.90599
G1 X60.078 Y63.211 E15.94543
G1 X60.561 Y62.587 E15.9848
G1 X60.989 Y62.126 E16.01619
G1 X61.107 Y62.009 E16.02448
M205 X10 Y10
G0 F6000 X61.389 Y62.293
M205 X8 Y8
G1 F1200 X61.962 Y61.781 E16.06281
G1 X62.586 Y61.331 E16.10119
G1 X63.253 Y60.948 E16.13957
G1 X63.956 Y60.636 E16.17794
G1 X64.688 Y60.399 E16.21633
G1 X65.44 Y60.239 E16.25468
G1 X66.205 Y60.158 E16.29306
G1 X66.626 Y60.148 E16.31407
G1 X143.441 Y60.426 E20.14641
G1 X144.209 Y60.469 E20.18479
G1 X144.968 Y60.591 E20.22314
G1 X145.711 Y60.791 E20.26153
G1 X146.428 Y61.068 E20.29988
G1 X147.114 Y61.417 E20.33828
G1 X147.759 Y61.836 E20.37665
G1 X148.357 Y62.319 E20.415
G1 X148.872 Y62.829 E20.45116
G1 X148.991 Y62.959 E20.45995
G1 X149.481 Y63.553 E20.49837
G1 X149.905 Y64.194 E20.53671
G1 X150.262 Y64.876 E20.57512
G1 X150.545 Y65.591 E20.61348
G1 X150.753 Y66.332 E20.65188
G1 X150.882 Y67.09 E20.69024
G1 X150.932 Y67.857 E20.72858
G1 X150.908 Y68.568 E20.76408
G1 X149.391 Y86.835 E21.67856
G1 X149.312 Y87.458 E21.70989
G1 X149.171 Y88.117 E21.74351
G1 X145.011 Y103.992 E22.56226
G1 X144.643 Y105.058 E22.61852
G1 X144.63 Y105.088 E22.62015
G1 X144.288 Y105.777 E22.65853
G1 X144.039 Y106.187 E22.68246
G1 X132.186 Y124.37 E23.76534
G1 X131.733 Y124.992 E23.80373
G1 X131.22 Y125.562 E23.84199
G1 X131.194 Y125.588 E23.84382
G1 X130.622 Y126.102 E23.88219
G1 X130.036 Y126.532 E23.91845
G1 X112.3 Y138.234 E24.97854
G1 X111.625 Y138.63 E25.01759
G1 X110.632 Y139.058 E25.07153
G1 X89.679 Y146.344 E26.17828
G1 X88.847 Y146.58 E26.22143
G1 X74.854 Y149.675 E26.93641
G1 X74.096 Y149.802 E26.97476
G1 X73.643 Y149.84 E26.99744
G1 X72.874 Y149.844 E27.0358
G1 X72.283 Y149.792 E27.0654
G1 X65.619 Y148.94 E27.40058
G1 X64.862 Y148.803 E27.43896
G1 X64.123 Y148.588 E27.47735
G1 X63.411 Y148.298 E27.51571
G1 X62.733 Y147.935 E27.55408
G1 X62.096 Y147.504 E27.59245
G1 X61.507 Y147.009 E27.63083
G1 X61.015 Y146.504 E27.66601
G1 X60.915 Y146.391 E27.67354
G1 X60.436 Y145.789 E27.71192
G1 X60.022 Y145.141 E27.75028
G1 X59.678 Y144.454 E27.78861
G1 X59.406 Y143.734 E27.82701
G1 X59.211 Y142.99 E27.86538
G1 X59.094 Y142.23 E27.90375
G1 X59.057 Y141.483 E27.94106
G1 X59.081 Y91.626 E30.42844
G1 X59.081 Y67.665 E31.62386
G1 X59.121 Y66.897 E31.66222
G1 X59.24 Y66.137 E31.7006
G1 X59.438 Y65.394 E31.73896
G1 X59.712 Y64.675 E31.77735
G1 X60.059 Y63.989 E31.81571
G1 X60.475 Y63.342 E31.85408
G1 X60.956 Y62.742 E31.89245
G1 X61.389 Y62.293 E31.92357
M205 X10 Y10
G0 F6000 X61.67 Y62.577
M205 X8 Y8
G1 F1200 X62.229 Y62.08 E31.96088
G1 X62.837 Y61.645 E31.99818
G1 X63.489 Y61.277 E32.03553
G1 X64.176 Y60.981 E32.07285
G1 X64.891 Y60.76 E32.11019
G1 X65.625 Y60.616 E32.14751
G1 X66.624 Y60.548 E32.19746
G1 X143.439 Y60.826 E36.0298
G1 X144.186 Y60.869 E36.06713
G1 X144.924 Y60.991 E36.10445
G1 X145.645 Y61.191 E36.14178
G1 X146.34 Y61.467 E36.17909
G1 X147.002 Y61.816 E36.21643
G1 X147.623 Y62.233 E36.25374
G1 X148.196 Y62.714 E36.29107
G1 X148.577 Y63.1 E36.31813
G1 X148.696 Y63.23 E36.32692
G1 X149.171 Y63.808 E36.36424
G1 X149.582 Y64.433 E36.40156
G1 X149.923 Y65.098 E36.43885
G1 X150.192 Y65.797 E36.47622
G1 X150.384 Y66.52 E36.51354
G1 X150.498 Y67.259 E36.55084
G1 X150.533 Y68.006 E36.58815
G1 X150.509 Y68.535 E36.61457
G1 X148.992 Y86.802 E37.52905
G1 X148.918 Y87.392 E37.55872
G1 X148.784 Y88.015 E37.59051
G1 X144.624 Y103.89 E38.40926
G1 X144.276 Y104.899 E38.46251
G1 X144.263 Y104.929 E38.46414
G1 X143.929 Y105.599 E38.50149
G1 X143.704 Y105.969 E38.52309
G1 X131.851 Y124.152 E39.60597
G1 X131.41 Y124.756 E39.64328
G1 X130.937 Y125.279 E39.67846
G1 X130.911 Y125.305 E39.68029
G1 X130.354 Y125.805 E39.71764
G1 X129.816 Y126.198 E39.75088
G1 X112.08 Y137.9 E40.81097
G1 X111.44 Y138.275 E40.84798
G1 X110.501 Y138.681 E40.89902
G1 X89.548 Y145.967 E42.00576
G1 X88.761 Y146.19 E42.04657
G1 X74.768 Y149.285 E42.76156
G1 X74.03 Y149.407 E42.79888
G1 X73.62 Y149.441 E42.8194
G1 X72.872 Y149.443 E42.85672
G1 X72.333 Y149.395 E42.88372
G1 X65.669 Y148.543 E43.21889
G1 X64.933 Y148.409 E43.25622
G1 X64.216 Y148.197 E43.29352
G1 X63.525 Y147.909 E43.33087
G1 X62.869 Y147.55 E43.36818
G1 X62.256 Y147.122 E43.40548
G1 X61.691 Y146.632 E43.44279
G1 X61.315 Y146.239 E43.46992
G1 X61.215 Y146.126 E43.47745
G1 X60.75 Y145.54 E43.51477
G1 X60.35 Y144.908 E43.55209
G1 X60.02 Y144.237 E43.58939
G1 X59.763 Y143.534 E43.62674
G1 X59.583 Y142.808 E43.66405
G1 X59.481 Y142.067 E43.70137
G1 X59.457 Y141.484 E43.73048
G1 X59.481 Y91.627 E46.21786
G1 X59.481 Y67.665 E47.41333
G1 X59.521 Y66.918 E47.45065
G1 X59.64 Y66.18 E47.48794
G1 X59.838 Y65.458 E47.52529
G1 X60.111 Y64.762 E47.56259
G1 X60.458 Y64.099 E47.59993
G1 X60.873 Y63.476 E47.63727
G1 X61.552 Y62.694 E47.68894
G1 X61.67 Y62.577 E47.69723
M205 X10 Y10
G0 F6000 X61.952 Y62.861
M205 X8 Y8
G1 F1200 X62.495 Y62.379 E47.73345
G1 X63.088 Y61.959 E47.76971
G1 X63.723 Y61.607 E47.80593
G1 X64.394 Y61.327 E47.8422
G1 X65.091 Y61.123 E47.87844
G1 X65.806 Y60.996 E47.91467
G1 X66.623 Y60.948 E47.9555
G1 X143.438 Y61.226 E51.78784
G1 X144.163 Y61.269 E51.82407
G1 X144.879 Y61.391 E51.86031
G1 X145.577 Y61.591 E51.89653
G1 X146.249 Y61.866 E51.93276
G1 X146.887 Y62.214 E51.96901
G1 X147.483 Y62.629 E52.00525
G1 X148.029 Y63.108 E52.04148
G1 X148.401 Y63.5 E52.06845
G1 X148.862 Y64.062 E52.10471
G1 X149.257 Y64.671 E52.14092
G1 X149.584 Y65.32 E52.17718
G1 X149.837 Y66 E52.21338
G1 X150.013 Y66.705 E52.24963
G1 X150.112 Y67.425 E52.28589
G1 X150.11 Y68.502 E52.33962
G1 X148.593 Y86.769 E53.2541
G1 X148.523 Y87.326 E53.28211
G1 X148.397 Y87.914 E53.31211
G1 X144.237 Y103.789 E54.13086
G1 X143.909 Y104.74 E54.18105
G1 X143.896 Y104.77 E54.18268
G1 X143.571 Y105.42 E54.21894
G1 X143.369 Y105.75 E54.23824
G1 X131.516 Y123.933 E55.32112
G1 X131.086 Y124.519 E55.35738
G1 X130.654 Y124.996 E55.38948
G1 X130.628 Y125.022 E55.39132
G1 X130.087 Y125.506 E55.42753
G1 X129.596 Y125.864 E55.45785
G1 X111.86 Y137.566 E56.51795
G1 X111.255 Y137.92 E56.55292
G1 X110.37 Y138.303 E56.60103
G1 X89.417 Y145.589 E57.70777
G1 X88.674 Y145.799 E57.74629
G1 X74.681 Y148.894 E58.46128
G1 X73.633 Y149.039 E58.51406
G1 X73.598 Y149.041 E58.51581
G1 X72.871 Y149.043 E58.55208
G1 X72.384 Y148.999 E58.57648
G1 X65.72 Y148.147 E58.91165
G1 X65.006 Y148.015 E58.94788
G1 X64.31 Y147.806 E58.98413
G1 X63.642 Y147.521 E59.02037
G1 X63.009 Y147.165 E59.0566
G1 X62.419 Y146.741 E59.09285
G1 X61.879 Y146.256 E59.12906
G1 X61.514 Y145.861 E59.15589
G1 X61.064 Y145.291 E59.19212
G1 X60.678 Y144.676 E59.22835
G1 X60.363 Y144.021 E59.26461
G1 X60.121 Y143.336 E59.30085
G1 X59.957 Y142.629 E59.33706
G1 X59.87 Y141.908 E59.37329
G1 X59.857 Y141.484 E59.39446
G1 X59.881 Y91.627 E61.88183
G1 X59.881 Y67.665 E63.0773
G1 X59.921 Y66.94 E63.11353
G1 X60.04 Y66.223 E63.14979
G1 X60.238 Y65.524 E63.18603
G1 X60.511 Y64.851 E63.22227
G1 X60.856 Y64.212 E63.2585
G1 X61.27 Y63.615 E63.29474
G1 X61.834 Y62.978 E63.33719
G1 X61.952 Y62.861 E63.34548
M205 X10 Y10
G0 F6000 X62.234 Y63.145
M205 X8 Y8
G1 F1200 X62.761 Y62.679 E63.38058
G1 X63.338 Y62.275 E63.41572
G1 X63.956 Y61.939 E63.45081
G1 X64.609 Y61.676 E63.48593
G1 X65.288 Y61.488 E63.52108
G1 X65.983 Y61.379 E63.55618
G1 X66.621 Y61.348 E63.58805
G1 X143.436 Y61.626 E67.42039
G1 X144.139 Y61.669 E67.45553
G1 X144.832 Y61.79 E67.49062
G1 X145.508 Y61.99 E67.52579
G1 X146.156 Y62.265 E67.56091
G1 X146.768 Y62.612 E67.59601
G1 X147.338 Y63.026 E67.63116
G1 X147.987 Y63.64 E67.67573
G1 X148.106 Y63.77 E67.68453
G1 X148.551 Y64.315 E67.71963
G1 X148.932 Y64.907 E67.75475
G1 X149.243 Y65.539 E67.78989
G1 X149.48 Y66.202 E67.82502
G1 X149.64 Y66.887 E67.86011
G1 X149.722 Y67.587 E67.89528
G1 X149.712 Y68.469 E67.93928
G1 X148.195 Y86.736 E68.85376
G1 X148.129 Y87.26 E68.88011
G1 X148.01 Y87.813 E68.90833
G1 X143.85 Y103.688 E69.72708
G1 X143.542 Y104.581 E69.77421
G1 X143.529 Y104.611 E69.77584
G1 X143.034 Y105.532 E69.82801
G1 X131.181 Y123.715 E70.91088
G1 X130.764 Y124.282 E70.946
G1 X130.371 Y124.713 E70.9751
G1 X130.345 Y124.739 E70.97693
G1 X129.82 Y125.208 E71.01205
G1 X129.375 Y125.53 E71.03946
G1 X111.639 Y137.232 E72.09955
G1 X111.07 Y137.566 E72.13247
G1 X110.238 Y137.925 E72.17768
G1 X89.285 Y145.211 E73.28442
G1 X88.588 Y145.409 E73.32057
G1 X74.595 Y148.504 E74.03556
G1 X73.61 Y148.64 E74.08517
G1 X73.575 Y148.642 E74.08692
G1 X72.871 Y148.642 E74.12204
G1 X72.435 Y148.602 E74.14388
G1 X65.771 Y147.75 E74.47906
G1 X65.079 Y147.621 E74.51418
G1 X64.406 Y147.415 E74.54929
G1 X63.76 Y147.133 E74.58446
G1 X63.151 Y146.781 E74.61955
G1 X62.586 Y146.361 E74.65467
G1 X61.914 Y145.709 E74.70138
G1 X61.814 Y145.596 E74.70891
G1 X61.378 Y145.043 E74.74405
G1 X61.008 Y144.444 E74.77917
G1 X60.708 Y143.808 E74.81425
G1 X60.482 Y143.141 E74.84939
G1 X60.333 Y142.453 E74.88451
G1 X60.257 Y141.484 E74.933
G1 X60.281 Y91.627 E77.42038
G1 X60.281 Y67.665 E78.61585
G1 X60.321 Y66.962 E78.65098
G1 X60.44 Y66.268 E78.68611
G1 X60.638 Y65.593 E78.7212
G1 X60.91 Y64.944 E78.75631
G1 X61.255 Y64.33 E78.79144
G1 X61.666 Y63.759 E78.82654
G1 X62.116 Y63.262 E78.85999
G1 X62.234 Y63.145 E78.86828
M205 X10 Y10
G0 F6000 X62.515 Y63.429
M205 X8 Y8
G1 F1200 X63.026 Y62.979 E78.90225
G1 X63.586 Y62.592 E78.93621
G1 X64.188 Y62.273 E78.9702
G1 X64.822 Y62.027 E79.00413
G1 X65.482 Y61.857 E79.03814
G1 X66.156 Y61.765 E79.07207
G1 X66.62 Y61.748 E79.09524
G1 X143.435 Y62.026 E82.92758
G1 X144.115 Y62.068 E82.96157
G1 X144.784 Y62.19 E82.9955
G1 X145.435 Y62.39 E83.02947
G1 X146.059 Y62.664 E83.06347
G1 X146.645 Y63.01 E83.09742
G1 X147.188 Y63.421 E83.1314
G1 X147.692 Y63.91 E83.16643
G1 X147.811 Y64.04 E83.17523
G1 X148.241 Y64.568 E83.2092
G1 X148.605 Y65.143 E83.24315
G1 X148.9 Y65.757 E83.27714
G1 X149.121 Y66.401 E83.3111
G1 X149.264 Y67.067 E83.34509
G1 X149.329 Y67.744 E83.37902
G1 X149.313 Y68.436 E83.41355
G1 X147.796 Y86.703 E84.32803
G1 X147.734 Y87.195 E84.35277
G1 X147.624 Y87.711 E84.3791
G1 X143.464 Y103.586 E85.19784
G1 X143.175 Y104.422 E85.24198
G1 X143.162 Y104.452 E85.24361
G1 X142.699 Y105.313 E85.29238
G1 X130.846 Y123.496 E86.37525
G1 X130.441 Y124.044 E86.40925
G1 X130.088 Y124.43 E86.43535
G1 X130.062 Y124.456 E86.43718
G1 X129.553 Y124.909 E86.47118
G1 X129.155 Y125.196 E86.49566
G1 X111.419 Y136.898 E87.55575
G1 X110.885 Y137.211 E87.58663
G1 X110.107 Y137.547 E87.62891
G1 X89.154 Y144.833 E88.73566
G1 X88.502 Y145.018 E88.76947
G1 X74.509 Y148.113 E89.48446
G1 X73.587 Y148.241 E89.5309
G1 X73.552 Y148.243 E89.53265
G1 X72.871 Y148.241 E89.56662
G1 X72.485 Y148.205 E89.58596
G1 X65.821 Y147.353 E89.92114
G1 X65.152 Y147.227 E89.9551
G1 X64.503 Y147.024 E89.98903
G1 X63.881 Y146.746 E90.02302
G1 X63.296 Y146.397 E90.057
G1 X62.757 Y145.982 E90.09094
G1 X62.214 Y145.444 E90.12908
G1 X62.114 Y145.331 E90.1366
G1 X61.693 Y144.795 E90.17061
G1 X61.338 Y144.214 E90.20458
G1 X61.054 Y143.595 E90.23855
G1 X60.844 Y142.948 E90.27249
G1 X60.711 Y142.28 E90.30647
G1 X60.657 Y141.484 E90.34628
G1 X60.681 Y91.627 E92.83365
G1 X60.681 Y67.665 E94.02912
G1 X60.721 Y66.985 E94.0631
G1 X60.84 Y66.315 E94.09705
G1 X61.037 Y65.663 E94.13103
G1 X61.309 Y65.039 E94.165
G1 X61.653 Y64.451 E94.19898
G1 X62.063 Y63.907 E94.23297
G1 X62.515 Y63.429 E94.26579
M205 X10 Y10
G0 F6000 X62.797 Y63.713
M205 X8 Y8
G1 F1200 X63.291 Y63.28 E94.29856
G1 X63.833 Y62.91 E94.3313
G1 X64.417 Y62.608 E94.3641
G1 X65.033 Y62.38 E94.39687
G1 X65.672 Y62.228 E94.42964
G1 X66.619 Y62.148 E94.47706
G1 X143.434 Y62.426 E98.3094
G1 X144.089 Y62.468 E98.34214
G1 X144.735 Y62.59 E98.37494
G1 X145.361 Y62.789 E98.40771
G1 X145.958 Y63.063 E98.44048
G1 X146.518 Y63.407 E98.47327
G1 X147.031 Y63.817 E98.50604
G1 X147.397 Y64.18 E98.53175
G1 X147.516 Y64.31 E98.54055
G1 X147.929 Y64.821 E98.57333
G1 X148.278 Y65.378 E98.60612
G1 X148.556 Y65.973 E98.63888
G1 X148.759 Y66.597 E98.67162
