;FLAVOR:Marlin
;TIME:7307
;Filament used: 5.83369m
;Layer height: 0.2
;MINX:58.668
;MINY:59.748
;MINZ:0.3
;MAXX:151.343
;MAXY:150.249
;MAXZ:4.175
;Generated with Cura_SteamEngine 4.13.1
M82 ;absolute extrusion mode
G21                                        ; metric values 
G90                                        ; absolute positioning 
M82                                        ; set extruder to absolute mode 
M107                                       ; start with the fan off 
M140 S60.0           ; Start heating the bed 
G4 S60                                     ; wait 1 minute 
M104 S220.0         ; start heating the hot end 
M190 S60.0           ; wait for bed 
M109 S220.0         ; wait for hotend 
M300 S1000 P500                            ; BEEP heating done 
G28 X0 Y10 Z0                              ; move X/Y to min endstops 
M420 S1                                    ; Enable leveling 
M420 Z2.0                                  ; Set leveling fading height to 2 mm 
G0 Z0.15                                   ; lift nozzle a bit 
G92 E0                                     ; zero the extruded length 
G1 X50 E25 F500                            ; Extrude 25mm of filament in a 5cm line. 
G92 E0                                     ; zero the extruded length again 
G1 E-2 F500                                ; Retract a little 
G1 X120 F4000                              ; Quickly wipe away from the filament line`
G92 E0
G92 E0
G1 F2400 E-3
;LAYER_COUNT:20
;LAYER:0
M106 S76.5
M205 X10 Y10
G1 F600 Z0.375
G0 F6000 X61.395 Y62.005 Z0.375
M205 X8 Y8
;TYPE:SKIRT
G1 F600 Z0.3
G1 F2400 E0
G1 F1200 X62.01 Y61.51 E0.03939
G1 X62.672 Y61.079 E0.0788
G1 X63.374 Y60.718 E0.11818
G1 X64.109 Y60.43 E0.15756
G1 X64.87 Y60.217 E0.19699
G1 X65.648 Y60.083 E0.23637
G1 X66.558 Y60.026 E0.28186
G1 X143.373 Y59.748 E4.1142
G1 X144.162 Y59.785 E4.15361
G1 X144.943 Y59.902 E4.19301
G1 X145.708 Y60.097 E4.2324
G1 X146.449 Y60.368 E4.27176
G1 X147.16 Y60.713 E4.31119
G1 X147.832 Y61.128 E4.35059
G1 X148.458 Y61.609 E4.38998
G1 X148.893 Y62.009 E4.41946
G1 X149.011 Y62.126 E4.42775
G1 X149.543 Y62.71 E4.46716
G1 X150.013 Y63.344 E4.50654
G1 X150.417 Y64.023 E4.54596
G1 X150.749 Y64.739 E4.58533
G1 X151.008 Y65.485 E4.62473
G1 X151.19 Y66.254 E4.66415
G1 X151.294 Y67.037 E4.70356
G1 X151.319 Y67.665 E4.73492
G1 X151.32 Y94.146 E6.05606
G1 X151.343 Y141.483 E8.41771
G1 X151.303 Y142.272 E8.45713
G1 X151.184 Y143.053 E8.49654
G1 X150.987 Y143.817 E8.5359
G1 X150.713 Y144.558 E8.57532
G1 X150.366 Y145.267 E8.6147
G1 X149.949 Y145.938 E8.65411
G1 X149.384 Y146.656 E8.69969
G1 X149.284 Y146.769 E8.70722
G1 X148.732 Y147.333 E8.74659
G1 X148.125 Y147.839 E8.78602
G1 X147.47 Y148.28 E8.82541
G1 X146.774 Y148.653 E8.86481
G1 X146.044 Y148.954 E8.9042
G1 X145.287 Y149.179 E8.9436
G1 X144.432 Y149.337 E8.98698
G1 X137.768 Y150.189 E9.32216
G1 X136.981 Y150.249 E9.36154
G1 X136.26 Y150.235 E9.39751
G1 X135.476 Y150.146 E9.43688
G1 X135.062 Y150.066 E9.45791
G1 X121.056 Y146.968 E10.17357
G1 X120.179 Y146.719 E10.21905
G1 X99.238 Y139.437 E11.32516
G1 X98.201 Y138.99 E11.3815
G1 X97.479 Y138.568 E11.42322
G1 X79.743 Y126.866 E12.48332
G1 X79.107 Y126.398 E12.52272
G1 X78.524 Y125.87 E12.56196
G1 X78.498 Y125.844 E12.56379
G1 X77.968 Y125.258 E12.60321
G1 X77.479 Y124.589 E12.64455
G1 X65.626 Y106.406 E13.72743
G1 X65.229 Y105.723 E13.76684
G1 X64.99 Y105.217 E13.79476
G1 X64.713 Y104.478 E13.83414
G1 X64.602 Y104.093 E13.85413
G1 X60.442 Y88.218 E14.67287
G1 X60.29 Y87.505 E14.70925
G1 X60.211 Y86.869 E14.74122
G1 X58.694 Y68.602 E15.6557
G1 X58.668 Y67.812 E15.69514
G1 X58.723 Y67.024 E15.73454
G1 X58.857 Y66.246 E15.77393
G1 X59.069 Y65.485 E15.81334
G1 X59.356 Y64.75 E15.85271
G1 X59.717 Y64.048 E15.89209
G1 X60.147 Y63.385 E15.93152
G1 X60.714 Y62.689 E15.9763
G1 X60.833 Y62.559 E15.9851
G1 X61.395 Y62.005 E16.02447
M205 X10 Y10
G0 F6000 X61.676 Y62.29
M205 X8 Y8
G1 F1200 X62.277 Y61.81 E16.06284
G1 X62.925 Y61.395 E16.10123
G1 X63.612 Y61.05 E16.13958
G1 X64.331 Y60.778 E16.17794
G1 X65.075 Y60.582 E16.21632
G1 X65.835 Y60.464 E16.25469
G1 X66.559 Y60.426 E16.29086
G1 X143.374 Y60.148 E20.1232
G1 X144.142 Y60.185 E20.16156
G1 X144.903 Y60.302 E20.19998
G1 X145.647 Y60.497 E20.23835
G1 X146.367 Y60.768 E20.27673
G1 X147.054 Y61.113 E20.31508
G1 X147.702 Y61.527 E20.35345
G1 X148.304 Y62.006 E20.39183
G1 X148.729 Y62.41 E20.42108
G1 X149.247 Y62.979 E20.45947
G1 X149.702 Y63.599 E20.49784
G1 X150.091 Y64.263 E20.53623
G1 X150.408 Y64.963 E20.57457
G1 X150.651 Y65.693 E20.61295
G1 X150.818 Y66.444 E20.65134
G1 X150.905 Y67.208 E20.6897
G1 X150.919 Y67.665 E20.71251
G1 X150.92 Y94.146 E22.03365
G1 X150.943 Y141.483 E24.39531
G1 X150.903 Y142.252 E24.43372
G1 X150.784 Y143.011 E24.47205
G1 X150.587 Y143.755 E24.51045
G1 X150.313 Y144.474 E24.54884
G1 X149.967 Y145.16 E24.58717
G1 X149.551 Y145.807 E24.62554
G1 X149.085 Y146.391 E24.66282
G1 X148.985 Y146.504 E24.67035
G1 X148.446 Y147.053 E24.70873
G1 X147.853 Y147.543 E24.74711
G1 X147.212 Y147.968 E24.78548
G1 X146.531 Y148.325 E24.82384
G1 X145.816 Y148.609 E24.86222
G1 X145.075 Y148.818 E24.90063
G1 X144.381 Y148.94 E24.93579
G1 X137.717 Y149.792 E25.27096
G1 X136.95 Y149.85 E25.30934
G1 X136.285 Y149.836 E25.34252
G1 X135.149 Y149.675 E25.39976
G1 X121.143 Y146.577 E26.11541
G1 X120.31 Y146.341 E26.15861
G1 X99.369 Y139.059 E27.26472
G1 X98.386 Y138.635 E27.31813
G1 X97.7 Y138.234 E27.35778
G1 X79.964 Y126.532 E28.41787
G1 X79.345 Y126.075 E28.45626
G1 X78.806 Y125.588 E28.4925
G1 X78.78 Y125.562 E28.49434
G1 X78.266 Y124.99 E28.5327
G1 X77.814 Y124.37 E28.57098
G1 X65.961 Y106.187 E29.65386
G1 X65.575 Y105.522 E29.69222
G1 X65.357 Y105.058 E29.7178
G1 X64.989 Y103.992 E29.77406
G1 X60.829 Y88.117 E30.59281
G1 X60.685 Y87.44 E30.62734
G1 X60.609 Y86.835 E30.65776
G1 X59.092 Y68.568 E31.57224
G1 X59.069 Y67.8 E31.61057
G1 X59.125 Y67.033 E31.64894
G1 X59.26 Y66.275 E31.68735
G1 X59.474 Y65.536 E31.72574
G1 X59.763 Y64.824 E31.76407
G1 X60.124 Y64.145 E31.80244
G1 X60.554 Y63.507 E31.84082
G1 X61.009 Y62.959 E31.87636
G1 X61.128 Y62.829 E31.88515
G1 X61.676 Y62.29 E31.9235
M205 X10 Y10
G0 F6000 X61.956 Y62.576
M205 X8 Y8
G1 F1200 X62.543 Y62.111 E31.96086
G1 X63.176 Y61.713 E31.99816
G1 X63.848 Y61.384 E32.03549
G1 X64.551 Y61.128 E32.07282
G1 X65.277 Y60.949 E32.11012
G1 X66.019 Y60.849 E32.14748
G1 X66.561 Y60.826 E32.17454
G1 X143.376 Y60.548 E36.00688
G1 X144.123 Y60.585 E36.0442
G1 X144.862 Y60.702 E36.08152
G1 X145.584 Y60.897 E36.11884
G1 X146.281 Y61.168 E36.15615
G1 X146.946 Y61.512 E36.1935
G1 X147.569 Y61.924 E36.23076
G1 X148.33 Y62.577 E36.28079
G1 X148.448 Y62.694 E36.28908
G1 X148.95 Y63.249 E36.32642
G1 X149.39 Y63.853 E36.3637
G1 X149.763 Y64.502 E36.40104
G1 X150.065 Y65.186 E36.43835
G1 X150.293 Y65.899 E36.47569
G1 X150.442 Y66.632 E36.51301
G1 X150.519 Y67.665 E36.56469
G1 X150.52 Y94.146 E37.88583
G1 X150.543 Y141.484 E40.24753
G1 X150.503 Y142.231 E40.28485
G1 X150.384 Y142.969 E40.32215
G1 X150.187 Y143.691 E40.35949
G1 X149.914 Y144.387 E40.39679
G1 X149.568 Y145.05 E40.4341
G1 X149.153 Y145.673 E40.47144
G1 X148.785 Y146.126 E40.50056
G1 X148.685 Y146.239 E40.50809
G1 X148.16 Y146.772 E40.54541
G1 X147.581 Y147.246 E40.58275
G1 X146.955 Y147.655 E40.62005
G1 X146.289 Y147.995 E40.65736
G1 X145.59 Y148.263 E40.69471
G1 X144.867 Y148.454 E40.73201
G1 X144.331 Y148.543 E40.75912
G1 X137.667 Y149.395 E41.0943
G1 X136.921 Y149.451 E41.13162
G1 X136.31 Y149.436 E41.16211
G1 X135.235 Y149.285 E41.21627
G1 X121.229 Y146.187 E41.93192
G1 X120.442 Y145.964 E41.97273
G1 X99.501 Y138.682 E43.07885
G1 X98.571 Y138.281 E43.12937
G1 X97.92 Y137.9 E43.16701
G1 X80.184 Y126.198 E44.2271
G1 X79.582 Y125.753 E44.26445
G1 X79.089 Y125.305 E44.29768
G1 X79.063 Y125.279 E44.29952
G1 X78.563 Y124.722 E44.33686
G1 X78.149 Y124.152 E44.37201
G1 X66.296 Y105.969 E45.45488
G1 X65.921 Y105.321 E45.49224
G1 X65.724 Y104.899 E45.51547
G1 X65.376 Y103.89 E45.56872
G1 X61.216 Y88.015 E46.38747
G1 X61.079 Y87.374 E46.42017
G1 X61.008 Y86.802 E46.44893
G1 X59.491 Y68.535 E47.36341
G1 X59.469 Y67.788 E47.40069
G1 X59.527 Y67.042 E47.43802
G1 X59.664 Y66.306 E47.47537
G1 X59.879 Y65.59 E47.51267
G1 X60.169 Y64.9 E47.55001
G1 X60.531 Y64.246 E47.5873
G1 X60.961 Y63.633 E47.62466
G1 X61.304 Y63.23 E47.65106
G1 X61.423 Y63.1 E47.65986
G1 X61.956 Y62.576 E47.69715
M205 X10 Y10
G0 F6000 X62.237 Y62.862
M205 X8 Y8
G1 F1200 X62.809 Y62.414 E47.73339
G1 X63.426 Y62.031 E47.76963
G1 X64.082 Y61.719 E47.80587
G1 X64.768 Y61.481 E47.84209
G1 X65.477 Y61.32 E47.87836
G1 X66.198 Y61.237 E47.91457
G1 X66.562 Y61.226 E47.93274
G1 X143.377 Y60.948 E51.76508
G1 X144.103 Y60.985 E51.80135
G1 X144.819 Y61.102 E51.83754
G1 X145.519 Y61.297 E51.8738
G1 X146.193 Y61.568 E51.91004
G1 X146.833 Y61.911 E51.94627
G1 X147.432 Y62.322 E51.98251
G1 X148.048 Y62.861 E52.02334
G1 X148.166 Y62.978 E52.03164
G1 X148.653 Y63.517 E52.06788
G1 X149.078 Y64.107 E52.10415
G1 X149.435 Y64.739 E52.14037
G1 X149.721 Y65.407 E52.17662
G1 X149.931 Y66.102 E52.21284
G1 X150.064 Y66.816 E52.24908
G1 X150.119 Y67.665 E52.29152
G1 X150.12 Y94.146 E53.61266
G1 X150.143 Y141.484 E55.97437
G1 X150.103 Y142.209 E56.01059
G1 X149.984 Y142.926 E56.04685
G1 X149.787 Y143.625 E56.08308
G1 X149.514 Y144.298 E56.11932
G1 X149.169 Y144.937 E56.15555
G1 X148.756 Y145.534 E56.19176
G1 X148.386 Y145.974 E56.22045
G1 X147.875 Y146.491 E56.25671
G1 X147.311 Y146.948 E56.29293
G1 X146.7 Y147.341 E56.32917
G1 X146.049 Y147.664 E56.36543
G1 X145.367 Y147.913 E56.40165
G1 X144.662 Y148.087 E56.43788
G1 X144.28 Y148.147 E56.45717
G1 X137.616 Y148.999 E56.79234
G1 X136.892 Y149.051 E56.82856
G1 X136.335 Y149.037 E56.85636
G1 X135.322 Y148.894 E56.9074
G1 X121.316 Y145.796 E57.62305
G1 X120.573 Y145.586 E57.66157
G1 X99.632 Y138.304 E58.76768
G1 X98.755 Y137.926 E58.81533
G1 X98.14 Y137.566 E58.85088
G1 X80.404 Y125.864 E59.91098
G1 X79.821 Y125.431 E59.94721
G1 X79.372 Y125.022 E59.97751
G1 X79.346 Y124.996 E59.97934
G1 X78.862 Y124.455 E60.01556
G1 X78.484 Y123.933 E60.04771
G1 X66.631 Y105.75 E61.13059
G1 X66.268 Y105.121 E61.16682
G1 X66.091 Y104.74 E61.18778
G1 X65.763 Y103.789 E61.23797
G1 X61.603 Y87.914 E62.05672
G1 X61.474 Y87.308 E62.08763
G1 X61.407 Y86.769 E62.11473
G1 X59.89 Y68.502 E63.02921
G1 X59.869 Y67.776 E63.06544
G1 X59.929 Y67.052 E63.10169
G1 X60.068 Y66.339 E63.13793
G1 X60.284 Y65.646 E63.17414
G1 X60.576 Y64.981 E63.21038
G1 X60.938 Y64.351 E63.24663
G1 X61.599 Y63.5 E63.30039
G1 X61.718 Y63.37 E63.30918
G1 X62.237 Y62.862 E63.34541
M205 X10 Y10
G0 F6000 X62.517 Y63.148
M205 X8 Y8
G1 F1200 X63.073 Y62.717 E63.38051
G1 X63.675 Y62.352 E63.41563
G1 X64.314 Y62.057 E63.45074
G1 X64.983 Y61.837 E63.48588
G1 X65.672 Y61.694 E63.52099
G1 X66.564 Y61.626 E63.56562
G1 X143.379 Y61.348 E67.39796
G1 X144.082 Y61.385 E67.43308
G1 X144.776 Y61.502 E67.46819
G1 X145.452 Y61.697 E67.50329
G1 X146.102 Y61.967 E67.53841
G1 X146.718 Y62.31 E67.57358
G1 X147.29 Y62.719 E67.60867
G1 X147.766 Y63.145 E67.64054
G1 X147.884 Y63.262 E67.64883
G1 X148.355 Y63.786 E67.68398
G1 X148.764 Y64.359 E67.7191
G1 X149.105 Y64.975 E67.75423
G1 X149.374 Y65.625 E67.78932
G1 X149.567 Y66.302 E67.82444
G1 X149.683 Y66.997 E67.8596
G1 X149.719 Y67.665 E67.89297
G1 X149.72 Y94.146 E69.21411
G1 X149.743 Y141.484 E71.57582
G1 X149.703 Y142.187 E71.61095
G1 X149.584 Y142.881 E71.64608
G1 X149.387 Y143.557 E71.6812
G1 X149.115 Y144.206 E71.71631
G1 X148.771 Y144.82 E71.75142
G1 X148.186 Y145.596 E71.79991
G1 X148.086 Y145.709 E71.80744
G1 X147.59 Y146.209 E71.84257
G1 X147.041 Y146.649 E71.87767
G1 X146.445 Y147.024 E71.9128
G1 X145.811 Y147.33 E71.94793
G1 X145.146 Y147.561 E71.98305
G1 X144.229 Y147.75 E72.02976
G1 X137.565 Y148.602 E72.36493
G1 X136.863 Y148.651 E72.40004
G1 X136.36 Y148.638 E72.42514
G1 X135.408 Y148.504 E72.47311
G1 X121.402 Y145.406 E73.18876
G1 X120.705 Y145.208 E73.22491
G1 X99.764 Y137.926 E74.33102
G1 X98.94 Y137.571 E74.37579
G1 X98.361 Y137.232 E74.40926
G1 X80.625 Y125.53 E75.46936
G1 X80.06 Y125.11 E75.50448
G1 X79.655 Y124.739 E75.53188
G1 X79.629 Y124.713 E75.53372
G1 X79.16 Y124.188 E75.56884
G1 X78.819 Y123.715 E75.59793
G1 X66.966 Y105.532 E76.6808
G1 X66.471 Y104.611 E76.73297
G1 X66.458 Y104.581 E76.7346
G1 X66.15 Y103.688 E76.78173
G1 X61.99 Y87.813 E77.60048
G1 X61.868 Y87.242 E77.62961
G1 X61.805 Y86.736 E77.65505
G1 X60.288 Y68.469 E78.56953
G1 X60.27 Y67.765 E78.60466
G1 X60.331 Y67.064 E78.63977
G1 X60.472 Y66.374 E78.6749
G1 X60.69 Y65.705 E78.71001
G1 X60.983 Y65.065 E78.74512
G1 X61.346 Y64.461 E78.78028
G1 X61.894 Y63.77 E78.82428
G1 X62.013 Y63.64 E78.83307
G1 X62.517 Y63.148 E78.86821
M205 X10 Y10
G0 F6000 X62.796 Y63.435
M205 X8 Y8
G1 F1200 X63.337 Y63.022 E78.90217
G1 X63.922 Y62.674 E78.93613
G1 X64.544 Y62.397 E78.9701
G1 X65.195 Y62.195 E79.0041
G1 X65.864 Y62.071 E79.03805
G1 X66.565 Y62.026 E79.07309
G1 X143.38 Y61.748 E82.90543
G1 X144.06 Y61.786 E82.93941
G1 X144.731 Y61.902 E82.97339
G1 X145.383 Y62.097 E83.00734
G1 X146.008 Y62.367 E83.0413
G1 X146.597 Y62.708 E83.07526
G1 X147.143 Y63.116 E83.10926
G1 X147.603 Y63.546 E83.14068
G1 X148.057 Y64.053 E83.17463
G1 X148.449 Y64.61 E83.20861
G1 X148.773 Y65.209 E83.24259
G1 X149.025 Y65.842 E83.27658
G1 X149.201 Y66.499 E83.31051
G1 X149.298 Y67.173 E83.34449
G1 X149.319 Y67.665 E83.36905
G1 X149.32 Y94.146 E84.6902
G1 X149.343 Y141.484 E87.0519
G1 X149.303 Y142.164 E87.08588
G1 X149.184 Y142.834 E87.11983
G1 X148.988 Y143.486 E87.1538
G1 X148.716 Y144.11 E87.18776
G1 X148.373 Y144.699 E87.22177
G1 X147.886 Y145.331 E87.26157
G1 X147.786 Y145.444 E87.2691
G1 X147.306 Y145.926 E87.30304
G1 X146.772 Y146.349 E87.33702
G1 X146.193 Y146.707 E87.37099
G1 X145.576 Y146.994 E87.40494
G1 X144.929 Y147.206 E87.4389
G1 X144.179 Y147.353 E87.47703
G1 X137.515 Y148.205 E87.81221
G1 X136.835 Y148.252 E87.84621
G1 X136.385 Y148.239 E87.86867
G1 X135.494 Y148.113 E87.91357
G1 X121.488 Y145.015 E88.62922
G1 X120.836 Y144.83 E88.66303
G1 X99.895 Y137.548 E89.76915
G1 X99.124 Y137.216 E89.81103
G1 X99.099 Y137.203 E89.81243
G1 X98.581 Y136.898 E89.84242
G1 X80.845 Y125.196 E90.90252
G1 X80.299 Y124.789 E90.93649
G1 X79.912 Y124.43 E90.96283
G1 X79.459 Y123.921 E90.99683
G1 X79.154 Y123.496 E91.02292
G1 X67.301 Y105.313 E92.1058
G1 X66.838 Y104.452 E92.15457
G1 X66.825 Y104.422 E92.1562
G1 X66.536 Y103.586 E92.20033
G1 X62.376 Y87.711 E93.01908
G1 X62.263 Y87.177 E93.04631
G1 X62.204 Y86.703 E93.07014
G1 X60.687 Y68.436 E93.98463
G1 X60.67 Y67.755 E94.01861
G1 X60.734 Y67.077 E94.05259
G1 X60.876 Y66.412 E94.08651
G1 X61.096 Y65.767 E94.12051
G1 X61.389 Y65.153 E94.15445
G1 X61.753 Y64.577 E94.18845
G1 X62.189 Y64.04 E94.22296
G1 X62.308 Y63.91 E94.23175
G1 X62.796 Y63.435 E94.26572
M205 X10 Y10
G0 F6000 X63.075 Y63.723
M205 X8 Y8
G1 F1200 X63.599 Y63.327 E94.29849
G1 X64.168 Y62.998 E94.33128
G1 X64.772 Y62.74 E94.36405
G1 X65.403 Y62.557 E94.39683
G1 X66.052 Y62.453 E94.42962
G1 X66.566 Y62.426 E94.4553
G1 X143.381 Y62.148 E98.28764
G1 X144.037 Y62.186 E98.32042
G1 X144.684 Y62.303 E98.35323
G1 X145.311 Y62.497 E98.38597
G1 X145.91 Y62.767 E98.41875
G1 X146.473 Y63.107 E98.45156
G1 X147.203 Y63.713 E98.4989
G1 X147.321 Y63.83 E98.50719
G1 X147.759 Y64.32 E98.53998
G1 X148.133 Y64.86 E98.57275
G1 X148.44 Y65.441 E98.60553
G1 X148.673 Y66.055 E98.6383
G1 X148.831 Y66.693 E98.67109
G1 X148.919 Y67.665 E98.71978
G1 X148.92 Y94.146 E100.04092
G1 X148.943 Y141.484 E102.40262
G1 X148.903 Y142.14 E102.43541
G1 X148.784 Y142.786 E102.46818
G1 X148.588 Y143.413 E102.50096
