;FLAVOR:Marlin
;TIME:772
;Filament used: 0.624749m
;Layer height: 0.2
;MINX:59.56
;MINY:89.715
;MINZ:0.3
;MAXX:150.449
;MAXY:120.293
;MAXZ:2.975
;Generated with Cura_SteamEngine 4.13.1
M82 ;absolute extrusion mode
G21                                        ; metric values 
G90                                        ; absolute positioning 
M82                                        ; set extruder to absolute mode 
M107                                       ; start with the fan off 
M140 S60.0           ; Start heating the bed 
G4 S60                                     ; wait 1 minute 
M104 S220.0         ; start heating the hot end 
M190 S60.0           ; wait for bed 
M109 S220.0         ; wait for hotend 
M300 S1000 P500                            ; BEEP heating done 
G28 X0 Y10 Z0                              ; move X/Y to min endstops 
M420 S1                                    ; Enable leveling 
M420 Z2.0                                  ; Set leveling fading height to 2 mm 
G0 Z0.15                                   ; lift nozzle a bit 
G92 E0                                     ; zero the extruded length 
G1 X50 E25 F500                            ; Extrude 25mm of filament in a 5cm line. 
G92 E0                                     ; zero the extruded length again 
G1 E-2 F500                                ; Retract a little 
G1 X120 F4000                              ; Quickly wipe away from the filament line`
G92 E0
G92 E0
G1 F2400 E-3
;LAYER_COUNT:14
;LAYER:0
M106 S76.5
M205 X10 Y10
G1 F600 Z0.375
G0 F6000 X65.29 Y91.623 Z0.375
M205 X8 Y8
;TYPE:SKIRT
G1 F600 Z0.3
G1 F2400 E0
G1 F1200 X65.951 Y91.19 E0.03942
G1 X66.436 Y90.929 E0.0669
G1 X67.159 Y90.613 E0.10627
G1 X68.07 Y90.33 E0.15386
G1 X69.696 Y89.932 E0.23738
G1 X70.471 Y89.783 E0.27675
G1 X71.17 Y89.717 E0.31178
G1 X71.211 Y89.715 E0.31382
G1 X72.001 Y89.717 E0.35324
G1 X72.767 Y89.795 E0.39165
G1 X74.458 Y90.053 E0.47699
G1 X75.095 Y90.178 E0.50938
G1 X100.451 Y96.239 E1.81003
G1 X101.006 Y96.393 E1.83877
G1 X101.48 Y96.575 E1.8641
G1 X101.605 Y96.346 E1.87712
G1 X102.474 Y94.911 E1.96081
G1 X102.917 Y94.257 E2.00022
G1 X103.456 Y93.616 E2.042
G1 X103.486 Y93.584 E2.04419
G1 X104.054 Y93.036 E2.08357
G1 X104.582 Y92.615 E2.11726
G1 X105.946 Y91.621 E2.20146
G1 X106.607 Y91.189 E2.24086
G1 X107.09 Y90.929 E2.26822
G1 X107.813 Y90.613 E2.30759
G1 X108.722 Y90.33 E2.35509
G1 X110.347 Y89.932 E2.43855
G1 X111.123 Y89.783 E2.47798
G1 X111.823 Y89.717 E2.51305
G1 X111.864 Y89.715 E2.5151
G1 X112.654 Y89.717 E2.55452
G1 X113.42 Y89.795 E2.59293
G1 X115.111 Y90.053 E2.67827
G1 X115.748 Y90.178 E2.71066
G1 X141.104 Y96.239 E4.01131
G1 X141.659 Y96.393 E4.04005
G1 X142.549 Y96.735 E4.08761
G1 X144.087 Y97.437 E4.17196
G1 X144.788 Y97.801 E4.21137
G1 X145.4 Y98.199 E4.24779
G1 X145.432 Y98.222 E4.24975
G1 X146.049 Y98.715 E4.28916
G1 X146.577 Y99.228 E4.32588
G1 X147.733 Y100.464 E4.41031
G1 X148.242 Y101.067 E4.44968
G1 X148.663 Y101.679 E4.48674
G1 X148.681 Y101.708 E4.48845
G1 X149.063 Y102.399 E4.52784
G1 X149.358 Y103.084 E4.56505
G1 X149.949 Y104.661 E4.64907
G1 X150.188 Y105.413 E4.68843
G1 X150.313 Y105.971 E4.71696
G1 X150.321 Y106.014 E4.71914
G1 X150.426 Y106.797 E4.75856
G1 X150.449 Y107.686 E4.80293
G1 X150.396 Y109.37 E4.88698
G1 X150.331 Y110.157 E4.92638
G1 X150.204 Y110.863 E4.96217
G1 X150.196 Y110.898 E4.96396
G1 X149.981 Y111.658 E5.00336
G1 X149.687 Y112.4 E5.04318
G1 X148.987 Y113.933 E5.12726
G1 X148.623 Y114.634 E5.16667
G1 X148.226 Y115.245 E5.20302
G1 X148.203 Y115.277 E5.20498
G1 X147.71 Y115.894 E5.24439
G1 X147.191 Y116.427 E5.2815
G1 X145.961 Y117.575 E5.36544
G1 X145.357 Y118.084 E5.40485
G1 X144.752 Y118.5 E5.44148
G1 X144.723 Y118.518 E5.44318
G1 X144.032 Y118.9 E5.48257
G1 X143.368 Y119.187 E5.51866
G1 X141.786 Y119.785 E5.60304
G1 X141.034 Y120.027 E5.64245
G1 X140.518 Y120.146 E5.66887
G1 X139.737 Y120.261 E5.70825
G1 X138.749 Y120.293 E5.75757
G1 X137.053 Y120.241 E5.84223
G1 X136.26 Y120.176 E5.88192
G1 X135.439 Y120.024 E5.92358
G1 X109.09 Y113.664 E7.27589
G1 X108.534 Y113.493 E7.30491
G1 X108.333 Y113.934 E7.32909
G1 X107.968 Y114.635 E7.36852
G1 X107.573 Y115.243 E7.40469
G1 X107.55 Y115.275 E7.40666
G1 X107.057 Y115.892 E7.44606
G1 X106.541 Y116.423 E7.483
G1 X105.309 Y117.574 E7.56711
G1 X104.705 Y118.083 E7.60652
G1 X104.097 Y118.501 E7.64333
G1 X104.068 Y118.519 E7.64503
G1 X103.377 Y118.901 E7.68442
G1 X102.71 Y119.189 E7.72067
G1 X101.129 Y119.786 E7.80498
G1 X100.378 Y120.027 E7.84433
G1 X99.864 Y120.146 E7.87065
G1 X99.083 Y120.261 E7.91004
G1 X98.095 Y120.293 E7.95936
G1 X96.4 Y120.241 E8.04396
G1 X95.607 Y120.176 E8.08365
G1 X94.786 Y120.024 E8.12531
G1 X68.437 Y113.664 E9.47762
G1 X67.528 Y113.385 E9.52506
G1 X67.496 Y113.373 E9.52676
G1 X66.772 Y113.059 E9.56613
G1 X66.163 Y112.723 E9.60084
G1 X64.722 Y111.841 E9.68512
G1 X64.07 Y111.395 E9.72454
G1 X63.459 Y110.878 E9.76447
G1 X63.427 Y110.848 E9.76665
G1 X62.879 Y110.28 E9.80603
G1 X62.449 Y109.739 E9.84051
G1 X61.463 Y108.38 E9.92427
G1 X61.032 Y107.718 E9.96369
G1 X60.744 Y107.174 E9.99439
G1 X60.435 Y106.448 E10.03376
G1 X60.19 Y105.648 E10.0755
G1 X59.784 Y104.019 E10.15926
G1 X59.632 Y103.244 E10.19866
G1 X59.562 Y102.523 E10.2348
G1 X59.56 Y102.483 E10.2368
G1 X59.56 Y101.693 E10.27621
G1 X59.643 Y100.895 E10.31624
G1 X59.902 Y99.229 E10.40035
G1 X60.062 Y98.456 E10.43974
G1 X60.284 Y97.747 E10.4768
G1 X60.299 Y97.706 E10.47898
G1 X60.607 Y96.979 E10.51837
G1 X60.952 Y96.346 E10.55434
G1 X61.821 Y94.911 E10.63803
G1 X62.264 Y94.257 E10.67744
G1 X62.803 Y93.616 E10.71923
G1 X62.833 Y93.584 E10.72141
G1 X63.401 Y93.036 E10.76079
G1 X63.927 Y92.617 E10.79434
G1 X65.29 Y91.623 E10.8785
M205 X10 Y10
G0 F6000 X65.526 Y91.946
M205 X8 Y8
G1 F1200 X66.17 Y91.526 E10.91686
G1 X66.615 Y91.287 E10.94206
G1 X67.32 Y90.979 E10.98044
G1 X68.165 Y90.718 E11.02457
G1 X69.791 Y90.32 E11.10808
G1 X70.546 Y90.176 E11.14643
G1 X71.189 Y90.117 E11.17864
G1 X71.23 Y90.115 E11.18069
G1 X72 Y90.117 E11.21911
G1 X72.707 Y90.191 E11.25457
G1 X74.398 Y90.449 E11.33991
G1 X75.002 Y90.567 E11.37062
G1 X100.358 Y96.628 E12.67127
G1 X100.885 Y96.774 E12.69855
G1 X101.663 Y97.073 E12.74014
G1 X101.947 Y96.553 E12.76969
G1 X102.816 Y95.118 E12.85339
G1 X103.248 Y94.481 E12.89179
G1 X103.747 Y93.89 E12.93038
G1 X103.777 Y93.858 E12.93257
G1 X104.332 Y93.325 E12.97096
G1 X104.818 Y92.939 E13.00192
G1 X106.182 Y91.945 E13.08612
G1 X106.826 Y91.524 E13.12451
G1 X107.269 Y91.287 E13.14958
G1 X107.974 Y90.979 E13.18796
G1 X108.818 Y90.718 E13.23203
G1 X110.443 Y90.32 E13.3155
G1 X111.198 Y90.177 E13.35384
G1 X111.842 Y90.117 E13.38611
G1 X111.883 Y90.115 E13.38815
G1 X112.653 Y90.117 E13.42657
G1 X113.36 Y90.191 E13.46203
G1 X115.051 Y90.449 E13.54738
G1 X115.655 Y90.567 E13.57808
G1 X141.011 Y96.628 E14.87873
G1 X141.538 Y96.774 E14.90602
G1 X142.383 Y97.099 E14.95118
G1 X143.921 Y97.801 E15.03553
G1 X144.603 Y98.156 E15.07389
G1 X145.167 Y98.524 E15.10749
G1 X145.199 Y98.547 E15.10945
G1 X145.799 Y99.028 E15.14782
G1 X146.285 Y99.501 E15.18165
G1 X147.441 Y100.737 E15.26608
G1 X147.936 Y101.326 E15.30447
G1 X148.323 Y101.89 E15.33859
G1 X148.341 Y101.919 E15.3403
G1 X148.712 Y102.592 E15.37864
G1 X148.983 Y103.224 E15.41294
G1 X149.574 Y104.801 E15.49696
G1 X149.807 Y105.534 E15.53534
G1 X149.928 Y106.087 E15.56358
G1 X150.029 Y106.85 E15.60198
G1 X150.049 Y107.674 E15.6431
G1 X149.996 Y109.358 E15.72715
G1 X149.932 Y110.124 E15.7655
G1 X149.814 Y110.774 E15.79846
G1 X149.806 Y110.809 E15.80025
G1 X149.596 Y111.549 E15.83863
G1 X149.323 Y112.234 E15.87542
G1 X148.623 Y113.767 E15.9595
G1 X148.268 Y114.449 E15.99786
G1 X147.901 Y115.012 E16.03138
G1 X147.878 Y115.044 E16.03335
G1 X147.397 Y115.644 E16.07172
G1 X146.918 Y116.135 E16.10594
G1 X145.688 Y117.283 E16.18988
G1 X145.099 Y117.778 E16.22826
G1 X144.541 Y118.16 E16.262
G1 X144.512 Y118.178 E16.2637
G1 X143.839 Y118.549 E16.30204
G1 X143.227 Y118.813 E16.3353
G1 X141.645 Y119.411 E16.41967
G1 X140.912 Y119.645 E16.45806
G1 X140.439 Y119.753 E16.48227
G1 X139.678 Y119.865 E16.52064
G1 X138.761 Y119.894 E16.56641
G1 X137.065 Y119.842 E16.65107
G1 X136.312 Y119.78 E16.68876
G1 X135.533 Y119.635 E16.72829
G1 X109.184 Y113.275 E18.0806
G1 X108.316 Y113.009 E18.12589
G1 X107.969 Y113.768 E18.16753
G1 X107.613 Y114.45 E18.20591
G1 X107.248 Y115.01 E18.23926
G1 X107.225 Y115.042 E18.24123
G1 X106.744 Y115.642 E18.27959
G1 X106.268 Y116.13 E18.3136
G1 X105.036 Y117.281 E18.39772
G1 X104.447 Y117.776 E18.4361
G1 X103.886 Y118.161 E18.47005
G1 X103.857 Y118.179 E18.47175
G1 X103.184 Y118.55 E18.51009
G1 X102.569 Y118.815 E18.5435
G1 X100.988 Y119.412 E18.62781
G1 X100.255 Y119.646 E18.6662
G1 X99.785 Y119.753 E18.69025
G1 X99.024 Y119.865 E18.72863
G1 X98.107 Y119.894 E18.7744
G1 X96.412 Y119.842 E18.859
G1 X95.659 Y119.78 E18.8967
G1 X94.88 Y119.635 E18.93623
G1 X68.531 Y113.275 E20.28854
G1 X67.669 Y113.011 E20.33351
G1 X67.637 Y112.999 E20.33522
G1 X66.932 Y112.692 E20.37358
G1 X66.372 Y112.382 E20.40552
G1 X64.931 Y111.5 E20.48981
G1 X64.297 Y111.064 E20.52819
G1 X63.733 Y110.587 E20.56505
G1 X63.701 Y110.557 E20.56723
G1 X63.168 Y110.002 E20.60562
G1 X62.772 Y109.504 E20.63737
G1 X61.786 Y108.145 E20.72113
G1 X61.368 Y107.499 E20.75952
G1 X61.104 Y106.999 E20.78773
G1 X60.804 Y106.291 E20.82609
G1 X60.578 Y105.552 E20.86465
G1 X60.172 Y103.923 E20.9484
G1 X60.025 Y103.168 E20.98678
G1 X59.961 Y102.503 E21.02011
G1 X59.959 Y102.463 E21.02211
G1 X59.961 Y101.693 E21.06052
G1 X60.038 Y100.956 E21.09749
G1 X60.297 Y99.29 E21.18161
G1 X60.454 Y98.537 E21.21998
G1 X60.659 Y97.884 E21.25413
G1 X60.674 Y97.843 E21.25631
G1 X60.976 Y97.136 E21.29466
G1 X61.294 Y96.553 E21.32779
G1 X62.163 Y95.118 E21.41149
G1 X62.595 Y94.481 E21.44989
G1 X63.094 Y93.89 E21.48848
G1 X63.124 Y93.858 E21.49067
G1 X63.679 Y93.325 E21.52906
G1 X64.163 Y92.94 E21.55991
G1 X65.526 Y91.946 E21.64407
M205 X10 Y10
G0 F6000 X65.761 Y92.269
M205 X8 Y8
G1 F1200 X66.388 Y91.861 E21.68139
G1 X66.794 Y91.645 E21.70434
G1 X67.48 Y91.347 E21.74165
G1 X68.26 Y91.107 E21.78237
G1 X69.886 Y90.709 E21.86588
G1 X70.621 Y90.57 E21.9032
G1 X71.209 Y90.516 E21.93266
G1 X71.25 Y90.514 E21.93471
G1 X71.998 Y90.518 E21.97203
G1 X72.647 Y90.586 E22.00458
G1 X74.338 Y90.844 E22.08992
G1 X74.909 Y90.956 E22.11895
G1 X100.265 Y97.017 E23.41961
G1 X100.765 Y97.156 E23.4455
G1 X101.564 Y97.463 E23.4882
G1 X101.866 Y97.601 E23.50477
G1 X101.997 Y97.293 E23.52147
G1 X102.289 Y96.76 E23.55179
G1 X103.158 Y95.325 E23.63548
G1 X103.579 Y94.707 E23.67279
G1 X104.039 Y94.163 E23.70833
G1 X104.069 Y94.131 E23.71052
G1 X104.609 Y93.614 E23.74782
G1 X105.053 Y93.262 E23.77609
G1 X106.417 Y92.268 E23.86029
G1 X107.045 Y91.86 E23.89765
G1 X107.448 Y91.645 E23.92044
G1 X108.134 Y91.347 E23.95775
G1 X108.913 Y91.107 E23.99842
G1 X110.538 Y90.709 E24.08189
G1 X111.273 Y90.57 E24.11921
G1 X111.862 Y90.516 E24.14872
G1 X111.903 Y90.514 E24.15076
G1 X112.651 Y90.518 E24.18808
G1 X113.3 Y90.586 E24.22064
G1 X114.991 Y90.844 E24.30598
G1 X115.562 Y90.956 E24.33501
G1 X140.918 Y97.017 E25.63566
G1 X141.418 Y97.156 E25.66156
G1 X142.217 Y97.463 E25.70426
G1 X143.755 Y98.165 E25.78861
G1 X144.418 Y98.512 E25.82594
G1 X144.933 Y98.849 E25.85664
G1 X144.965 Y98.872 E25.85861
G1 X145.549 Y99.34 E25.89595
G1 X145.992 Y99.774 E25.92689
G1 X147.148 Y101.01 E26.01132
G1 X147.629 Y101.583 E26.04864
G1 X147.983 Y102.1 E26.0799
G1 X148.001 Y102.129 E26.08161
G1 X148.361 Y102.785 E26.11894
G1 X148.609 Y103.365 E26.15041
G1 X149.2 Y104.942 E26.23443
G1 X149.425 Y105.655 E26.27173
G1 X149.535 Y106.161 E26.29756
G1 X149.632 Y106.902 E26.33485
G1 X149.65 Y107.661 E26.37273
G1 X149.597 Y109.345 E26.45678
G1 X149.533 Y110.091 E26.49414
G1 X149.424 Y110.685 E26.52427
G1 X149.416 Y110.72 E26.52606
G1 X149.211 Y111.439 E26.56336
G1 X148.96 Y112.068 E26.59715
G1 X148.26 Y113.601 E26.68122
G1 X147.913 Y114.263 E26.71851
G1 X147.576 Y114.778 E26.74922
G1 X147.553 Y114.81 E26.75118
G1 X147.085 Y115.394 E26.78852
G1 X146.645 Y115.842 E26.81985
G1 X145.415 Y116.99 E26.90379
G1 X144.842 Y117.471 E26.94111
G1 X144.302 Y117.838 E26.97369
G1 X143.646 Y118.198 E27.01102
G1 X143.085 Y118.439 E27.04148
G1 X141.503 Y119.037 E27.12586
G1 X140.79 Y119.264 E27.16319
G1 X140.361 Y119.361 E27.18513
G1 X139.62 Y119.468 E27.22248
G1 X138.773 Y119.494 E27.26476
G1 X137.077 Y119.442 E27.34942
G1 X136.364 Y119.383 E27.38511
G1 X135.627 Y119.247 E27.4225
G1 X109.278 Y112.887 E28.77481
G1 X108.462 Y112.636 E28.8174
G1 X108.115 Y112.487 E28.83624
G1 X107.605 Y113.602 E28.89741
G1 X107.258 Y114.264 E28.9347
G1 X106.923 Y114.776 E28.96523
G1 X106.9 Y114.808 E28.96719
G1 X106.432 Y115.392 E29.00453
G1 X105.995 Y115.838 E29.03568
G1 X104.763 Y116.989 E29.1198
G1 X104.19 Y117.47 E29.15712
G1 X103.647 Y117.839 E29.18987
G1 X102.991 Y118.199 E29.22721
G1 X102.428 Y118.441 E29.25778
G1 X100.847 Y119.038 E29.34209
G1 X100.134 Y119.264 E29.37941
G1 X99.707 Y119.361 E29.40125
G1 X98.966 Y119.468 E29.43861
G1 X98.119 Y119.494 E29.48088
G1 X96.424 Y119.442 E29.56549
G1 X95.711 Y119.383 E29.60118
G1 X94.974 Y119.247 E29.63857
G1 X68.625 Y112.887 E30.99088
G1 X67.809 Y112.636 E31.03347
G1 X67.777 Y112.624 E31.03518
G1 X67.092 Y112.325 E31.07247
G1 X66.581 Y112.04 E31.10166
G1 X65.14 Y111.158 E31.18595
G1 X64.523 Y110.734 E31.2233
G1 X64.006 Y110.295 E31.25713
G1 X63.974 Y110.265 E31.25932
G1 X63.457 Y109.725 E31.29662
G1 X63.096 Y109.269 E31.32564
G1 X62.11 Y107.91 E31.4094
G1 X61.704 Y107.282 E31.44671
G1 X61.463 Y106.824 E31.47253
G1 X61.173 Y106.135 E31.50982
G1 X60.966 Y105.455 E31.54529
G1 X60.56 Y103.826 E31.62904
G1 X60.418 Y103.091 E31.66639
G1 X60.361 Y102.483 E31.69686
G1 X60.359 Y102.443 E31.69886
G1 X60.361 Y101.695 E31.73617
G1 X60.433 Y101.018 E31.77014
G1 X60.692 Y99.352 E31.85426
G1 X60.846 Y98.62 E31.89158
G1 X61.035 Y98.022 E31.92286
G1 X61.05 Y97.981 E31.92504
G1 X61.344 Y97.293 E31.96237
G1 X61.636 Y96.76 E31.99269
G1 X62.505 Y95.325 E32.07639
G1 X62.926 Y94.707 E32.11369
G1 X63.386 Y94.163 E32.14924
G1 X63.416 Y94.131 E32.15142
G1 X63.956 Y93.614 E32.18872
G1 X64.398 Y93.263 E32.21688
G1 X65.761 Y92.269 E32.30104
M205 X10 Y10
G0 F6000 X65.997 Y92.592
M205 X8 Y8
G1 F1200 X66.607 Y92.197 E32.3373
G1 X66.972 Y92.003 E32.35792
G1 X67.639 Y91.714 E32.39419
G1 X68.355 Y91.495 E32.43154
G1 X69.981 Y91.097 E32.51506
G1 X70.695 Y90.964 E32.55129
G1 X71.228 Y90.916 E32.57799
G1 X71.269 Y90.914 E32.58004
G1 X71.996 Y90.918 E32.61631
G1 X72.586 Y90.982 E32.64592
G1 X74.277 Y91.24 E32.73126
G1 X74.816 Y91.345 E32.75865
G1 X100.172 Y97.406 E34.05931
G1 X100.644 Y97.537 E34.08375
G1 X101.398 Y97.827 E34.12405
G1 X102.073 Y98.135 E34.16107
G1 X102.366 Y97.451 E34.19819
G1 X102.631 Y96.967 E34.22572
G1 X103.5 Y95.532 E34.30942
G1 X103.91 Y94.933 E34.34563
G1 X104.331 Y94.437 E34.37809
G1 X104.361 Y94.405 E34.38028
G1 X104.886 Y93.903 E34.41652
G1 X105.289 Y93.585 E34.44213
G1 X106.653 Y92.591 E34.52633
G1 X107.263 Y92.196 E34.56259
G1 X107.626 Y92.003 E34.5831
G1 X108.293 Y91.714 E34.61936
G1 X109.008 Y91.495 E34.65667
G1 X110.633 Y91.097 E34.74014
G1 X111.347 Y90.964 E34.77637
G1 X111.881 Y90.916 E34.80312
G1 X111.922 Y90.914 E34.80517
G1 X112.649 Y90.918 E34.84144
G1 X113.239 Y90.982 E34.87105
G1 X114.93 Y91.24 E34.95639
G1 X115.469 Y91.345 E34.98379
G1 X140.825 Y97.406 E36.28444
G1 X141.297 Y97.537 E36.30888
G1 X142.051 Y97.827 E36.34918
G1 X143.589 Y98.529 E36.43353
G1 X144.232 Y98.866 E36.46975
G1 X144.7 Y99.174 E36.4977
G1 X144.732 Y99.197 E36.49966
G1 X145.298 Y99.652 E36.53589
G1 X145.7 Y100.048 E36.56405
G1 X146.856 Y101.284 E36.64848
