;FLAVOR:Marlin
;TIME:453
;Filament used: 0.270275m
;Layer height: 0.2
;MINX:94.4
;MINY:88.2
;MINZ:0.3
;MAXX:115.6
;MAXY:121.8
;MAXZ:6.975
;Generated with Cura_SteamEngine 4.13.1
M82 ;absolute extrusion mode
G21                                        ; metric values 
G90                                        ; absolute positioning 
M82                                        ; set extruder to absolute mode 
M107                                       ; start with the fan off 
M140 S60.0           ; Start heating the bed 
G4 S60                                     ; wait 1 minute 
M104 S220.0         ; start heating the hot end 
M190 S60.0           ; wait for bed 
M109 S220.0         ; wait for hotend 
M300 S1000 P500                            ; BEEP heating done 
G28 X0 Y10 Z0                              ; move X/Y to min endstops 
M420 S1                                    ; Enable leveling 
M420 Z2.0                                  ; Set leveling fading height to 2 mm 
G0 Z0.15                                   ; lift nozzle a bit 
G92 E0                                     ; zero the extruded length 
G1 X50 E25 F500                            ; Extrude 25mm of filament in a 5cm line. 
G92 E0                                     ; zero the extruded length again 
G1 E-2 F500                                ; Retract a little 
G1 X120 F4000                              ; Quickly wipe away from the filament line`
G92 E0
G92 E0
G1 F2400 E-3
;LAYER_COUNT:34
;LAYER:0
M106 S76.5
M205 X10 Y10
G1 F600 Z0.375
G0 F6000 X96.685 Y90.602 Z0.375
M205 X8 Y8
;TYPE:SKIRT
G1 F600 Z0.3
G1 F2400 E0
G1 F1200 X96.802 Y90.485 E0.00825
G1 X97.388 Y89.955 E0.04767
G1 X98.024 Y89.488 E0.08704
G1 X98.704 Y89.087 E0.12642
G1 X99.422 Y88.757 E0.16585
G1 X100.169 Y88.502 E0.20523
G1 X100.938 Y88.323 E0.24462
G1 X101.722 Y88.223 E0.28405
G1 X102.317 Y88.2 E0.31376
G1 X107.683 Y88.2 E0.58147
G1 X108.472 Y88.24 E0.62088
G1 X109.252 Y88.359 E0.66025
G1 X110.017 Y88.557 E0.69967
G1 X110.757 Y88.831 E0.73904
G1 X111.466 Y89.179 E0.77844
G1 X112.137 Y89.597 E0.81788
G1 X112.761 Y90.08 E0.85725
G1 X113.198 Y90.485 E0.88697
G1 X113.315 Y90.602 E0.89523
G1 X113.845 Y91.188 E0.93465
G1 X114.312 Y91.824 E0.97401
G1 X114.713 Y92.504 E1.0134
G1 X115.043 Y93.222 E1.05282
G1 X115.298 Y93.969 E1.0922
G1 X115.477 Y94.738 E1.13159
G1 X115.577 Y95.522 E1.17102
G1 X115.6 Y96.117 E1.20073
G1 X115.6 Y113.883 E2.08708
G1 X115.56 Y114.672 E2.12649
G1 X115.441 Y115.452 E2.16586
G1 X115.243 Y116.217 E2.20528
G1 X114.969 Y116.957 E2.24465
G1 X114.621 Y117.666 E2.28405
G1 X114.203 Y118.337 E2.3235
G1 X113.72 Y118.961 E2.36286
G1 X113.315 Y119.398 E2.39259
G1 X113.198 Y119.515 E2.40084
G1 X112.612 Y120.045 E2.44026
G1 X111.976 Y120.512 E2.47963
G1 X111.296 Y120.913 E2.51901
G1 X110.578 Y121.243 E2.55844
G1 X109.831 Y121.498 E2.59782
G1 X109.062 Y121.677 E2.63721
G1 X108.278 Y121.777 E2.67664
G1 X107.683 Y121.8 E2.70635
G1 X102.317 Y121.8 E2.97406
G1 X101.528 Y121.76 E3.01347
G1 X100.748 Y121.641 E3.05283
G1 X99.983 Y121.443 E3.09226
G1 X99.243 Y121.169 E3.13163
G1 X98.534 Y120.821 E3.17103
G1 X97.863 Y120.403 E3.21047
G1 X97.239 Y119.92 E3.24984
G1 X96.802 Y119.515 E3.27956
G1 X96.685 Y119.398 E3.28782
G1 X96.155 Y118.812 E3.32724
G1 X95.688 Y118.176 E3.3666
G1 X95.287 Y117.496 E3.40599
G1 X94.957 Y116.778 E3.44541
G1 X94.702 Y116.031 E3.48479
G1 X94.523 Y115.262 E3.52418
G1 X94.423 Y114.478 E3.56361
G1 X94.4 Y113.883 E3.59332
G1 X94.4 Y96.117 E4.47967
G1 X94.44 Y95.328 E4.51908
G1 X94.559 Y94.548 E4.55845
G1 X94.757 Y93.783 E4.59787
G1 X95.031 Y93.043 E4.63724
G1 X95.379 Y92.334 E4.67664
G1 X95.797 Y91.663 E4.71608
G1 X96.28 Y91.039 E4.75545
G1 X96.685 Y90.602 E4.78518
M205 X10 Y10
G0 F6000 X97.084 Y90.767
M205 X8 Y8
G1 F1200 X97.656 Y90.253 E4.82354
G1 X98.278 Y89.8 E4.86193
G1 X98.943 Y89.414 E4.90029
G1 X99.645 Y89.099 E4.93868
G1 X100.376 Y88.859 E4.97707
G1 X101.127 Y88.696 E5.01541
G1 X101.892 Y88.612 E5.0538
G1 X102.317 Y88.6 E5.07501
G1 X107.683 Y88.6 E5.34272
G1 X108.451 Y88.64 E5.38109
G1 X109.211 Y88.759 E5.41947
G1 X109.954 Y88.957 E5.45783
G1 X110.673 Y89.231 E5.49622
G1 X111.359 Y89.578 E5.53457
G1 X112.006 Y89.994 E5.57295
G1 X112.606 Y90.475 E5.61131
G1 X113.033 Y90.884 E5.64081
G1 X113.547 Y91.456 E5.67918
G1 X114 Y92.078 E5.71757
G1 X114.386 Y92.743 E5.75593
G1 X114.701 Y93.445 E5.79432
G1 X114.941 Y94.176 E5.8327
G1 X115.104 Y94.927 E5.87104
G1 X115.188 Y95.692 E5.90944
G1 X115.2 Y96.117 E5.93065
G1 X115.2 Y113.883 E6.817
G1 X115.16 Y114.651 E6.85537
G1 X115.041 Y115.411 E6.89374
G1 X114.843 Y116.154 E6.93211
G1 X114.569 Y116.873 E6.97049
G1 X114.222 Y117.559 E7.00885
G1 X113.806 Y118.206 E7.04722
G1 X113.325 Y118.806 E7.08559
G1 X112.916 Y119.233 E7.11509
G1 X112.344 Y119.747 E7.15345
G1 X111.722 Y120.2 E7.19184
G1 X111.057 Y120.586 E7.2302
G1 X110.355 Y120.901 E7.26859
G1 X109.624 Y121.141 E7.30698
G1 X108.873 Y121.304 E7.34532
G1 X108.108 Y121.388 E7.38371
G1 X107.683 Y121.4 E7.40492
G1 X102.317 Y121.4 E7.67263
G1 X101.549 Y121.36 E7.711
G1 X100.789 Y121.241 E7.74938
G1 X100.046 Y121.043 E7.78774
G1 X99.327 Y120.769 E7.82613
G1 X98.641 Y120.422 E7.86448
G1 X97.994 Y120.006 E7.90286
G1 X97.394 Y119.525 E7.94123
G1 X96.967 Y119.116 E7.97072
G1 X96.453 Y118.544 E8.00909
G1 X96 Y117.922 E8.04748
G1 X95.614 Y117.257 E8.08584
G1 X95.299 Y116.555 E8.12423
G1 X95.059 Y115.824 E8.16261
G1 X94.896 Y115.073 E8.20095
G1 X94.812 Y114.308 E8.23935
G1 X94.8 Y113.883 E8.26056
G1 X94.8 Y96.117 E9.14691
G1 X94.84 Y95.349 E9.18528
G1 X94.959 Y94.589 E9.22366
G1 X95.157 Y93.846 E9.26202
G1 X95.431 Y93.127 E9.30041
G1 X95.778 Y92.441 E9.33876
G1 X96.194 Y91.794 E9.37713
G1 X96.675 Y91.194 E9.4155
G1 X97.084 Y90.767 E9.445
M205 X10 Y10
G0 F6000 X97.25 Y91.167
M205 X8 Y8
G1 F1200 X97.367 Y91.05 E9.45325
G1 X97.924 Y90.55 E9.4906
G1 X98.53 Y90.113 E9.52787
G1 X99.18 Y89.742 E9.56521
G1 X99.866 Y89.443 E9.60255
G1 X100.58 Y89.219 E9.63988
G1 X101.313 Y89.072 E9.67718
G1 X102.317 Y89 E9.72739
G1 X107.683 Y89 E9.99511
G1 X108.43 Y89.04 E10.03243
G1 X109.168 Y89.159 E10.06972
G1 X109.89 Y89.357 E10.10707
G1 X110.586 Y89.63 E10.14437
G1 X111.249 Y89.977 E10.18171
G1 X111.872 Y90.392 E10.21905
G1 X112.633 Y91.05 E10.26924
G1 X112.75 Y91.167 E10.2775
G1 X113.25 Y91.724 E10.31484
G1 X113.687 Y92.33 E10.35211
G1 X114.058 Y92.98 E10.38945
G1 X114.357 Y93.666 E10.42679
G1 X114.581 Y94.38 E10.46412
G1 X114.728 Y95.113 E10.50142
G1 X114.8 Y96.117 E10.55164
G1 X114.8 Y113.883 E11.43799
G1 X114.76 Y114.63 E11.47531
G1 X114.641 Y115.368 E11.5126
G1 X114.443 Y116.09 E11.54995
G1 X114.17 Y116.786 E11.58725
G1 X113.823 Y117.449 E11.62459
G1 X113.408 Y118.072 E11.66193
G1 X112.75 Y118.833 E11.71212
G1 X112.633 Y118.95 E11.72038
G1 X112.076 Y119.45 E11.75772
G1 X111.47 Y119.887 E11.795
G1 X110.82 Y120.258 E11.83233
G1 X110.134 Y120.557 E11.86967
G1 X109.42 Y120.781 E11.907
G1 X108.687 Y120.928 E11.9443
G1 X107.683 Y121 E11.99452
G1 X102.317 Y121 E12.26223
G1 X101.57 Y120.96 E12.29955
G1 X100.832 Y120.841 E12.33684
G1 X100.11 Y120.643 E12.3742
G1 X99.414 Y120.37 E12.41149
G1 X98.751 Y120.023 E12.44883
G1 X98.128 Y119.608 E12.48617
G1 X97.367 Y118.95 E12.53637
G1 X97.25 Y118.833 E12.54462
G1 X96.75 Y118.276 E12.58196
G1 X96.313 Y117.67 E12.61924
G1 X95.942 Y117.02 E12.65658
G1 X95.643 Y116.334 E12.69391
G1 X95.419 Y115.62 E12.73124
G1 X95.272 Y114.887 E12.76854
G1 X95.2 Y113.883 E12.81876
G1 X95.2 Y96.117 E13.70511
G1 X95.24 Y95.37 E13.74243
G1 X95.359 Y94.632 E13.77973
G1 X95.557 Y93.91 E13.81708
G1 X95.83 Y93.214 E13.85438
G1 X96.177 Y92.551 E13.89171
G1 X96.592 Y91.928 E13.92906
G1 X97.25 Y91.167 E13.97925
M205 X10 Y10
G0 F6000 X97.533 Y91.45
M205 X8 Y8
G1 F1200 X97.65 Y91.333 E13.9875
G1 X98.191 Y90.849 E14.02372
G1 X98.782 Y90.426 E14.05998
G1 X99.416 Y90.072 E14.0962
G1 X100.085 Y89.789 E14.13244
G1 X100.781 Y89.581 E14.16868
G1 X101.496 Y89.451 E14.20494
G1 X102.317 Y89.4 E14.24598
G1 X107.683 Y89.4 E14.51369
G1 X108.408 Y89.44 E14.54992
G1 X109.125 Y89.559 E14.58618
G1 X109.824 Y89.757 E14.62242
G1 X110.497 Y90.03 E14.65865
G1 X111.136 Y90.375 E14.69488
G1 X111.733 Y90.789 E14.73113
G1 X112.35 Y91.333 E14.77217
G1 X112.467 Y91.45 E14.78042
G1 X112.951 Y91.991 E14.81664
G1 X113.374 Y92.582 E14.8529
G1 X113.728 Y93.216 E14.88912
G1 X114.011 Y93.885 E14.92536
G1 X114.219 Y94.581 E14.96161
G1 X114.349 Y95.296 E14.99786
G1 X114.4 Y96.117 E15.0389
G1 X114.4 Y113.883 E15.92525
G1 X114.36 Y114.608 E15.96148
G1 X114.241 Y115.325 E15.99774
G1 X114.043 Y116.024 E16.03398
G1 X113.77 Y116.697 E16.07022
G1 X113.425 Y117.336 E16.10644
G1 X113.011 Y117.933 E16.14269
G1 X112.467 Y118.55 E16.18373
G1 X112.35 Y118.667 E16.19198
G1 X111.809 Y119.151 E16.2282
G1 X111.218 Y119.574 E16.26446
G1 X110.584 Y119.928 E16.30068
G1 X109.915 Y120.211 E16.33692
G1 X109.219 Y120.419 E16.37317
G1 X108.504 Y120.549 E16.40942
G1 X107.683 Y120.6 E16.45046
G1 X102.317 Y120.6 E16.71817
G1 X101.592 Y120.56 E16.7544
G1 X100.875 Y120.441 E16.79066
G1 X100.176 Y120.243 E16.8269
G1 X99.503 Y119.97 E16.86314
G1 X98.864 Y119.625 E16.89937
G1 X98.267 Y119.211 E16.93561
G1 X97.65 Y118.667 E16.97665
G1 X97.533 Y118.55 E16.9849
G1 X97.049 Y118.009 E17.02112
G1 X96.626 Y117.418 E17.05738
G1 X96.272 Y116.784 E17.09361
G1 X95.989 Y116.115 E17.12985
G1 X95.781 Y115.419 E17.16609
G1 X95.651 Y114.704 E17.20234
G1 X95.6 Y113.883 E17.24338
G1 X95.6 Y96.117 E18.12973
G1 X95.64 Y95.392 E18.16596
G1 X95.759 Y94.675 E18.20222
G1 X95.957 Y93.976 E18.23846
G1 X96.23 Y93.303 E18.2747
G1 X96.575 Y92.664 E18.31093
G1 X96.989 Y92.067 E18.34717
G1 X97.533 Y91.45 E18.38821
M205 X10 Y10
G0 F6000 X97.816 Y91.733
M205 X8 Y8
G1 F1200 X97.933 Y91.616 E18.39647
G1 X98.458 Y91.147 E18.43159
G1 X99.033 Y90.741 E18.4667
G1 X99.651 Y90.403 E18.50185
G1 X100.302 Y90.136 E18.53695
G1 X100.98 Y89.946 E18.57208
G1 X101.675 Y89.833 E18.60721
G1 X102.317 Y89.8 E18.63928
G1 X107.683 Y89.8 E18.90699
G1 X108.386 Y89.84 E18.94212
G1 X109.08 Y89.959 E18.97725
G1 X109.755 Y90.157 E19.01234
G1 X110.404 Y90.429 E19.04745
G1 X111.018 Y90.774 E19.08259
G1 X111.589 Y91.185 E19.11769
G1 X112.067 Y91.616 E19.1498
G1 X112.184 Y91.733 E19.15805
G1 X112.653 Y92.258 E19.19317
G1 X113.059 Y92.833 E19.22829
G1 X113.397 Y93.451 E19.26343
G1 X113.664 Y94.102 E19.29854
G1 X113.854 Y94.78 E19.33367
G1 X113.967 Y95.475 E19.3688
G1 X114 Y96.117 E19.40087
G1 X114 Y113.883 E20.28722
G1 X113.96 Y114.586 E20.32235
G1 X113.841 Y115.28 E20.35748
G1 X113.643 Y115.955 E20.39257
G1 X113.371 Y116.604 E20.42768
G1 X113.026 Y117.218 E20.46282
G1 X112.615 Y117.789 E20.49791
G1 X112.184 Y118.267 E20.53002
G1 X112.067 Y118.384 E20.53828
G1 X111.542 Y118.853 E20.5734
G1 X110.967 Y119.259 E20.60852
G1 X110.349 Y119.597 E20.64366
G1 X109.698 Y119.864 E20.67877
G1 X109.02 Y120.054 E20.71389
G1 X108.325 Y120.167 E20.74902
G1 X107.683 Y120.2 E20.78109
G1 X102.317 Y120.2 E21.04881
G1 X101.614 Y120.16 E21.08393
G1 X100.92 Y120.041 E21.11906
G1 X100.245 Y119.843 E21.15416
G1 X99.596 Y119.571 E21.18927
G1 X98.982 Y119.226 E21.2244
G1 X98.411 Y118.815 E21.2595
G1 X97.933 Y118.384 E21.29161
G1 X97.816 Y118.267 E21.29987
G1 X97.347 Y117.742 E21.33499
G1 X96.941 Y117.167 E21.37011
G1 X96.603 Y116.549 E21.40525
G1 X96.336 Y115.898 E21.44035
G1 X96.146 Y115.22 E21.47548
G1 X96.033 Y114.525 E21.51061
G1 X96 Y113.883 E21.54268
G1 X96 Y96.117 E22.42903
G1 X96.04 Y95.414 E22.46416
G1 X96.159 Y94.72 E22.49929
G1 X96.357 Y94.045 E22.53439
G1 X96.629 Y93.396 E22.56949
G1 X96.974 Y92.782 E22.60463
G1 X97.385 Y92.211 E22.63973
G1 X97.816 Y91.733 E22.67184
M205 X10 Y10
G0 F6000 X98.216 Y91.899
M205 X8 Y8
G1 F1200 X98.725 Y91.446 E22.70583
G1 X99.283 Y91.057 E22.73977
G1 X99.883 Y90.735 E22.77374
G1 X100.517 Y90.486 E22.80772
G1 X101.176 Y90.313 E22.84172
G1 X101.85 Y90.219 E22.87567
G1 X102.317 Y90.2 E22.89899
G1 X107.683 Y90.2 E23.1667
G1 X108.363 Y90.24 E23.20068
G1 X109.033 Y90.359 E23.23463
G1 X109.685 Y90.556 E23.26861
G1 X110.309 Y90.828 E23.30257
G1 X110.897 Y91.172 E23.33656
G1 X111.441 Y91.582 E23.37054
G1 X111.901 Y92.016 E23.4021
G1 X112.354 Y92.525 E23.43609
G1 X112.743 Y93.083 E23.47003
G1 X113.065 Y93.683 E23.504
G1 X113.314 Y94.317 E23.53798
G1 X113.487 Y94.976 E23.57197
G1 X113.581 Y95.65 E23.60592
G1 X113.6 Y96.117 E23.62924
G1 X113.6 Y113.883 E24.51559
G1 X113.56 Y114.563 E24.54958
G1 X113.441 Y115.233 E24.58352
G1 X113.244 Y115.885 E24.61751
G1 X112.972 Y116.509 E24.65147
G1 X112.628 Y117.097 E24.68545
G1 X112.218 Y117.641 E24.71944
G1 X111.784 Y118.101 E24.75099
G1 X111.275 Y118.554 E24.78498
G1 X110.717 Y118.943 E24.81892
G1 X110.117 Y119.265 E24.85289
G1 X109.483 Y119.514 E24.88688
G1 X108.824 Y119.687 E24.92087
G1 X108.15 Y119.781 E24.95482
G1 X107.683 Y119.8 E24.97814
G1 X102.317 Y119.8 E25.24585
G1 X101.637 Y119.76 E25.27983
G1 X100.967 Y119.641 E25.31378
G1 X100.315 Y119.444 E25.34776
G1 X99.691 Y119.172 E25.38172
G1 X99.103 Y118.828 E25.41571
G1 X98.559 Y118.418 E25.44969
G1 X98.099 Y117.984 E25.48125
G1 X97.646 Y117.475 E25.51524
G1 X97.257 Y116.917 E25.54918
G1 X96.935 Y116.317 E25.58315
G1 X96.686 Y115.683 E25.61713
G1 X96.513 Y115.024 E25.65112
G1 X96.419 Y114.35 E25.68507
G1 X96.4 Y113.883 E25.70839
G1 X96.4 Y96.117 E26.59474
G1 X96.44 Y95.437 E26.62873
G1 X96.559 Y94.767 E26.66267
G1 X96.756 Y94.115 E26.69666
G1 X97.028 Y93.491 E26.73062
G1 X97.372 Y92.903 E26.7646
G1 X97.782 Y92.359 E26.79859
G1 X98.216 Y91.899 E26.83014
M205 X10 Y10
G0 F6000 X98.382 Y92.299
M205 X8 Y8
G1 F1200 X98.499 Y92.182 E26.8384
G1 X98.991 Y91.746 E26.87119
G1 X99.532 Y91.374 E26.90395
G1 X100.114 Y91.07 E26.93671
G1 X100.729 Y90.839 E26.96948
G1 X101.368 Y90.684 E27.00229
G1 X102.317 Y90.6 E27.04982
G1 X107.683 Y90.6 E27.31753
G1 X108.339 Y90.64 E27.35032
G1 X108.985 Y90.759 E27.38309
G1 X109.612 Y90.956 E27.41588
G1 X110.21 Y91.228 E27.44865
G1 X110.771 Y91.57 E27.48143
G1 X111.501 Y92.182 E27.52896
G1 X111.618 Y92.299 E27.53721
G1 X112.054 Y92.791 E27.57001
G1 X112.426 Y93.332 E27.60277
G1 X112.73 Y93.914 E27.63552
G1 X112.961 Y94.529 E27.6683
G1 X113.116 Y95.168 E27.7011
G1 X113.2 Y96.117 E27.74863
G1 X113.2 Y113.883 E28.63498
G1 X113.16 Y114.539 E28.66777
G1 X113.041 Y115.185 E28.70054
G1 X112.844 Y115.812 E28.73333
G1 X112.572 Y116.41 E28.76611
G1 X112.23 Y116.971 E28.79889
G1 X111.618 Y117.701 E28.84641
G1 X111.501 Y117.818 E28.85467
G1 X111.009 Y118.254 E28.88746
G1 X110.468 Y118.626 E28.92022
G1 X109.886 Y118.93 E28.95298
G1 X109.271 Y119.161 E28.98575
G1 X108.632 Y119.316 E29.01856
G1 X107.683 Y119.4 E29.06609
G1 X102.317 Y119.4 E29.3338
G1 X101.661 Y119.36 E29.36659
G1 X101.015 Y119.241 E29.39936
G1 X100.388 Y119.044 E29.43215
G1 X99.79 Y118.772 E29.46493
G1 X99.229 Y118.43 E29.4977
G1 X98.499 Y117.818 E29.54523
G1 X98.382 Y117.701 E29.55348
G1 X97.946 Y117.209 E29.58628
G1 X97.574 Y116.668 E29.61904
G1 X97.27 Y116.086 E29.6518
G1 X97.039 Y115.471 E29.68457
G1 X96.884 Y114.832 E29.71738
G1 X96.8 Y113.883 E29.76491
G1 X96.8 Y96.117 E30.65126
G1 X96.84 Y95.461 E30.68404
G1 X96.959 Y94.815 E30.71682
G1 X97.156 Y94.188 E30.74961
G1 X97.428 Y93.59 E30.78238
G1 X97.77 Y93.029 E30.81516
G1 X98.382 Y92.299 E30.86269
M205 X10 Y10
G0 F6000 X98.664 Y92.581
M205 X8 Y8
G1 F1200 X98.781 Y92.464 E30.87094
G1 X99.256 Y92.047 E30.90247
G1 X99.779 Y91.692 E30.93401
G1 X100.343 Y91.406 E30.96556
G1 X100.938 Y91.194 E30.99707
G1 X101.556 Y91.058 E31.02864
G1 X102.317 Y91 E31.06672
G1 X107.683 Y91 E31.33443
G1 X108.314 Y91.04 E31.36597
G1 X108.935 Y91.159 E31.39752
G1 X109.535 Y91.356 E31.42902
G1 X110.107 Y91.627 E31.4606
G1 X110.639 Y91.967 E31.4921
G1 X111.219 Y92.464 E31.53021
