;FLAVOR:Marlin
;TIME:1791
;Filament used: 1.22532m
;Layer height: 0.2
;MINX:81.936
;MINY:80.357
;MINZ:0.3
;MAXX:128.064
;MAXY:129.648
;MAXZ:13.575
;Generated with Cura_SteamEngine 4.13.1
M82 ;absolute extrusion mode
G21                                        ; metric values 
G90                                        ; absolute positioning 
M82                                        ; set extruder to absolute mode 
M107                                       ; start with the fan off 
M140 S60.0           ; Start heating the bed 
G4 S60                                     ; wait 1 minute 
M104 S220.0         ; start heating the hot end 
M190 S60.0           ; wait for bed 
M109 S220.0         ; wait for hotend 
M300 S1000 P500                            ; BEEP heating done 
G28 X0 Y10 Z0                              ; move X/Y to min endstops 
M420 S1                                    ; Enable leveling 
M420 Z2.0                                  ; Set leveling fading height to 2 mm 
G0 Z0.15                                   ; lift nozzle a bit 
G92 E0                                     ; zero the extruded length 
G1 X50 E25 F500                            ; Extrude 25mm of filament in a 5cm line. 
G92 E0                                     ; zero the extruded length again 
G1 E-2 F500                                ; Retract a little 
G1 X120 F4000                              ; Quickly wipe away from the filament line`
G92 E0
G92 E0
G1 F2400 E-3
;LAYER_COUNT:67
;LAYER:0
M106 S76.5
M205 X10 Y10
G1 F600 Z0.375
G0 F6000 X84.954 Y97.984 Z0.375
M205 X8 Y8
;TYPE:SKIRT
G1 F600 Z0.3
G1 F2400 E0
G1 F1200 X85.566 Y97.486 E0.03936
G1 X86.221 Y97.056 E0.07845
G1 X112.776 Y81.446 E1.61524
G1 X113.476 Y81.081 E1.65462
G1 X114.21 Y80.788 E1.69405
G1 X114.729 Y80.631 E1.7211
G1 X114.778 Y80.618 E1.72363
G1 X115.55 Y80.454 E1.76301
G1 X116.335 Y80.37 E1.80239
G1 X116.78 Y80.357 E1.8246
G1 X120.148 Y80.358 E1.99263
G1 X120.937 Y80.398 E2.03205
G1 X121.718 Y80.518 E2.07147
G1 X122.482 Y80.716 E2.11084
G1 X123.222 Y80.99 E2.15021
G1 X123.931 Y81.338 E2.18962
G1 X124.602 Y81.756 E2.22906
G1 X125.226 Y82.239 E2.26842
G1 X125.661 Y82.643 E2.29804
G1 X125.779 Y82.761 E2.30637
G1 X126.309 Y83.347 E2.34579
G1 X126.776 Y83.983 E2.38515
G1 X127.177 Y84.663 E2.42454
G1 X127.507 Y85.381 E2.46396
G1 X127.762 Y86.128 E2.50334
G1 X127.941 Y86.897 E2.54273
G1 X128.041 Y87.681 E2.58216
G1 X128.064 Y88.33 E2.61456
G1 X128.058 Y89.204 E2.65817
G1 X128.059 Y107.747 E3.58328
G1 X128.019 Y108.535 E3.62265
G1 X127.9 Y109.316 E3.66206
G1 X127.775 Y109.834 E3.68864
G1 X127.53 Y110.585 E3.72806
G1 X127.211 Y111.307 E3.76744
G1 X126.999 Y111.699 E3.78967
G1 X126.581 Y112.422 E3.83133
G1 X126.252 Y112.942 E3.86203
G1 X125.611 Y113.756 E3.91372
G1 X124.558 Y114.925 E3.99222
G1 X124.566 Y117.558 E4.12358
G1 X124.528 Y118.346 E4.16294
G1 X124.411 Y119.127 E4.20234
G1 X124.202 Y119.936 E4.24402
G1 X124.183 Y119.996 E4.24716
G1 X123.907 Y120.736 E4.28657
G1 X123.557 Y121.444 E4.32597
G1 X123.175 Y122.06 E4.36213
G1 X120.315 Y126.22 E4.61399
G1 X119.835 Y126.847 E4.65339
G1 X119.294 Y127.423 E4.69281
G1 X118.698 Y127.941 E4.73221
G1 X118.052 Y128.396 E4.77163
G1 X117.498 Y128.715 E4.80352
G1 X117.408 Y128.762 E4.80859
G1 X116.69 Y129.092 E4.84801
G1 X115.943 Y129.347 E4.88739
G1 X115.174 Y129.526 E4.92678
G1 X114.39 Y129.625 E4.96621
G1 X113.797 Y129.648 E4.99581
G1 X92.974 Y129.648 E6.03468
G1 X92.185 Y129.608 E6.07409
G1 X91.405 Y129.489 E6.11346
G1 X90.64 Y129.291 E6.15288
G1 X89.9 Y129.017 E6.19225
G1 X89.434 Y128.799 E6.21791
G1 X88.744 Y128.414 E6.25733
G1 X88.097 Y127.961 E6.29674
G1 X87.5 Y127.445 E6.33611
G1 X86.957 Y126.871 E6.37553
G1 X86.654 Y126.492 E6.39974
G1 X83.522 Y122.325 E6.6598
G1 X83.08 Y121.671 E6.69918
G1 X82.706 Y120.975 E6.7386
G1 X82.382 Y120.178 E6.78153
G1 X82.361 Y120.117 E6.78474
G1 X82.142 Y119.358 E6.82416
G1 X82.001 Y118.581 E6.86355
G1 X81.936 Y117.578 E6.9137
G1 X81.936 Y113.119 E7.13616
G1 X81.943 Y112.794 E7.15238
G1 X82.329 Y103.543 E7.61431
G1 X82.402 Y102.757 E7.6537
G1 X82.554 Y101.982 E7.6931
G1 X82.783 Y101.226 E7.73251
G1 X83.088 Y100.497 E7.77193
G1 X83.407 Y99.9 E7.8057
G1 X83.459 Y99.812 E7.8108
G1 X83.894 Y99.153 E7.8502
G1 X84.394 Y98.542 E7.88958
G1 X84.954 Y97.984 E7.92902
M205 X10 Y10
G0 F6000 X85.266 Y98.242
M205 X8 Y8
G1 F1200 X85.867 Y97.762 E7.9674
G1 X86.424 Y97.401 E8.00051
G1 X112.979 Y81.791 E9.53729
G1 X113.661 Y81.436 E9.57565
G1 X114.377 Y81.154 E9.61404
G1 X114.88 Y81.004 E9.64023
G1 X115.633 Y80.846 E9.67862
G1 X116.78 Y80.757 E9.73601
G1 X120.148 Y80.758 E9.90404
G1 X120.916 Y80.798 E9.94241
G1 X121.676 Y80.918 E9.9808
G1 X122.419 Y81.116 E10.01916
G1 X123.138 Y81.39 E10.05755
G1 X123.824 Y81.737 E10.0959
G1 X124.471 Y82.153 E10.13428
G1 X125.071 Y82.635 E10.17267
G1 X125.497 Y83.043 E10.2021
G1 X126.011 Y83.615 E10.24047
G1 X126.464 Y84.237 E10.27886
G1 X126.85 Y84.902 E10.31722
G1 X127.165 Y85.604 E10.3556
G1 X127.405 Y86.335 E10.39399
G1 X127.568 Y87.086 E10.43233
G1 X127.652 Y87.851 E10.47072
G1 X127.664 Y88.327 E10.49448
G1 X127.658 Y89.201 E10.53808
G1 X127.659 Y107.747 E11.46335
G1 X127.619 Y108.515 E11.50172
G1 X127.5 Y109.275 E11.54009
G1 X127.389 Y109.729 E11.56341
G1 X127.149 Y110.46 E11.6018
G1 X126.652 Y111.499 E11.65926
G1 X126.234 Y112.222 E11.70092
G1 X125.922 Y112.716 E11.73007
G1 X125.314 Y113.489 E11.77914
G1 X124.158 Y114.773 E11.86533
G1 X124.166 Y117.559 E12.00433
G1 X124.128 Y118.327 E12.04269
G1 X124.011 Y119.087 E12.08105
G1 X123.821 Y119.815 E12.11859
G1 X123.802 Y119.875 E12.12173
G1 X123.532 Y120.595 E12.16009
G1 X123.188 Y121.284 E12.19852
G1 X122.845 Y121.833 E12.23081
G1 X119.985 Y125.993 E12.48267
G1 X119.517 Y126.604 E12.52107
G1 X118.988 Y127.162 E12.55943
G1 X118.404 Y127.663 E12.59782
G1 X117.771 Y128.1 E12.63619
G1 X117.312 Y128.36 E12.66251
G1 X117.222 Y128.407 E12.66758
G1 X116.523 Y128.728 E12.70595
G1 X115.794 Y128.973 E12.74432
G1 X115.044 Y129.142 E12.78268
G1 X114.28 Y129.232 E12.82106
G1 X113.797 Y129.248 E12.84517
G1 X92.974 Y129.248 E13.88403
G1 X92.206 Y129.208 E13.9224
G1 X91.446 Y129.089 E13.96078
G1 X90.703 Y128.891 E13.99914
G1 X89.696 Y128.482 E14.05336
G1 X89.611 Y128.44 E14.05809
G1 X88.94 Y128.064 E14.09647
G1 X88.312 Y127.62 E14.13484
G1 X87.733 Y127.114 E14.1732
G1 X86.974 Y126.252 E14.2305
G1 X83.842 Y122.085 E14.49057
G1 X83.412 Y121.447 E14.52895
G1 X83.051 Y120.768 E14.56732
G1 X82.76 Y120.048 E14.60606
G1 X82.739 Y119.987 E14.60928
G1 X82.527 Y119.248 E14.64764
G1 X82.392 Y118.49 E14.68605
G1 X82.336 Y117.578 E14.73163
G1 X82.336 Y113.119 E14.95409
G1 X82.342 Y112.811 E14.96946
G1 X82.728 Y103.56 E15.4314
G1 X82.8 Y102.794 E15.46978
G1 X82.951 Y102.04 E15.50815
G1 X83.18 Y101.305 E15.54656
G1 X83.484 Y100.598 E15.58495
G1 X83.751 Y100.103 E15.61301
G1 X83.803 Y100.015 E15.61811
G1 X84.228 Y99.374 E15.65648
G1 X84.718 Y98.781 E15.69486
G1 X85.266 Y98.242 E15.73321
M205 X10 Y10
G0 F6000 X85.578 Y98.5
M205 X8 Y8
G1 F1200 X86.167 Y98.04 E15.77049
G1 X86.627 Y97.745 E15.79775
G1 X113.182 Y82.135 E17.33453
G1 X113.846 Y81.791 E17.37184
G1 X114.543 Y81.52 E17.40915
G1 X114.983 Y81.391 E17.43203
G1 X115.715 Y81.238 E17.46934
G1 X116.78 Y81.157 E17.52262
G1 X120.148 Y81.158 E17.69065
G1 X120.895 Y81.198 E17.72798
G1 X121.633 Y81.318 E17.76528
G1 X122.355 Y81.516 E17.80263
G1 X123.051 Y81.789 E17.83993
G1 X123.714 Y82.136 E17.87726
G1 X124.336 Y82.551 E17.91457
G1 X125.096 Y83.208 E17.96469
G1 X125.214 Y83.326 E17.97301
G1 X125.714 Y83.883 E18.01036
G1 X126.151 Y84.489 E18.04763
G1 X126.522 Y85.139 E18.08497
G1 X126.821 Y85.825 E18.1223
G1 X127.045 Y86.539 E18.15964
G1 X127.192 Y87.272 E18.19693
G1 X127.264 Y88.324 E18.24954
G1 X127.258 Y89.198 E18.29315
G1 X127.259 Y107.747 E19.21856
G1 X127.219 Y108.494 E19.25588
G1 X127.016 Y109.577 E19.31085
G1 X127.003 Y109.625 E19.31333
G1 X126.769 Y110.335 E19.35063
G1 X126.306 Y111.299 E19.40398
G1 X125.888 Y112.022 E19.44565
G1 X125.592 Y112.49 E19.47328
G1 X125.017 Y113.221 E19.51968
G1 X123.757 Y114.62 E19.61361
G1 X123.766 Y117.56 E19.76029
G1 X123.728 Y118.307 E19.7976
G1 X123.611 Y119.046 E19.83493
G1 X123.439 Y119.694 E19.86838
G1 X123.42 Y119.754 E19.87152
G1 X123.157 Y120.454 E19.90882
G1 X122.82 Y121.122 E19.94615
G1 X122.515 Y121.607 E19.97474
G1 X119.655 Y125.767 E20.2266
G1 X119.199 Y126.36 E20.26392
G1 X118.682 Y126.9 E20.30121
G1 X118.111 Y127.383 E20.33853
G1 X117.491 Y127.802 E20.37586
G1 X117.037 Y128.053 E20.40174
G1 X116.357 Y128.363 E20.43902
G1 X115.647 Y128.599 E20.47635
G1 X114.916 Y128.758 E20.51368
G1 X114.172 Y128.838 E20.55101
G1 X113.797 Y128.848 E20.56972
G1 X92.974 Y128.848 E21.60859
G1 X92.227 Y128.808 E21.64591
G1 X91.489 Y128.689 E21.6832
G1 X90.767 Y128.491 E21.72055
G1 X89.873 Y128.124 E21.76877
G1 X89.788 Y128.082 E21.7735
G1 X89.136 Y127.715 E21.81082
G1 X88.527 Y127.281 E21.84813
G1 X87.968 Y126.784 E21.88545
G1 X87.293 Y126.012 E21.93661
G1 X84.161 Y121.845 E22.19668
G1 X83.744 Y121.224 E22.234
G1 X83.396 Y120.562 E22.27131
G1 X83.138 Y119.918 E22.30592
G1 X83.117 Y119.857 E22.30914
G1 X82.912 Y119.137 E22.34649
G1 X82.784 Y118.4 E22.38381
G1 X82.736 Y117.578 E22.42489
G1 X82.736 Y113.119 E22.64735
G1 X82.742 Y112.827 E22.66192
G1 X83.128 Y103.576 E23.12386
G1 X83.199 Y102.831 E23.16119
G1 X83.349 Y102.099 E23.19847
G1 X83.577 Y101.386 E23.23582
G1 X83.879 Y100.702 E23.27312
G1 X84.148 Y100.219 E23.3007
G1 X84.562 Y99.596 E23.33802
G1 X85.04 Y99.021 E23.37533
G1 X85.578 Y98.5 E23.41269
M205 X10 Y10
G0 F6000 X85.888 Y98.761
M205 X8 Y8
G1 F1200 X86.466 Y98.32 E23.44896
G1 X86.829 Y98.09 E23.4704
G1 X113.384 Y82.48 E25.00718
G1 X114.03 Y82.147 E25.04344
G1 X115.037 Y81.791 E25.09673
G1 X115.086 Y81.778 E25.09926
G1 X115.797 Y81.63 E25.13549
G1 X116.78 Y81.557 E25.18467
G1 X120.148 Y81.558 E25.3527
G1 X120.873 Y81.598 E25.38892
G1 X121.59 Y81.718 E25.42519
G1 X122.289 Y81.915 E25.46142
G1 X122.962 Y82.189 E25.49767
G1 X123.601 Y82.534 E25.5339
G1 X124.198 Y82.948 E25.57015
G1 X124.813 Y83.491 E25.61108
G1 X124.931 Y83.609 E25.6194
G1 X125.415 Y84.15 E25.65562
G1 X125.838 Y84.741 E25.69188
G1 X126.192 Y85.375 E25.72811
G1 X126.475 Y86.044 E25.76435
G1 X126.683 Y86.74 E25.80059
G1 X126.813 Y87.455 E25.83684
G1 X126.864 Y88.321 E25.88012
G1 X126.858 Y89.195 E25.92373
G1 X126.859 Y107.747 E26.84929
G1 X126.819 Y108.472 E26.88552
G1 X126.629 Y109.472 E26.9363
G1 X126.616 Y109.52 E26.93878
G1 X126.388 Y110.21 E26.97504
G1 X125.96 Y111.098 E27.02422
G1 X125.542 Y111.821 E27.06588
G1 X125.262 Y112.264 E27.09203
G1 X124.72 Y112.953 E27.13576
G1 X123.357 Y114.467 E27.2374
G1 X123.366 Y117.561 E27.39176
G1 X123.328 Y118.287 E27.42803
G1 X123.211 Y119.003 E27.46422
G1 X123.058 Y119.573 E27.49367
G1 X123.039 Y119.633 E27.49681
G1 X122.782 Y120.313 E27.53307
G1 X122.452 Y120.96 E27.56931
G1 X122.186 Y121.38 E27.59411
G1 X119.326 Y125.54 E27.84597
G1 X118.882 Y126.115 E27.88222
G1 X118.378 Y126.638 E27.91845
G1 X117.819 Y127.102 E27.9547
G1 X116.942 Y127.651 E28.00632
G1 X116.852 Y127.698 E28.01138
G1 X116.191 Y127.999 E28.04762
G1 X115.5 Y128.224 E28.08387
G1 X114.789 Y128.373 E28.12011
G1 X113.797 Y128.448 E28.16975
G1 X92.974 Y128.448 E29.20861
G1 X92.249 Y128.408 E29.24484
G1 X91.532 Y128.289 E29.2811
G1 X90.833 Y128.091 E29.31734
G1 X90.05 Y127.765 E29.35966
G1 X89.965 Y127.723 E29.36439
G1 X89.333 Y127.366 E29.4006
G1 X88.743 Y126.942 E29.43685
G1 X88.204 Y126.455 E29.47309
G1 X87.613 Y125.771 E29.51819
G1 X84.481 Y121.604 E29.77826
G1 X84.077 Y121.001 E29.81447
G1 X83.742 Y120.356 E29.85073
G1 X83.516 Y119.787 E29.88127
G1 X83.495 Y119.726 E29.88449
G1 X83.297 Y119.028 E29.92069
G1 X83.177 Y118.311 E29.95696
G1 X83.136 Y117.578 E29.99358
G1 X83.136 Y113.119 E30.21604
G1 X83.142 Y112.844 E30.22977
G1 X83.528 Y103.593 E30.6917
G1 X83.598 Y102.87 E30.72794
G1 X83.747 Y102.159 E30.76419
G1 X83.974 Y101.469 E30.80042
G1 X84.44 Y100.51 E30.85362
G1 X84.492 Y100.422 E30.85872
G1 X84.895 Y99.818 E30.89494
G1 X85.363 Y99.262 E30.9312
G1 X85.888 Y98.761 E30.96741
M205 X10 Y10
G0 F6000 X86.198 Y99.023
M205 X8 Y8
G1 F1200 X87.032 Y98.435 E31.01832
G1 X113.587 Y82.825 E32.5551
G1 X114.213 Y82.503 E32.59022
G1 X115.139 Y82.177 E32.63919
G1 X115.188 Y82.164 E32.64172
G1 X115.878 Y82.023 E32.67686
G1 X116.78 Y81.957 E32.72198
G1 X120.148 Y81.958 E32.89001
G1 X120.851 Y81.998 E32.92514
G1 X121.544 Y82.118 E32.96023
G1 X122.22 Y82.315 E32.99536
G1 X122.869 Y82.588 E33.03048
G1 X123.483 Y82.933 E33.06562
G1 X124.054 Y83.345 E33.10075
G1 X124.53 Y83.774 E33.13272
G1 X124.648 Y83.892 E33.14104
G1 X125.117 Y84.417 E33.17617
G1 X125.523 Y84.992 E33.21128
G1 X125.861 Y85.61 E33.24643
G1 X126.128 Y86.261 E33.28153
G1 X126.318 Y86.939 E33.31666
G1 X126.431 Y87.634 E33.35179
G1 X126.464 Y88.319 E33.386
G1 X126.458 Y89.193 E33.42961
G1 X126.459 Y107.747 E34.35527
G1 X126.419 Y108.45 E34.3904
G1 X126.243 Y109.368 E34.43703
G1 X126.23 Y109.416 E34.43951
G1 X126.008 Y110.084 E34.47463
G1 X125.614 Y110.898 E34.51975
G1 X125.196 Y111.621 E34.56142
G1 X124.932 Y112.038 E34.58604
G1 X124.422 Y112.686 E34.62718
G1 X122.956 Y114.314 E34.73648
G1 X122.966 Y117.562 E34.89852
G1 X122.928 Y118.265 E34.93365
G1 X122.811 Y118.959 E34.96876
G1 X122.677 Y119.453 E34.99429
G1 X122.658 Y119.513 E34.99743
G1 X122.407 Y120.171 E35.03257
G1 X122.084 Y120.796 E35.06767
G1 X121.856 Y121.153 E35.0888
G1 X118.996 Y125.313 E35.34066
G1 X118.565 Y125.87 E35.3758
G1 X118.074 Y126.374 E35.4109
G1 X117.528 Y126.819 E35.44604
G1 X116.757 Y127.297 E35.4913
G1 X116.667 Y127.344 E35.49637
G1 X116.025 Y127.634 E35.53151
G1 X115.355 Y127.849 E35.56662
G1 X114.665 Y127.987 E35.60173
G1 X113.797 Y128.048 E35.64514
G1 X92.974 Y128.048 E36.684
G1 X92.271 Y128.008 E36.71913
G1 X91.577 Y127.889 E36.75426
G1 X90.902 Y127.691 E36.78935
G1 X90.227 Y127.406 E36.82591
G1 X90.142 Y127.364 E36.83064
G1 X89.53 Y127.017 E36.86574
G1 X88.961 Y126.603 E36.90084
G1 X88.442 Y126.127 E36.93598
G1 X87.933 Y125.531 E36.97508
G1 X84.801 Y121.364 E37.23515
G1 X84.411 Y120.778 E37.27027
G1 X84.089 Y120.152 E37.30539
G1 X83.895 Y119.657 E37.33191
G1 X83.874 Y119.596 E37.33513
G1 X83.683 Y118.919 E37.37022
G1 X83.57 Y118.224 E37.40535
G1 X83.536 Y117.578 E37.43763
G1 X83.536 Y113.119 E37.66009
G1 X83.541 Y112.861 E37.67296
G1 X83.927 Y103.61 E38.1349
G1 X83.997 Y102.909 E38.17004
G1 X84.145 Y102.221 E38.20515
G1 X84.37 Y101.554 E38.24027
G1 X84.784 Y100.714 E38.28699
G1 X84.836 Y100.626 E38.29209
G1 X85.228 Y100.041 E38.32723
G1 X85.684 Y99.505 E38.36234
G1 X86.198 Y99.023 E38.39749
M205 X10 Y10
G0 F6000 X86.506 Y99.287
M205 X8 Y8
G1 F1200 X87.235 Y98.78 E38.44179
G1 X113.79 Y83.17 E39.97857
G1 X114.396 Y82.86 E40.01253
G1 X115.242 Y82.564 E40.05725
G1 X115.291 Y82.551 E40.05978
G1 X115.958 Y82.415 E40.09374
G1 X116.78 Y82.357 E40.13485
G1 X120.148 Y82.358 E40.30288
G1 X120.827 Y82.398 E40.33681
G1 X121.498 Y82.518 E40.37082
G1 X122.149 Y82.715 E40.40475
G1 X122.773 Y82.987 E40.43872
G1 X123.361 Y83.331 E40.4727
G1 X123.905 Y83.741 E40.50669
G1 X124.365 Y84.175 E40.53824
G1 X124.818 Y84.684 E40.57223
G1 X125.207 Y85.242 E40.60617
G1 X125.529 Y85.842 E40.64014
G1 X125.778 Y86.476 E40.67412
G1 X125.951 Y87.135 E40.70812
G1 X126.045 Y87.809 E40.74207
G1 X126.064 Y88.316 E40.76738
G1 X126.058 Y89.19 E40.81098
G1 X126.059 Y107.747 E41.7368
G1 X126.019 Y108.426 E41.77073
G1 X125.857 Y109.263 E41.81326
G1 X125.844 Y109.311 E41.81575
G1 X125.628 Y109.957 E41.84973
G1 X125.267 Y110.698 E41.89085
G1 X124.849 Y111.421 E41.93252
G1 X124.602 Y111.812 E41.95559
G1 X124.125 Y112.418 E41.99406
G1 X122.556 Y114.161 E42.11107
