;FLAVOR:Marlin
;TIME:1791
;Filament used: 1.22465m
;Layer height: 0.2
;MINX:81.936
;MINY:80.352
;MINZ:0.3
;MAXX:128.063
;MAXY:129.642
;MAXZ:13.575
;Generated with Cura_SteamEngine 4.13.1
M82 ;absolute extrusion mode
G21                                        ; metric values 
G90                                        ; absolute positioning 
M82                                        ; set extruder to absolute mode 
M107                                       ; start with the fan off 
M140 S60.0           ; Start heating the bed 
G4 S60                                     ; wait 1 minute 
M104 S220.0         ; start heating the hot end 
M190 S60.0           ; wait for bed 
M109 S220.0         ; wait for hotend 
M300 S1000 P500                            ; BEEP heating done 
G28 X0 Y10 Z0                              ; move X/Y to min endstops 
M420 S1                                    ; Enable leveling 
M420 Z2.0                                  ; Set leveling fading height to 2 mm 
G0 Z0.15                                   ; lift nozzle a bit 
G92 E0                                     ; zero the extruded length 
G1 X50 E25 F500                            ; Extrude 25mm of filament in a 5cm line. 
G92 E0                                     ; zero the extruded length again 
G1 E-2 F500                                ; Retract a little 
G1 X120 F4000                              ; Quickly wipe away from the filament line`
G92 E0
G92 E0
G1 F2400 E-3
;LAYER_COUNT:67
;LAYER:0
M106 S76.5
M205 X10 Y10
G1 F600 Z0.375
G0 F6000 X87.16 Y82.901 Z0.375
M205 X8 Y8
;TYPE:SKIRT
G1 F600 Z0.3
G1 F2400 E0
G1 F1200 X87.724 Y82.349 E0.03937
G1 X88.342 Y81.857 E0.07878
G1 X89.006 Y81.429 E0.11819
G1 X89.519 Y81.159 E0.14712
G1 X90.243 Y80.846 E0.18647
G1 X90.996 Y80.607 E0.22588
G1 X91.769 Y80.446 E0.26528
G1 X92.555 Y80.363 E0.30471
G1 X92.974 Y80.352 E0.32562
G1 X113.797 Y80.352 E1.36448
G1 X114.586 Y80.392 E1.4039
G1 X115.366 Y80.511 E1.44326
G1 X116.131 Y80.709 E1.48268
G1 X116.871 Y80.983 E1.52205
G1 X117.408 Y81.238 E1.55171
G1 X117.498 Y81.285 E1.55678
G1 X118.178 Y81.686 E1.59616
G1 X118.815 Y82.153 E1.63557
G1 X119.401 Y82.682 E1.67495
G1 X119.93 Y83.268 E1.71434
G1 X120.314 Y83.779 E1.74623
G1 X123.174 Y87.938 E1.99805
G1 X123.588 Y88.611 E2.03747
G1 X123.932 Y89.322 E2.07687
G1 X124.183 Y90.003 E2.11308
G1 X124.202 Y90.063 E2.11622
G1 X124.402 Y90.827 E2.15562
G1 X124.524 Y91.607 E2.19501
G1 X124.566 Y92.441 E2.23667
G1 X124.558 Y95.074 E2.36803
G1 X125.611 Y96.243 E2.44653
G1 X126.252 Y97.058 E2.49826
G1 X126.581 Y97.578 E2.52896
G1 X126.999 Y98.301 E2.57062
G1 X127.359 Y99.004 E2.61003
G1 X127.646 Y99.739 E2.64939
G1 X127.788 Y100.214 E2.67413
G1 X127.955 Y100.986 E2.71353
G1 X128.044 Y101.77 E2.7529
G1 X128.059 Y102.253 E2.777
G1 X128.059 Y120.852 E3.70491
G1 X128.063 Y121.687 E3.74657
G1 X128.027 Y122.476 E3.78598
G1 X127.911 Y123.257 E3.82537
G1 X127.716 Y124.023 E3.8648
G1 X127.446 Y124.764 E3.90415
G1 X127.101 Y125.475 E3.94358
G1 X126.687 Y126.147 E3.98295
G1 X126.207 Y126.774 E4.02235
G1 X125.802 Y127.215 E4.05222
G1 X125.685 Y127.333 E4.06051
G1 X125.101 Y127.865 E4.09992
G1 X124.467 Y128.335 E4.1393
G1 X123.788 Y128.739 E4.17872
G1 X123.072 Y129.071 E4.21809
G1 X122.326 Y129.33 E4.25749
G1 X121.557 Y129.512 E4.29691
G1 X120.774 Y129.616 E4.33632
G1 X120.148 Y129.641 E4.36758
G1 X116.779 Y129.642 E4.53566
G1 X115.991 Y129.602 E4.57502
G1 X115.21 Y129.483 E4.61444
G1 X114.728 Y129.368 E4.63916
G1 X113.976 Y129.127 E4.67855
G1 X113.252 Y128.812 E4.71795
G1 X112.775 Y128.553 E4.74502
G1 X86.221 Y112.944 E6.28174
G1 X85.562 Y112.51 E6.3211
G1 X84.949 Y112.012 E6.36051
G1 X84.39 Y111.454 E6.39991
G1 X83.891 Y110.842 E6.43931
G1 X83.459 Y110.188 E6.47841
G1 X83.407 Y110.1 E6.48351
G1 X83.04 Y109.401 E6.5229
G1 X82.746 Y108.668 E6.5623
G1 X82.527 Y107.909 E6.60171
G1 X82.386 Y107.132 E6.64111
G1 X82.329 Y106.457 E6.67491
G1 X81.943 Y97.214 E7.13644
G1 X81.936 Y96.889 E7.15266
G1 X81.936 Y92.421 E7.37557
G1 X81.976 Y91.632 E7.41498
G1 X82.095 Y90.852 E7.45435
G1 X82.374 Y89.844 E7.50653
G1 X82.395 Y89.784 E7.5097
G1 X82.693 Y89.053 E7.54908
G1 X83.064 Y88.356 E7.58848
G1 X83.522 Y87.675 E7.62942
G1 X86.654 Y83.508 E7.88949
G1 X87.16 Y82.901 E7.92891
M205 X10 Y10
G0 F6000 X87.467 Y83.158
M205 X8 Y8
G1 F1200 X88.019 Y82.622 E7.9673
G1 X88.624 Y82.147 E8.00567
G1 X89.611 Y81.56 E8.06297
G1 X89.696 Y81.518 E8.0677
G1 X90.402 Y81.213 E8.10607
G1 X91.136 Y80.984 E8.14443
G1 X91.89 Y80.832 E8.1828
G1 X92.974 Y80.752 E8.23703
G1 X113.797 Y80.752 E9.27589
G1 X114.565 Y80.792 E9.31426
G1 X115.325 Y80.911 E9.35264
G1 X116.068 Y81.109 E9.391
G1 X116.787 Y81.383 E9.42939
G1 X117.312 Y81.64 E9.45855
G1 X117.975 Y82.031 E9.49695
G1 X118.593 Y82.488 E9.5353
G1 X119.16 Y83.008 E9.57368
G1 X119.671 Y83.583 E9.61206
G1 X119.984 Y84.006 E9.63831
G1 X122.844 Y88.165 E9.89013
G1 X123.247 Y88.821 E9.92854
G1 X123.579 Y89.514 E9.96688
G1 X123.802 Y90.124 E9.99928
G1 X123.821 Y90.184 E10.00242
G1 X124.015 Y90.928 E10.04078
G1 X124.13 Y91.689 E10.07918
G1 X124.166 Y92.44 E10.11669
G1 X124.158 Y95.227 E10.25573
G1 X125.314 Y96.511 E10.34193
G1 X125.922 Y97.284 E10.39099
G1 X126.234 Y97.778 E10.42014
G1 X126.652 Y98.501 E10.46181
G1 X127.002 Y99.186 E10.50018
G1 X127.389 Y100.271 E10.55766
G1 X127.402 Y100.319 E10.56014
G1 X127.564 Y101.07 E10.59847
G1 X127.647 Y101.835 E10.63686
G1 X127.659 Y102.253 E10.65772
G1 X127.659 Y120.852 E11.58563
G1 X127.663 Y121.689 E11.62739
G1 X127.626 Y122.457 E11.66575
G1 X127.51 Y123.218 E11.70415
G1 X127.316 Y123.962 E11.74251
G1 X127.046 Y124.682 E11.78087
G1 X126.702 Y125.37 E11.81925
G1 X126.289 Y126.019 E11.85763
G1 X125.81 Y126.621 E11.89601
G1 X125.401 Y127.051 E11.92562
G1 X124.832 Y127.569 E11.96401
G1 X124.212 Y128.024 E12.00237
G1 X123.548 Y128.413 E12.04077
G1 X122.848 Y128.73 E12.0791
G1 X122.118 Y128.973 E12.11749
G1 X121.367 Y129.14 E12.15587
G1 X120.603 Y129.227 E12.19423
G1 X120.148 Y129.241 E12.21694
G1 X116.779 Y129.242 E12.38502
G1 X116.011 Y129.202 E12.42339
G1 X114.879 Y128.995 E12.4808
G1 X114.83 Y128.982 E12.48333
G1 X114.098 Y128.746 E12.5217
G1 X113.394 Y128.436 E12.56008
G1 X112.978 Y128.208 E12.58375
G1 X86.424 Y112.599 E14.12046
G1 X85.782 Y112.176 E14.15882
G1 X85.188 Y111.688 E14.19717
G1 X84.647 Y111.141 E14.23555
G1 X84.166 Y110.54 E14.27396
G1 X83.803 Y109.985 E14.30704
G1 X83.751 Y109.897 E14.31214
G1 X83.395 Y109.215 E14.35052
G1 X83.111 Y108.5 E14.38891
G1 X82.903 Y107.76 E14.42726
G1 X82.773 Y107.001 E14.46567
G1 X82.728 Y106.441 E14.4937
G1 X82.342 Y97.198 E14.95524
G1 X82.336 Y96.889 E14.97066
G1 X82.336 Y92.421 E15.19357
G1 X82.376 Y91.653 E15.23194
G1 X82.495 Y90.893 E15.27032
G1 X82.751 Y89.976 E15.31781
G1 X82.772 Y89.916 E15.32099
G1 X83.064 Y89.205 E15.35933
G1 X83.428 Y88.527 E15.39772
G1 X83.842 Y87.915 E15.43459
G1 X86.974 Y83.748 E15.69465
G1 X87.467 Y83.158 E15.73301
M205 X10 Y10
G0 F6000 X87.774 Y83.415
M205 X8 Y8
G1 F1200 X88.313 Y82.897 E15.77031
G1 X88.905 Y82.439 E15.80765
G1 X89.788 Y81.918 E15.8588
G1 X89.873 Y81.876 E15.86353
G1 X90.56 Y81.581 E15.90083
G1 X91.275 Y81.361 E15.93815
G1 X92.01 Y81.219 E15.9755
G1 X92.974 Y81.152 E16.02371
G1 X113.797 Y81.152 E17.06258
G1 X114.544 Y81.192 E17.0999
G1 X115.282 Y81.311 E17.13719
G1 X116.004 Y81.509 E17.17454
G1 X116.7 Y81.782 E17.21184
G1 X117.127 Y81.994 E17.23563
G1 X117.771 Y82.375 E17.27296
G1 X118.37 Y82.823 E17.31027
G1 X118.918 Y83.332 E17.34759
G1 X119.409 Y83.897 E17.38493
G1 X119.655 Y84.233 E17.40571
G1 X122.515 Y88.392 E17.65753
G1 X122.905 Y89.03 E17.69483
G1 X123.225 Y89.706 E17.73215
G1 X123.42 Y90.245 E17.76074
G1 X123.439 Y90.305 E17.76388
G1 X123.627 Y91.029 E17.8012
G1 X123.736 Y91.769 E17.83852
G1 X123.766 Y92.438 E17.87193
G1 X123.757 Y95.38 E18.01871
G1 X125.017 Y96.779 E18.11264
G1 X125.592 Y97.51 E18.15904
G1 X125.888 Y97.978 E18.18666
G1 X126.306 Y98.701 E18.22833
G1 X126.645 Y99.368 E18.26566
G1 X127.003 Y100.375 E18.31898
G1 X127.016 Y100.423 E18.32146
G1 X127.172 Y101.155 E18.3588
G1 X127.259 Y102.253 E18.41375
G1 X127.259 Y120.852 E19.34166
G1 X127.263 Y121.691 E19.38352
G1 X127.226 Y122.438 E19.42083
G1 X127.11 Y123.177 E19.45815
G1 X126.916 Y123.899 E19.49545
G1 X126.646 Y124.597 E19.53279
G1 X126.303 Y125.262 E19.57012
G1 X125.891 Y125.886 E19.60742
G1 X125.234 Y126.652 E19.65777
G1 X125.117 Y126.77 E19.66606
G1 X124.562 Y127.272 E19.70339
G1 X123.958 Y127.712 E19.74068
G1 X123.309 Y128.085 E19.77802
G1 X122.625 Y128.387 E19.81532
G1 X121.912 Y128.615 E19.85267
G1 X121.179 Y128.764 E19.88999
G1 X120.148 Y128.841 E19.94157
G1 X116.779 Y128.842 E20.10965
G1 X116.032 Y128.802 E20.14697
G1 X114.982 Y128.608 E20.20024
G1 X114.933 Y128.595 E20.20277
G1 X114.221 Y128.365 E20.2401
G1 X113.538 Y128.06 E20.27742
G1 X113.181 Y127.864 E20.29774
G1 X86.627 Y112.255 E21.83445
G1 X86.003 Y111.842 E21.87178
G1 X85.427 Y111.364 E21.90912
G1 X84.905 Y110.828 E21.94645
G1 X84.443 Y110.24 E21.98376
G1 X84.148 Y109.781 E22.01098
G1 X84.096 Y109.693 E22.01608
G1 X83.75 Y109.03 E22.05339
G1 X83.477 Y108.333 E22.09074
G1 X83.28 Y107.611 E22.12807
G1 X83.161 Y106.873 E22.16537
G1 X83.128 Y106.424 E22.18783
G1 X82.742 Y97.181 E22.64937
G1 X82.736 Y96.889 E22.66394
G1 X82.736 Y92.421 E22.88685
G1 X82.776 Y91.674 E22.92417
G1 X82.895 Y90.936 E22.96146
G1 X83.129 Y90.109 E23.00434
G1 X83.15 Y90.049 E23.00751
G1 X83.434 Y89.357 E23.04483
G1 X83.791 Y88.699 E23.08218
G1 X84.161 Y88.155 E23.115
G1 X87.293 Y83.988 E23.37507
G1 X87.774 Y83.415 E23.41239
M205 X10 Y10
G0 F6000 X88.081 Y83.673
M205 X8 Y8
G1 F1200 X88.607 Y83.172 E23.44863
G1 X89.185 Y82.732 E23.48488
G1 X89.965 Y82.277 E23.52993
G1 X90.05 Y82.235 E23.53466
G1 X90.718 Y81.949 E23.57091
G1 X91.413 Y81.739 E23.60713
G1 X92.128 Y81.606 E23.64342
G1 X92.974 Y81.552 E23.68571
G1 X113.797 Y81.552 E24.72457
G1 X114.522 Y81.592 E24.7608
G1 X115.239 Y81.711 E24.79706
G1 X115.938 Y81.909 E24.8333
G1 X116.852 Y82.302 E24.88294
G1 X116.942 Y82.349 E24.88801
G1 X117.567 Y82.72 E24.92427
G1 X118.146 Y83.157 E24.96046
G1 X118.675 Y83.656 E24.99674
G1 X119.325 Y84.459 E25.04828
G1 X122.185 Y88.618 E25.3001
G1 X122.563 Y89.239 E25.33637
G1 X122.871 Y89.897 E25.37261
G1 X123.058 Y90.426 E25.40061
G1 X123.239 Y91.129 E25.43682
G1 X123.341 Y91.848 E25.47305
G1 X123.366 Y92.437 E25.50247
G1 X123.357 Y95.532 E25.65688
G1 X124.72 Y97.046 E25.75851
G1 X125.262 Y97.736 E25.80228
G1 X125.542 Y98.179 E25.82843
G1 X125.96 Y98.902 E25.8701
G1 X126.288 Y99.549 E25.90629
G1 X126.616 Y100.48 E25.95553
G1 X126.629 Y100.528 E25.95801
G1 X126.781 Y101.238 E25.99424
G1 X126.859 Y102.253 E26.04503
G1 X126.859 Y120.852 E26.97293
G1 X126.863 Y121.693 E27.01489
G1 X126.826 Y122.418 E27.05111
G1 X126.71 Y123.135 E27.08735
G1 X126.516 Y123.835 E27.12358
G1 X126.246 Y124.509 E27.15981
G1 X125.904 Y125.15 E27.19606
G1 X125.493 Y125.749 E27.2323
G1 X124.95 Y126.37 E27.27345
G1 X124.833 Y126.488 E27.28174
G1 X124.294 Y126.975 E27.31798
G1 X123.704 Y127.4 E27.35426
G1 X123.072 Y127.757 E27.39047
G1 X122.404 Y128.043 E27.42673
G1 X121.709 Y128.253 E27.46295
G1 X120.995 Y128.386 E27.49918
G1 X120.148 Y128.441 E27.54153
G1 X116.779 Y128.442 E27.70961
G1 X116.054 Y128.402 E27.74584
G1 X115.085 Y128.221 E27.79502
G1 X115.036 Y128.208 E27.79754
G1 X114.345 Y127.984 E27.83378
G1 X113.383 Y127.519 E27.88709
G1 X86.829 Y111.91 E29.4238
G1 X86.224 Y111.508 E29.46004
G1 X85.667 Y111.042 E29.49627
G1 X85.165 Y110.517 E29.53251
G1 X84.723 Y109.941 E29.56874
G1 X84.44 Y109.49 E29.5953
G1 X84.105 Y108.845 E29.63156
G1 X83.844 Y108.167 E29.66781
G1 X83.658 Y107.465 E29.70404
G1 X83.528 Y106.407 E29.75722
G1 X83.142 Y97.164 E30.21876
G1 X83.136 Y96.889 E30.23248
G1 X83.136 Y92.421 E30.45539
G1 X83.176 Y91.696 E30.49161
G1 X83.295 Y90.979 E30.52787
G1 X83.507 Y90.241 E30.56618
G1 X83.528 Y90.181 E30.56935
G1 X83.805 Y89.509 E30.60562
G1 X84.154 Y88.873 E30.64181
G1 X84.481 Y88.396 E30.67066
G1 X87.613 Y84.229 E30.93073
G1 X88.081 Y83.673 E30.96699
M205 X10 Y10
G0 F6000 X88.387 Y83.931
M205 X8 Y8
G1 F1200 X88.899 Y83.448 E31.0021
G1 X89.463 Y83.026 E31.03725
G1 X90.142 Y82.636 E31.07631
G1 X90.227 Y82.594 E31.08104
G1 X90.875 Y82.318 E31.11618
G1 X91.55 Y82.118 E31.1513
G1 X92.243 Y81.995 E31.18642
G1 X92.974 Y81.952 E31.22295
G1 X113.797 Y81.952 E32.26181
G1 X114.5 Y81.992 E32.29694
G1 X115.194 Y82.111 E32.33207
G1 X115.869 Y82.309 E32.36717
G1 X116.667 Y82.656 E32.41058
G1 X116.757 Y82.703 E32.41565
G1 X117.362 Y83.064 E32.4508
G1 X117.921 Y83.491 E32.48589
G1 X118.429 Y83.979 E32.52103
G1 X118.996 Y84.686 E32.56625
G1 X121.856 Y88.845 E32.81807
G1 X122.221 Y89.447 E32.85319
G1 X122.516 Y90.086 E32.8883
G1 X122.677 Y90.546 E32.91262
G1 X122.851 Y91.228 E32.94773
G1 X122.946 Y91.926 E32.98288
G1 X122.966 Y92.436 E33.00834
G1 X122.957 Y95.687 E33.17053
G1 X124.422 Y97.314 E33.27976
G1 X124.932 Y97.962 E33.3209
G1 X125.196 Y98.379 E33.34553
G1 X125.614 Y99.102 E33.38719
G1 X125.931 Y99.73 E33.42229
G1 X126.23 Y100.584 E33.46743
G1 X126.243 Y100.632 E33.46991
G1 X126.389 Y101.321 E33.50505
G1 X126.459 Y102.253 E33.55168
G1 X126.459 Y120.852 E34.47959
G1 X126.463 Y121.695 E34.52164
G1 X126.426 Y122.398 E34.55676
G1 X126.31 Y123.092 E34.59187
G1 X126.116 Y123.769 E34.627
G1 X125.846 Y124.419 E34.66212
G1 X125.505 Y125.034 E34.6972
G1 X125.095 Y125.607 E34.73235
G1 X124.666 Y126.088 E34.76451
G1 X124.549 Y126.206 E34.7728
G1 X124.025 Y126.677 E34.80795
G1 X123.452 Y127.086 E34.84307
G1 X122.836 Y127.427 E34.8782
G1 X122.186 Y127.696 E34.9133
G1 X121.509 Y127.889 E34.94842
G1 X120.814 Y128.005 E34.98357
G1 X120.148 Y128.041 E35.01685
G1 X116.779 Y128.042 E35.18493
G1 X116.076 Y128.002 E35.22006
G1 X115.187 Y127.835 E35.26518
G1 X115.138 Y127.822 E35.26771
G1 X114.469 Y127.603 E35.30283
G1 X113.586 Y127.174 E35.35181
G1 X87.032 Y111.565 E36.88852
G1 X86.446 Y111.174 E36.92367
G1 X85.909 Y110.72 E36.95875
G1 X85.426 Y110.207 E36.9939
G1 X84.836 Y109.374 E37.04483
G1 X84.784 Y109.286 E37.04993
G1 X84.461 Y108.661 E37.08503
G1 X84.211 Y108.003 E37.12015
G1 X84.037 Y107.32 E37.15531
G1 X83.927 Y106.391 E37.20198
G1 X83.541 Y97.148 E37.66352
G1 X83.536 Y96.889 E37.67644
G1 X83.536 Y92.421 E37.89935
G1 X83.576 Y91.718 E37.93448
G1 X83.695 Y91.024 E37.96961
G1 X83.884 Y90.373 E38.00343
G1 X83.905 Y90.313 E38.0066
G1 X84.175 Y89.663 E38.04172
G1 X84.517 Y89.047 E38.07687
G1 X84.801 Y88.636 E38.10179
G1 X87.933 Y84.469 E38.36186
G1 X88.387 Y83.931 E38.39698
M205 X10 Y10
G0 F6000 X88.693 Y84.19
M205 X8 Y8
G1 F1200 X89.191 Y83.726 E38.43094
G1 X89.74 Y83.323 E38.46491
G1 X90.32 Y82.994 E38.49818
G1 X90.405 Y82.952 E38.50291
G1 X91.032 Y82.687 E38.53687
G1 X91.686 Y82.497 E38.57085
G1 X92.357 Y82.385 E38.60479
G1 X92.974 Y82.352 E38.63562
G1 X113.797 Y82.352 E39.67448
G1 X114.477 Y82.392 E39.70846
G1 X115.147 Y82.511 E39.74241
G1 X115.799 Y82.708 E39.77639
G1 X116.482 Y83.011 E39.81367
G1 X116.572 Y83.058 E39.81874
G1 X117.156 Y83.408 E39.8527
G1 X117.695 Y83.824 E39.88667
G1 X118.181 Y84.3 E39.92061
G1 X118.666 Y84.913 E39.95961
G1 X121.526 Y89.072 E40.21143
G1 X121.878 Y89.654 E40.24536
G1 X122.16 Y90.274 E40.27934
G1 X122.295 Y90.667 E40.30007
G1 X122.462 Y91.327 E40.33404
G1 X122.551 Y92.002 E40.36801
G1 X122.566 Y92.435 E40.38962
G1 X122.556 Y95.84 E40.5595
G1 X124.125 Y97.582 E40.67646
G1 X124.602 Y98.188 E40.71494
G1 X124.849 Y98.579 E40.73801
G1 X125.267 Y99.302 E40.77968
G1 X125.573 Y99.91 E40.81364
G1 X125.844 Y100.689 E40.85478
G1 X125.857 Y100.737 E40.85727
G1 X125.996 Y101.403 E40.89121
G1 X126.059 Y102.253 E40.93373
G1 X126.059 Y120.852 E41.86164
G1 X126.063 Y121.696 E41.90375
