;FLAVOR:Marlin
;TIME:10490
;Filament used: 7.98069m
;Layer height: 0.2
;MINX:59.659
;MINY:64.7
;MINZ:0.3
;MAXX:150.341
;MAXY:145.3
;MAXZ:33.375
;Generated with Cura_SteamEngine 4.13.1
M82 ;absolute extrusion mode
G21                                        ; metric values 
G90                                        ; absolute positioning 
M82                                        ; set extruder to absolute mode 
M107                                       ; start with the fan off 
M140 S60.0           ; Start heating the bed 
G4 S60                                     ; wait 1 minute 
M104 S220.0         ; start heating the hot end 
M190 S60.0           ; wait for bed 
M109 S220.0         ; wait for hotend 
M300 S1000 P500                            ; BEEP heating done 
G28 X0 Y10 Z0                              ; move X/Y to min endstops 
M420 S1                                    ; Enable leveling 
M420 Z2.0                                  ; Set leveling fading height to 2 mm 
G0 Z0.15                                   ; lift nozzle a bit 
G92 E0                                     ; zero the extruded length 
G1 X50 E25 F500                            ; Extrude 25mm of filament in a 5cm line. 
G92 E0                                     ; zero the extruded length again 
G1 E-2 F500                                ; Retract a little 
G1 X120 F4000                              ; Quickly wipe away from the filament line`
G92 E0
G92 E0
G1 F2400 E-3
;LAYER_COUNT:166
;LAYER:0
M106 S76.5
M205 X10 Y10
G1 F600 Z0.375
G0 F6000 X73.17 Y67.539 Z0.375
M205 X8 Y8
;TYPE:SKIRT
G1 F600 Z0.3
G1 F2400 E0
G1 F1200 X73.575 Y67.102 E0.02973
G1 X73.692 Y66.985 E0.03798
G1 X74.278 Y66.455 E0.0774
G1 X74.914 Y65.988 E0.11677
G1 X75.594 Y65.587 E0.15615
G1 X76.312 Y65.257 E0.19557
G1 X77.059 Y65.002 E0.23495
G1 X77.828 Y64.823 E0.27434
G1 X78.612 Y64.723 E0.31378
G1 X79.207 Y64.7 E0.34348
G1 X82.975 Y64.7 E0.53147
G1 X83.764 Y64.74 E0.57088
G1 X84.544 Y64.859 E0.61025
G1 X85.309 Y65.057 E0.64967
G1 X86.049 Y65.331 E0.68904
G1 X86.758 Y65.679 E0.72844
G1 X87.429 Y66.097 E0.76788
G1 X88.053 Y66.58 E0.80725
G1 X88.49 Y66.985 E0.83698
G1 X88.607 Y67.102 E0.84523
G1 X89.137 Y67.688 E0.88465
G1 X89.604 Y68.324 E0.92402
G1 X90.005 Y69.004 E0.9634
G1 X90.335 Y69.722 E1.00282
G1 X90.59 Y70.469 E1.0422
G1 X90.769 Y71.238 E1.08159
G1 X90.869 Y72.022 E1.12103
G1 X90.892 Y72.617 E1.15073
G1 X90.892 Y85.468 E1.79187
G1 X94.735 Y87.226 E2.00271
G1 X120.641 Y87.234 E3.29516
G1 X120.641 Y72.617 E4.02441
G1 X120.681 Y71.828 E4.06382
G1 X120.8 Y71.048 E4.10319
G1 X120.998 Y70.283 E4.14261
G1 X121.272 Y69.543 E4.18198
G1 X121.62 Y68.834 E4.22138
G1 X122.038 Y68.163 E4.26082
G1 X122.521 Y67.539 E4.30019
G1 X122.926 Y67.102 E4.32992
G1 X123.043 Y66.985 E4.33817
G1 X123.629 Y66.455 E4.37759
G1 X124.265 Y65.988 E4.41696
G1 X124.945 Y65.587 E4.45634
G1 X125.663 Y65.257 E4.49576
G1 X126.41 Y65.002 E4.53514
G1 X127.179 Y64.823 E4.57454
G1 X127.963 Y64.723 E4.61397
G1 X128.558 Y64.7 E4.64367
G1 X132.313 Y64.7 E4.83101
G1 X133.102 Y64.74 E4.87042
G1 X133.882 Y64.859 E4.90979
G1 X134.647 Y65.057 E4.94921
G1 X135.387 Y65.331 E4.98858
G1 X136.096 Y65.679 E5.02798
G1 X136.767 Y66.097 E5.06743
G1 X137.391 Y66.58 E5.10679
G1 X137.828 Y66.985 E5.13652
G1 X137.945 Y67.102 E5.14477
G1 X138.475 Y67.688 E5.18419
G1 X138.942 Y68.324 E5.22356
G1 X139.343 Y69.004 E5.26294
G1 X139.673 Y69.722 E5.30237
G1 X139.928 Y70.469 E5.34175
G1 X140.107 Y71.238 E5.38114
G1 X140.207 Y72.022 E5.42057
G1 X140.23 Y72.617 E5.45027
G1 X140.23 Y74.811 E5.55973
G1 X142.424 Y74.811 E5.66919
G1 X143.213 Y74.851 E5.70861
G1 X143.993 Y74.97 E5.74797
G1 X144.758 Y75.168 E5.7874
G1 X145.498 Y75.442 E5.82676
G1 X146.207 Y75.79 E5.86617
G1 X146.878 Y76.208 E5.90561
G1 X147.502 Y76.691 E5.94498
G1 X147.939 Y77.096 E5.9747
G1 X148.056 Y77.213 E5.98296
G1 X148.586 Y77.799 E6.02238
G1 X149.053 Y78.435 E6.06174
G1 X149.454 Y79.115 E6.10113
G1 X149.784 Y79.833 E6.14055
G1 X150.039 Y80.58 E6.17993
G1 X150.218 Y81.349 E6.21932
G1 X150.318 Y82.133 E6.25875
G1 X150.341 Y82.728 E6.28846
G1 X150.341 Y118.079 E8.05213
G1 X150.301 Y118.868 E8.09154
G1 X150.182 Y119.648 E8.1309
G1 X149.984 Y120.413 E8.17033
G1 X149.71 Y121.153 E8.2097
G1 X149.362 Y121.862 E8.2491
G1 X148.944 Y122.533 E8.28854
G1 X148.461 Y123.157 E8.32791
G1 X148.056 Y123.594 E8.35763
G1 X147.939 Y123.711 E8.36589
G1 X147.353 Y124.241 E8.40531
G1 X146.717 Y124.708 E8.44467
G1 X146.037 Y125.109 E8.48406
G1 X145.319 Y125.439 E8.52348
G1 X144.572 Y125.694 E8.56286
G1 X143.803 Y125.873 E8.60225
G1 X143.019 Y125.973 E8.64168
G1 X142.424 Y125.996 E8.67139
G1 X140.23 Y125.996 E8.78085
G1 X140.23 Y137.383 E9.34895
G1 X140.19 Y138.172 E9.38836
G1 X140.071 Y138.952 E9.42773
G1 X139.873 Y139.717 E9.46715
G1 X139.599 Y140.457 E9.50652
G1 X139.251 Y141.166 E9.54592
G1 X138.833 Y141.837 E9.58536
G1 X138.35 Y142.461 E9.62473
G1 X137.945 Y142.898 E9.65446
G1 X137.828 Y143.015 E9.66271
G1 X137.242 Y143.545 E9.70213
G1 X136.606 Y144.012 E9.7415
G1 X135.926 Y144.413 E9.78088
G1 X135.208 Y144.743 E9.8203
G1 X134.461 Y144.998 E9.85968
G1 X133.692 Y145.177 E9.89908
G1 X132.908 Y145.277 E9.93851
G1 X132.313 Y145.3 E9.96821
G1 X128.558 Y145.3 E10.15555
G1 X127.769 Y145.26 E10.19496
G1 X126.989 Y145.141 E10.23433
G1 X126.224 Y144.943 E10.27375
G1 X125.484 Y144.669 E10.31312
G1 X124.775 Y144.321 E10.35252
G1 X124.104 Y143.903 E10.39197
G1 X123.48 Y143.42 E10.43133
G1 X123.043 Y143.015 E10.46106
G1 X122.926 Y142.898 E10.46931
G1 X122.396 Y142.312 E10.50873
G1 X121.929 Y141.676 E10.5481
G1 X121.528 Y140.996 E10.58748
G1 X121.198 Y140.278 E10.62691
G1 X120.943 Y139.531 E10.66629
G1 X120.845 Y139.112 E10.68775
G1 X120.313 Y138.974 E10.71517
G1 X119.573 Y138.7 E10.75454
G1 X118.864 Y138.352 E10.79395
G1 X118.055 Y137.836 E10.84182
G1 X117.293 Y137.281 E10.88885
G1 X116.679 Y136.784 E10.92826
G1 X116.118 Y136.228 E10.96766
G1 X115.617 Y135.618 E11.00705
G1 X115.18 Y134.961 E11.04641
G1 X114.811 Y134.262 E11.08585
G1 X114.466 Y133.385 E11.13286
G1 X114.176 Y132.492 E11.17971
G1 X113.971 Y131.73 E11.21908
G1 X113.843 Y130.95 E11.25851
G1 X113.795 Y130.162 E11.2979
G1 X113.827 Y129.373 E11.33729
G1 X113.939 Y128.591 E11.3767
G1 X114.176 Y127.674 E11.42396
G1 X114.466 Y126.781 E11.4708
G1 X114.748 Y126.043 E11.51021
G1 X115.103 Y125.338 E11.54959
G1 X115.527 Y124.672 E11.58898
G1 X116.017 Y124.052 E11.62841
G1 X116.566 Y123.485 E11.66778
G1 X117.293 Y122.885 E11.71481
G1 X117.558 Y122.692 E11.73117
G1 X91.107 Y122.691 E13.05081
G1 X91.616 Y123.062 E13.08224
G1 X92.23 Y123.559 E13.12165
G1 X92.791 Y124.115 E13.16105
G1 X93.292 Y124.725 E13.20043
G1 X93.729 Y125.382 E13.2398
G1 X94.098 Y126.081 E13.27924
G1 X94.443 Y126.958 E13.32625
G1 X94.733 Y127.851 E13.3731
G1 X94.938 Y128.613 E13.41246
G1 X95.066 Y129.393 E13.4519
G1 X95.114 Y130.181 E13.49128
G1 X95.082 Y130.97 E13.53068
G1 X94.97 Y131.752 E13.57009
G1 X94.733 Y132.669 E13.61734
G1 X94.443 Y133.562 E13.66419
G1 X94.161 Y134.3 E13.7036
G1 X93.806 Y135.005 E13.74298
G1 X93.382 Y135.671 E13.78237
G1 X92.892 Y136.291 E13.8218
G1 X92.343 Y136.858 E13.86117
G1 X91.616 Y137.458 E13.9082
G1 X90.86 Y138.008 E13.95484
G1 X90.852 Y138.172 E13.96303
G1 X90.733 Y138.952 E14.0024
G1 X90.535 Y139.717 E14.04182
G1 X90.261 Y140.457 E14.08119
G1 X89.913 Y141.166 E14.12059
G1 X89.495 Y141.837 E14.16003
G1 X89.012 Y142.461 E14.1994
G1 X88.607 Y142.898 E14.22913
G1 X88.49 Y143.015 E14.23738
G1 X87.904 Y143.545 E14.2768
G1 X87.268 Y144.012 E14.31617
G1 X86.588 Y144.413 E14.35555
G1 X85.87 Y144.743 E14.39498
G1 X85.123 Y144.998 E14.43436
G1 X84.354 Y145.177 E14.47375
G1 X83.57 Y145.277 E14.51318
G1 X82.975 Y145.3 E14.54288
G1 X79.207 Y145.3 E14.73087
G1 X78.418 Y145.26 E14.77028
G1 X77.638 Y145.141 E14.80965
G1 X76.873 Y144.943 E14.84907
G1 X76.133 Y144.669 E14.88844
G1 X75.424 Y144.321 E14.92784
G1 X74.753 Y143.903 E14.96729
G1 X74.129 Y143.42 E15.00665
G1 X73.692 Y143.015 E15.03638
G1 X73.575 Y142.898 E15.04463
G1 X73.045 Y142.312 E15.08405
G1 X72.578 Y141.676 E15.12342
G1 X72.177 Y140.996 E15.1628
G1 X71.847 Y140.278 E15.20223
G1 X71.592 Y139.531 E15.24161
G1 X71.413 Y138.762 E15.281
G1 X71.313 Y137.978 E15.32043
G1 X71.29 Y137.383 E15.35013
G1 X71.29 Y133.764 E15.53069
G1 X71.152 Y133.728 E15.5378
G1 X70.412 Y133.454 E15.57717
G1 X69.703 Y133.106 E15.61657
G1 X68.894 Y132.59 E15.66445
G1 X67.209 Y131.363 E15.76844
G1 X66.595 Y130.867 E15.80782
G1 X66.035 Y130.311 E15.84719
G1 X65.533 Y129.701 E15.8866
G1 X65.096 Y129.043 E15.92601
G1 X64.727 Y128.345 E15.9654
G1 X64.384 Y127.473 E16.01215
G1 X63.74 Y125.495 E16.11593
G1 X63.634 Y125.102 E16.13624
G1 X63.122 Y124.783 E16.16633
G1 X62.498 Y124.3 E16.2057
G1 X62.061 Y123.895 E16.23543
G1 X61.944 Y123.778 E16.24368
G1 X61.414 Y123.192 E16.2831
G1 X60.947 Y122.556 E16.32247
G1 X60.546 Y121.876 E16.36185
G1 X60.216 Y121.158 E16.40127
G1 X59.961 Y120.411 E16.44065
G1 X59.782 Y119.642 E16.48004
G1 X59.682 Y118.858 E16.51948
G1 X59.659 Y118.263 E16.54918
G1 X59.659 Y110.135 E16.95469
G1 X59.699 Y109.346 E16.9941
G1 X59.818 Y108.566 E17.03347
G1 X60.016 Y107.801 E17.07289
G1 X60.29 Y107.061 E17.11226
G1 X60.638 Y106.352 E17.15166
G1 X61.056 Y105.681 E17.1911
G1 X61.539 Y105.057 E17.23047
G1 X61.944 Y104.62 E17.2602
G1 X62.061 Y104.503 E17.26845
G1 X62.647 Y103.973 E17.30787
G1 X63.283 Y103.506 E17.34724
G1 X63.963 Y103.105 E17.38662
G1 X64.681 Y102.775 E17.42605
G1 X65.428 Y102.52 E17.46542
G1 X66.197 Y102.341 E17.50482
G1 X66.981 Y102.241 E17.54425
G1 X67.576 Y102.218 E17.57395
G1 X68.78 Y102.218 E17.63402
G1 X69.074 Y101.313 E17.6815
G1 X69.356 Y100.575 E17.72091
G1 X69.711 Y99.869 E17.76034
G1 X70.135 Y99.203 E17.79972
G1 X70.625 Y98.584 E17.83911
G1 X71.174 Y98.017 E17.87849
G1 X71.288 Y97.69 E17.89576
G1 X71.504 Y96.926 E17.93537
G1 X71.54 Y96.821 E17.94091
G1 X71.413 Y96.277 E17.96878
G1 X71.313 Y95.493 E18.00821
G1 X71.29 Y94.898 E18.03792
G1 X71.29 Y72.617 E19.14952
G1 X71.33 Y71.828 E19.18894
G1 X71.449 Y71.048 E19.2283
G1 X71.647 Y70.283 E19.26772
G1 X71.921 Y69.543 E19.30709
G1 X72.269 Y68.834 E19.3465
G1 X72.687 Y68.163 E19.38594
G1 X73.17 Y67.539 E19.4253
M205 X10 Y10
G0 F6000 X73.565 Y67.694
M205 X8 Y8
G1 F1200 X73.974 Y67.267 E19.4548
G1 X74.546 Y66.753 E19.49317
G1 X75.168 Y66.3 E19.53156
G1 X75.833 Y65.914 E19.56992
G1 X76.535 Y65.599 E19.60831
G1 X77.266 Y65.359 E19.64669
G1 X78.017 Y65.196 E19.68503
G1 X78.782 Y65.112 E19.72343
G1 X79.207 Y65.1 E19.74464
G1 X82.975 Y65.1 E19.93263
G1 X83.743 Y65.14 E19.97099
G1 X84.503 Y65.259 E20.00937
G1 X85.246 Y65.457 E20.04773
G1 X85.965 Y65.731 E20.08612
G1 X86.651 Y66.078 E20.12448
G1 X87.298 Y66.494 E20.16285
G1 X87.898 Y66.975 E20.20122
G1 X88.325 Y67.384 E20.23072
G1 X88.839 Y67.956 E20.26908
G1 X89.292 Y68.578 E20.30747
G1 X89.678 Y69.243 E20.34583
G1 X89.993 Y69.945 E20.38422
G1 X90.233 Y70.676 E20.4226
G1 X90.396 Y71.427 E20.46094
G1 X90.48 Y72.192 E20.49934
G1 X90.492 Y72.617 E20.52055
G1 X90.492 Y85.726 E21.17456
G1 X94.647 Y87.626 E21.4025
G1 X121.041 Y87.634 E22.7193
G1 X121.041 Y72.617 E23.4685
G1 X121.081 Y71.849 E23.50687
G1 X121.2 Y71.089 E23.54525
G1 X121.398 Y70.346 E23.58361
G1 X121.672 Y69.627 E23.622
G1 X122.019 Y68.941 E23.66035
G1 X122.435 Y68.294 E23.69873
G1 X122.916 Y67.694 E23.73709
G1 X123.325 Y67.267 E23.76659
G1 X123.897 Y66.753 E23.80496
G1 X124.519 Y66.3 E23.84335
G1 X125.184 Y65.914 E23.88171
G1 X125.886 Y65.599 E23.9201
G1 X126.617 Y65.359 E23.95848
G1 X127.368 Y65.196 E23.99682
G1 X128.133 Y65.112 E24.03522
G1 X128.558 Y65.1 E24.05643
G1 X132.313 Y65.1 E24.24377
G1 X133.081 Y65.14 E24.28213
G1 X133.841 Y65.259 E24.32051
G1 X134.584 Y65.457 E24.35888
G1 X135.303 Y65.731 E24.39726
G1 X135.989 Y66.078 E24.43562
G1 X136.636 Y66.494 E24.47399
G1 X137.236 Y66.975 E24.51236
G1 X137.663 Y67.384 E24.54186
G1 X138.177 Y67.956 E24.58022
G1 X138.63 Y68.578 E24.61861
G1 X139.016 Y69.243 E24.65697
G1 X139.331 Y69.945 E24.69536
G1 X139.571 Y70.676 E24.73375
G1 X139.734 Y71.427 E24.77209
G1 X139.818 Y72.192 E24.81048
G1 X139.83 Y72.617 E24.83169
G1 X139.83 Y75.211 E24.96111
G1 X142.424 Y75.211 E25.09052
G1 X143.192 Y75.251 E25.12889
G1 X143.952 Y75.37 E25.16727
G1 X144.695 Y75.568 E25.20563
G1 X145.414 Y75.842 E25.24402
G1 X146.1 Y76.189 E25.28237
G1 X146.747 Y76.605 E25.32075
G1 X147.347 Y77.086 E25.35911
G1 X147.774 Y77.495 E25.38861
G1 X148.288 Y78.067 E25.42698
G1 X148.741 Y78.689 E25.46537
G1 X149.127 Y79.354 E25.50373
G1 X149.442 Y80.056 E25.54212
G1 X149.682 Y80.787 E25.5805
G1 X149.845 Y81.538 E25.61884
G1 X149.929 Y82.303 E25.65724
G1 X149.941 Y82.728 E25.67845
G1 X149.941 Y118.079 E27.44212
G1 X149.901 Y118.847 E27.48048
G1 X149.782 Y119.607 E27.51886
G1 X149.584 Y120.35 E27.55723
G1 X149.31 Y121.069 E27.59561
G1 X148.963 Y121.755 E27.63397
G1 X148.547 Y122.402 E27.67234
G1 X148.066 Y123.002 E27.71071
G1 X147.657 Y123.429 E27.74021
G1 X147.085 Y123.943 E27.77857
G1 X146.463 Y124.396 E27.81696
G1 X145.798 Y124.782 E27.85532
G1 X145.096 Y125.097 E27.89371
G1 X144.365 Y125.337 E27.9321
G1 X143.614 Y125.5 E27.97044
G1 X142.849 Y125.584 E28.00883
G1 X142.424 Y125.596 E28.03004
G1 X139.83 Y125.596 E28.15946
G1 X139.83 Y137.383 E28.74751
G1 X139.79 Y138.151 E28.78588
G1 X139.671 Y138.911 E28.82426
G1 X139.473 Y139.654 E28.86262
G1 X139.199 Y140.373 E28.90101
G1 X138.852 Y141.059 E28.93936
G1 X138.436 Y141.706 E28.97774
G1 X137.955 Y142.306 E29.0161
G1 X137.546 Y142.733 E29.0456
G1 X136.974 Y143.247 E29.08397
G1 X136.352 Y143.7 E29.12236
G1 X135.687 Y144.086 E29.16072
G1 X134.985 Y144.401 E29.19911
G1 X134.254 Y144.641 E29.23749
G1 X133.503 Y144.804 E29.27583
G1 X132.738 Y144.888 E29.31423
G1 X132.313 Y144.9 E29.33544
G1 X128.558 Y144.9 E29.52278
G1 X127.79 Y144.86 E29.56114
G1 X127.03 Y144.741 E29.59952
G1 X126.287 Y144.543 E29.63789
G1 X125.568 Y144.269 E29.67627
G1 X124.882 Y143.922 E29.71463
G1 X124.235 Y143.506 E29.753
G1 X123.635 Y143.025 E29.79137
G1 X123.208 Y142.616 E29.82087
G1 X122.694 Y142.044 E29.85923
G1 X122.241 Y141.422 E29.89762
G1 X121.855 Y140.757 E29.93598
G1 X121.54 Y140.055 E29.97437
G1 X121.3 Y139.324 E30.01276
G1 X121.182 Y138.782 E30.04043
G1 X121.119 Y138.772 E30.04361
G1 X120.376 Y138.574 E30.08197
G1 X119.657 Y138.3 E30.12036
G1 X118.971 Y137.953 E30.15872
G1 X118.29 Y137.513 E30.19917
G1 X117.528 Y136.958 E30.2462
G1 X116.931 Y136.473 E30.28457
G1 X116.387 Y135.929 E30.32295
G1 X115.903 Y135.332 E30.3613
G1 X115.483 Y134.687 E30.3997
G1 X115.132 Y134.003 E30.43805
G1 X114.847 Y133.262 E30.47766
G1 X114.557 Y132.369 E30.5245
G1 X114.358 Y131.626 E30.56288
G1 X114.237 Y130.866 E30.60127
G1 X114.195 Y130.098 E30.63964
G1 X114.233 Y129.33 E30.67801
G1 X114.351 Y128.57 E30.71638
G1 X114.557 Y127.797 E30.75629
G1 X114.847 Y126.904 E30.80313
G1 X115.122 Y126.186 E30.84149
G1 X115.47 Y125.5 E30.87987
G1 X115.888 Y124.854 E30.91825
G1 X116.37 Y124.255 E30.95661
G1 X116.912 Y123.71 E30.99496
G1 X117.528 Y123.208 E31.0346
G1 X118.29 Y122.653 E31.08164
G1 X118.846 Y122.292 E31.11471
G1 X90.778 Y122.291 E32.51503
G1 X90.492 Y122.748 E32.54192
G1 X90.619 Y122.83 E32.54947
G1 X91.381 Y123.385 E32.5965
G1 X91.978 Y123.87 E32.63487
G1 X92.522 Y124.414 E32.67325
G1 X93.006 Y125.011 E32.7116
G1 X93.426 Y125.656 E32.75
G1 X93.777 Y126.34 E32.78835
G1 X94.062 Y127.081 E32.82796
G1 X94.352 Y127.974 E32.8748
G1 X94.551 Y128.717 E32.91318
G1 X94.672 Y129.477 E32.95157
G1 X94.714 Y130.245 E32.98994
G1 X94.676 Y131.013 E33.02831
G1 X94.558 Y131.773 E33.06668
G1 X94.352 Y132.546 E33.10659
G1 X94.062 Y133.439 E33.15343
G1 X93.787 Y134.157 E33.19179
G1 X93.439 Y134.843 E33.23017
G1 X93.021 Y135.489 E33.26855
