;FLAVOR:Marlin
;TIME:3791
;Filament used: 2.60866m
;Layer height: 0.2
;MINX:86.75
;MINY:76.419
;MINZ:0.3
;MAXX:123.252
;MAXY:121.653
;MAXZ:49.5
;Generated with Cura_SteamEngine 4.13.1
M82 ;absolute extrusion mode
G21                                        ; metric values 
G90                                        ; absolute positioning 
M82                                        ; set extruder to absolute mode 
M107                                       ; start with the fan off 
M140 S60.0           ; Start heating the bed 
G4 S60                                     ; wait 1 minute 
M104 S220.0         ; start heating the hot end 
M190 S60.0           ; wait for bed 
M109 S220.0         ; wait for hotend 
M300 S1000 P500                            ; BEEP heating done 
G28 X0 Y10 Z0                              ; move X/Y to min endstops 
M420 S1                                    ; Enable leveling 
M420 Z2.0                                  ; Set leveling fading height to 2 mm 
G0 Z0.15                                   ; lift nozzle a bit 
G92 E0                                     ; zero the extruded length 
G1 X50 E25 F500                            ; Extrude 25mm of filament in a 5cm line. 
G92 E0                                     ; zero the extruded length again 
G1 E-2 F500                                ; Retract a little 
G1 X120 F4000                              ; Quickly wipe away from the filament line`
G92 E0
G92 E0
G1 F2400 E-3
;LAYER_COUNT:247
;LAYER:0
M106 S76.5
M205 X10 Y10
G1 F600 Z0.375
G0 F6000 X97.04 Y80.287 Z0.375
M205 X8 Y8
;TYPE:SKIRT
G1 F600 Z0.3
G1 F2400 E0
G1 F1200 X97.582 Y79.741 E0.03838
G1 X98.196 Y79.242 E0.07786
G1 X99.576 Y78.237 E0.16303
G1 X100.22 Y77.817 E0.20138
G1 X100.905 Y77.467 E0.23976
G1 X101.622 Y77.189 E0.27813
G1 X102.364 Y76.987 E0.31649
G1 X103.123 Y76.863 E0.35486
G1 X103.932 Y76.819 E0.39528
G1 X105.638 Y76.819 E0.4804
G1 X106.406 Y76.859 E0.51876
G1 X107.166 Y76.978 E0.55714
G1 X107.909 Y77.176 E0.5955
G1 X108.628 Y77.45 E0.63389
G1 X109.314 Y77.797 E0.67225
G1 X109.994 Y78.237 E0.71265
G1 X111.374 Y79.242 E0.79782
G1 X111.972 Y79.727 E0.83624
G1 X112.516 Y80.271 E0.87462
G1 X113 Y80.868 E0.91296
G1 X113.42 Y81.512 E0.95132
G1 X113.771 Y82.197 E0.98972
G1 X114.055 Y82.935 E1.02917
G1 X114.582 Y84.555 E1.11416
G1 X114.782 Y85.298 E1.15255
G1 X114.903 Y86.057 E1.1909
G1 X114.945 Y86.825 E1.22927
G1 X114.907 Y87.593 E1.26763
G1 X114.789 Y88.353 E1.306
G1 X114.744 Y88.521 E1.31468
G1 X114.941 Y89.12 E1.34614
G1 X115.104 Y89.871 E1.38448
G1 X115.188 Y90.636 E1.42287
G1 X115.2 Y91.061 E1.44409
G1 X115.2 Y96.443 E1.71259
G1 X115.16 Y97.211 E1.75096
G1 X115.041 Y97.971 E1.78934
G1 X114.843 Y98.714 E1.8277
G1 X114.569 Y99.433 E1.86609
G1 X114.222 Y100.119 E1.90444
G1 X113.933 Y100.569 E1.93113
G1 X115.342 Y100.569 E2.00142
G1 X116.11 Y100.609 E2.03979
G1 X116.87 Y100.728 E2.07817
G1 X117.613 Y100.926 E2.11653
G1 X118.332 Y101.2 E2.15492
G1 X119.018 Y101.547 E2.19327
G1 X119.665 Y101.963 E2.23165
G1 X120.265 Y102.444 E2.27001
G1 X120.682 Y102.846 E2.29891
G1 X120.8 Y102.969 E2.30741
G1 X121.303 Y103.551 E2.34579
G1 X121.743 Y104.182 E2.38417
G1 X122.115 Y104.855 E2.42253
G1 X122.415 Y105.564 E2.46094
G1 X122.64 Y106.299 E2.49929
G1 X122.787 Y107.054 E2.53767
G1 X122.855 Y107.82 E2.57603
G1 X122.843 Y108.589 E2.6144
G1 X122.78 Y109.179 E2.644
G1 X122.746 Y109.408 E2.65555
G1 X122.593 Y110.162 E2.69394
G1 X122.364 Y110.896 E2.7323
G1 X122.059 Y111.602 E2.77067
G1 X121.683 Y112.273 E2.80904
G1 X121.007 Y113.18 E2.86548
G1 X116.223 Y118.675 E3.22896
G1 X115.689 Y119.228 E3.26732
G1 X115.1 Y119.723 E3.3057
G1 X114.462 Y120.154 E3.34411
G1 X113.711 Y120.55 E3.38647
G1 X113.632 Y120.586 E3.3908
G1 X112.916 Y120.868 E3.42919
G1 X112.175 Y121.074 E3.46756
G1 X111.417 Y121.203 E3.50592
G1 X110.564 Y121.252 E3.54855
G1 X99.443 Y121.253 E4.10338
G1 X98.675 Y121.213 E4.14175
G1 X97.915 Y121.094 E4.18013
G1 X97.171 Y120.896 E4.21854
G1 X96.373 Y120.587 E4.26123
G1 X96.294 Y120.551 E4.26556
G1 X95.612 Y120.196 E4.30392
G1 X94.97 Y119.772 E4.3423
G1 X94.376 Y119.284 E4.38066
G1 X93.783 Y118.677 E4.42299
G1 X88.995 Y113.18 E4.78669
G1 X88.521 Y112.575 E4.82503
G1 X88.112 Y111.923 E4.86343
G1 X87.773 Y111.233 E4.90178
G1 X87.507 Y110.511 E4.94017
G1 X87.257 Y109.416 E4.99621
G1 X87.223 Y109.189 E5.00766
G1 X87.148 Y108.424 E5.04601
G1 X87.154 Y107.654 E5.08442
G1 X87.239 Y106.89 E5.12277
G1 X87.404 Y106.139 E5.16114
G1 X87.645 Y105.408 E5.19954
G1 X87.961 Y104.707 E5.2379
G1 X88.348 Y104.042 E5.27628
G1 X88.802 Y103.421 E5.31466
G1 X89.18 Y102.992 E5.34319
G1 X89.298 Y102.868 E5.35173
G1 X89.857 Y102.339 E5.39012
G1 X90.467 Y101.871 E5.42848
G1 X91.123 Y101.469 E5.46687
G1 X91.817 Y101.137 E5.50525
G1 X92.541 Y100.879 E5.54359
G1 X93.289 Y100.697 E5.582
G1 X94.051 Y100.594 E5.62036
G1 X94.659 Y100.569 E5.65072
G1 X96.063 Y100.569 E5.72077
G1 X96 Y100.482 E5.72613
G1 X95.614 Y99.817 E5.76449
G1 X95.299 Y99.115 E5.80287
G1 X95.059 Y98.384 E5.84126
G1 X94.896 Y97.633 E5.8796
G1 X94.812 Y96.868 E5.918
G1 X94.8 Y96.443 E5.93921
G1 X94.8 Y91.061 E6.20772
G1 X94.84 Y90.293 E6.24608
G1 X94.959 Y89.533 E6.28446
G1 X95.031 Y89.264 E6.29836
G1 X94.988 Y89.133 E6.30523
G1 X94.788 Y88.39 E6.34362
G1 X94.667 Y87.631 E6.38197
G1 X94.625 Y86.863 E6.42034
G1 X94.663 Y86.095 E6.4587
G1 X94.781 Y85.335 E6.49707
G1 X94.988 Y84.555 E6.53733
G1 X95.515 Y82.935 E6.62233
G1 X95.791 Y82.217 E6.6607
G1 X96.139 Y81.531 E6.69908
G1 X96.557 Y80.885 E6.73747
G1 X97.04 Y80.287 E6.77582
M205 X10 Y10
G0 F6000 X96.686 Y80.083
M205 X8 Y8
G1 F1200 X97.236 Y79.516 E6.81523
G1 X97.96 Y78.919 E6.86204
G1 X99.34 Y77.914 E6.94721
G1 X100.001 Y77.482 E6.98661
G1 X100.703 Y77.119 E7.02604
G1 X101.437 Y76.829 E7.06541
G1 X102.197 Y76.614 E7.10482
G1 X102.975 Y76.478 E7.14422
G1 X103.932 Y76.419 E7.19206
G1 X105.638 Y76.419 E7.27717
G1 X106.427 Y76.459 E7.31658
G1 X107.207 Y76.578 E7.35595
G1 X107.972 Y76.776 E7.39537
G1 X108.712 Y77.05 E7.43474
G1 X109.421 Y77.398 E7.47414
G1 X110.23 Y77.914 E7.52201
G1 X111.61 Y78.919 E7.60718
G1 X112.224 Y79.415 E7.64656
G1 X112.784 Y79.972 E7.68597
G1 X113.286 Y80.582 E7.72538
G1 X113.723 Y81.239 E7.76475
G1 X114.092 Y81.937 E7.80414
G1 X114.435 Y82.811 E7.85098
G1 X114.962 Y84.431 E7.93597
G1 X115.168 Y85.193 E7.97535
G1 X115.296 Y85.973 E8.01479
G1 X115.345 Y86.761 E8.05418
G1 X115.313 Y87.55 E8.09357
G1 X115.202 Y88.332 E8.13298
G1 X115.158 Y88.502 E8.14174
G1 X115.298 Y88.913 E8.1634
G1 X115.477 Y89.682 E8.20279
G1 X115.577 Y90.466 E8.24222
G1 X115.6 Y91.061 E8.27193
G1 X115.6 Y96.443 E8.54044
G1 X115.56 Y97.232 E8.57985
G1 X115.441 Y98.012 E8.61922
G1 X115.243 Y98.777 E8.65864
G1 X114.969 Y99.517 E8.69801
G1 X114.649 Y100.169 E8.73424
G1 X115.342 Y100.169 E8.76882
G1 X116.131 Y100.209 E8.80823
G1 X116.911 Y100.328 E8.8476
G1 X117.676 Y100.526 E8.88702
G1 X118.416 Y100.8 E8.92639
G1 X119.125 Y101.148 E8.96579
G1 X119.796 Y101.566 E9.00523
G1 X120.42 Y102.049 E9.0446
G1 X120.971 Y102.569 E9.0824
G1 X121.089 Y102.692 E9.0909
G1 X121.606 Y103.289 E9.1303
G1 X122.06 Y103.935 E9.16969
G1 X122.446 Y104.624 E9.2091
G1 X122.761 Y105.348 E9.24849
G1 X123.001 Y106.1 E9.28787
G1 X123.164 Y106.873 E9.32728
G1 X123.248 Y107.658 E9.36667
G1 X123.252 Y108.448 E9.40608
G1 X123.175 Y109.238 E9.44568
G1 X123.141 Y109.467 E9.45723
G1 X122.986 Y110.241 E9.49662
G1 X122.753 Y110.995 E9.53599
G1 X122.445 Y111.723 E9.57542
G1 X122.065 Y112.415 E9.61481
G1 X121.617 Y113.065 E9.6542
G1 X121.309 Y113.443 E9.67852
G1 X116.525 Y118.938 E10.04201
G1 X115.977 Y119.506 E10.08138
G1 X115.374 Y120.017 E10.12082
G1 X114.723 Y120.463 E10.16019
G1 X113.876 Y120.914 E10.20806
G1 X113.797 Y120.95 E10.21239
G1 X113.063 Y121.24 E10.25177
G1 X112.303 Y121.455 E10.29117
G1 X111.526 Y121.592 E10.33053
G1 X110.564 Y121.652 E10.37862
G1 X99.443 Y121.653 E10.93345
G1 X98.654 Y121.613 E10.97286
G1 X97.873 Y121.494 E11.01228
G1 X97.109 Y121.296 E11.05165
G1 X96.208 Y120.951 E11.09979
G1 X96.129 Y120.915 E11.10412
G1 X95.427 Y120.551 E11.14357
G1 X94.767 Y120.119 E11.18292
G1 X94.153 Y119.622 E11.22233
G1 X93.481 Y118.94 E11.2701
G1 X88.693 Y113.443 E11.63379
G1 X88.205 Y112.822 E11.6732
G1 X87.783 Y112.155 E11.71257
G1 X87.43 Y111.449 E11.75195
G1 X87.15 Y110.71 E11.79138
G1 X86.947 Y109.947 E11.83077
G1 X86.827 Y109.248 E11.86615
G1 X86.75 Y108.463 E11.90551
G1 X86.752 Y107.673 E11.94492
G1 X86.835 Y106.887 E11.98435
G1 X86.996 Y106.114 E12.02374
G1 X87.235 Y105.362 E12.06311
G1 X87.548 Y104.637 E12.10251
G1 X87.934 Y103.948 E12.14191
G1 X88.387 Y103.301 E12.18131
G1 X88.891 Y102.716 E12.21984
G1 X89.009 Y102.592 E12.22838
G1 X89.581 Y102.048 E12.26776
G1 X90.206 Y101.565 E12.30717
G1 X90.876 Y101.148 E12.34654
G1 X91.585 Y100.8 E12.38594
G1 X92.326 Y100.526 E12.42536
G1 X93.09 Y100.328 E12.46473
G1 X93.871 Y100.209 E12.50415
G1 X94.659 Y100.169 E12.54351
G1 X95.354 Y100.169 E12.57818
G1 X95.287 Y100.056 E12.58474
G1 X94.957 Y99.338 E12.62416
G1 X94.702 Y98.591 E12.66354
G1 X94.523 Y97.822 E12.70293
G1 X94.423 Y97.038 E12.74236
G1 X94.4 Y96.443 E12.77207
G1 X94.4 Y91.061 E13.04058
G1 X94.44 Y90.272 E13.07999
G1 X94.559 Y89.492 E13.11936
G1 X94.608 Y89.257 E13.13133
G1 X94.402 Y88.495 E13.17072
G1 X94.274 Y87.715 E13.21015
G1 X94.225 Y86.927 E13.24954
G1 X94.257 Y86.138 E13.28894
G1 X94.368 Y85.356 E13.32834
G1 X94.608 Y84.431 E13.37602
G1 X95.135 Y82.811 E13.46101
G1 X95.417 Y82.073 E13.50042
G1 X95.772 Y81.368 E13.5398
G1 X96.196 Y80.702 E13.57919
G1 X96.686 Y80.083 E13.61858
M205 X10 Y10
G0 F6000 X97.393 Y80.493
M205 X8 Y8
G1 F1200 X97.927 Y79.969 E13.6559
G1 X98.431 Y79.566 E13.6881
G1 X99.811 Y78.561 E13.77327
G1 X100.439 Y78.153 E13.81063
G1 X101.106 Y77.815 E13.84794
G1 X101.805 Y77.55 E13.88523
G1 X102.529 Y77.361 E13.92256
G1 X103.269 Y77.25 E13.9599
G1 X103.932 Y77.219 E13.99301
G1 X105.638 Y77.219 E14.07812
G1 X106.385 Y77.259 E14.11544
G1 X107.123 Y77.378 E14.15274
G1 X107.845 Y77.576 E14.19009
G1 X108.541 Y77.849 E14.22739
G1 X109.204 Y78.196 E14.26472
G1 X109.759 Y78.561 E14.29786
G1 X111.139 Y79.566 E14.38303
G1 X111.719 Y80.038 E14.42034
G1 X112.246 Y80.569 E14.45766
G1 X112.713 Y81.153 E14.49497
G1 X113.115 Y81.784 E14.5323
G1 X113.447 Y82.454 E14.5696
G1 X113.675 Y83.059 E14.60186
G1 X114.202 Y84.679 E14.68685
G1 X114.395 Y85.401 E14.72413
G1 X114.51 Y86.14 E14.76145
G1 X114.545 Y86.888 E14.79881
G1 X114.5 Y87.634 E14.83609
G1 X114.376 Y88.372 E14.87343
G1 X114.357 Y88.61 E14.88534
G1 X114.581 Y89.324 E14.92267
G1 X114.728 Y90.057 E14.95997
G1 X114.8 Y91.061 E15.01019
G1 X114.8 Y96.443 E15.2787
G1 X114.76 Y97.19 E15.31602
G1 X114.641 Y97.928 E15.35331
G1 X114.443 Y98.65 E15.39066
G1 X114.17 Y99.346 E15.42796
G1 X113.823 Y100.009 E15.4653
G1 X113.408 Y100.632 E15.50264
G1 X113.117 Y100.969 E15.52486
G1 X115.342 Y100.969 E15.63586
G1 X116.089 Y101.009 E15.67318
G1 X116.827 Y101.128 E15.71048
G1 X117.549 Y101.326 E15.74783
G1 X118.245 Y101.599 E15.78513
G1 X118.908 Y101.946 E15.82246
G1 X119.531 Y102.361 E15.85981
G1 X120.105 Y102.84 E15.89711
G1 X120.511 Y103.246 E15.92575
G1 X121 Y103.813 E15.96311
G1 X121.425 Y104.428 E16.0004
G1 X121.782 Y105.086 E16.03775
G1 X122.066 Y105.777 E16.07502
G1 X122.276 Y106.496 E16.11239
G1 X122.407 Y107.232 E16.14969
G1 X122.459 Y107.978 E16.187
G1 X122.431 Y108.726 E16.22434
G1 X122.35 Y109.349 E16.25568
G1 X122.201 Y110.082 E16.293
G1 X121.974 Y110.795 E16.33033
G1 X121.673 Y111.48 E16.36766
G1 X121.3 Y112.128 E16.40496
G1 X120.706 Y112.917 E16.45424
G1 X115.922 Y118.412 E16.81772
G1 X115.401 Y118.95 E16.85509
G1 X114.826 Y119.428 E16.89239
G1 X114.203 Y119.842 E16.92971
G1 X113.545 Y120.186 E16.96675
G1 X113.466 Y120.222 E16.97108
G1 X112.769 Y120.495 E17.00843
G1 X112.048 Y120.693 E17.04573
G1 X111.309 Y120.812 E17.08308
G1 X110.564 Y120.852 E17.1203
G1 X99.443 Y120.853 E17.67513
G1 X98.696 Y120.813 E17.71245
G1 X97.957 Y120.694 E17.74979
G1 X97.236 Y120.496 E17.78709
G1 X96.539 Y120.223 E17.82444
G1 X96.46 Y120.187 E17.82877
G1 X95.797 Y119.841 E17.86608
G1 X95.175 Y119.426 E17.90339
G1 X94.6 Y118.947 E17.94072
G1 X94.085 Y118.415 E17.97766
G1 X89.297 Y112.918 E18.34136
G1 X88.836 Y112.328 E18.37871
G1 X88.441 Y111.693 E18.41602
G1 X88.116 Y111.019 E18.45335
G1 X87.865 Y110.314 E18.49069
G1 X87.652 Y109.357 E18.5396
G1 X87.618 Y109.13 E18.55105
G1 X87.547 Y108.385 E18.58839
G1 X87.556 Y107.637 E18.62571
G1 X87.644 Y106.894 E18.66304
G1 X87.812 Y106.165 E18.70036
G1 X88.056 Y105.458 E18.73767
G1 X88.374 Y104.781 E18.77499
G1 X88.763 Y104.142 E18.81231
G1 X89.217 Y103.548 E18.84961
G1 X89.588 Y103.143 E18.87701
G1 X90.132 Y102.63 E18.91432
G1 X90.728 Y102.177 E18.95167
G1 X91.368 Y101.791 E18.98895
G1 X92.046 Y101.475 E19.02627
G1 X92.754 Y101.233 E19.0636
G1 X93.484 Y101.068 E19.10094
G1 X94.227 Y100.982 E19.13826
G1 X94.659 Y100.969 E19.15982
G1 X96.869 Y100.969 E19.27008
G1 X96.75 Y100.836 E19.27898
G1 X96.313 Y100.23 E19.31625
G1 X95.942 Y99.58 E19.35359
G1 X95.643 Y98.894 E19.39093
G1 X95.419 Y98.18 E19.42826
G1 X95.272 Y97.447 E19.46556
G1 X95.2 Y96.443 E19.51578
G1 X95.2 Y91.061 E19.78429
G1 X95.24 Y90.314 E19.82161
G1 X95.359 Y89.576 E19.8589
G1 X95.447 Y89.253 E19.8756
G1 X95.368 Y89.009 E19.8884
G1 X95.175 Y88.287 E19.92568
G1 X95.06 Y87.548 E19.963
G1 X95.025 Y86.8 E20.00036
G1 X95.07 Y86.054 E20.03764
G1 X95.194 Y85.316 E20.07498
G1 X95.368 Y84.679 E20.10792
G1 X95.895 Y83.059 E20.19291
G1 X96.164 Y82.361 E20.23023
G1 X96.507 Y81.695 E20.26761
G1 X96.918 Y81.07 E20.30493
G1 X97.393 Y80.493 E20.34221
M205 X10 Y10
G0 F6000 X97.745 Y80.701
M205 X8 Y8
G1 F1200 X98.271 Y80.201 E20.37842
G1 X98.667 Y79.889 E20.40357
G1 X100.047 Y78.884 E20.48874
G1 X100.656 Y78.489 E20.52496
G1 X101.306 Y78.164 E20.56121
G1 X101.987 Y77.912 E20.59744
G1 X102.692 Y77.737 E20.63368
G1 X103.412 Y77.64 E20.66992
G1 X103.932 Y77.619 E20.69589
G1 X105.638 Y77.619 E20.781
G1 X106.363 Y77.659 E20.81723
G1 X107.08 Y77.778 E20.85349
G1 X107.779 Y77.976 E20.88973
G1 X108.452 Y78.249 E20.92597
G1 X109.091 Y78.594 E20.96219
G1 X109.523 Y78.884 E20.98815
G1 X110.903 Y79.889 E21.07332
G1 X111.466 Y80.348 E21.10956
G1 X111.975 Y80.866 E21.1458
G1 X112.424 Y81.438 E21.18207
G1 X112.807 Y82.055 E21.21831
G1 X113.12 Y82.71 E21.25452
G1 X113.294 Y83.182 E21.27962
G1 X113.821 Y84.802 E21.36461
G1 X114.008 Y85.504 E21.40086
G1 X114.116 Y86.223 E21.43713
G1 X114.144 Y86.948 E21.47333
G1 X114.093 Y87.673 E21.50959
G1 X113.962 Y88.387 E21.5458
G1 X113.907 Y88.583 E21.55596
G1 X114.011 Y88.829 E21.56928
G1 X114.219 Y89.525 E21.60552
G1 X114.349 Y90.24 E21.64178
G1 X114.4 Y91.061 E21.68282
G1 X114.4 Y96.443 E21.95133
G1 X114.36 Y97.168 E21.98755
G1 X114.241 Y97.885 E22.02381
G1 X114.043 Y98.584 E22.06006
G1 X113.77 Y99.257 E22.09629
G1 X113.425 Y99.896 E22.13252
G1 X113.011 Y100.493 E22.16877
G1 X112.467 Y101.11 E22.20981
G1 X112.191 Y101.369 E22.22869
G1 X115.342 Y101.369 E22.38589
G1 X116.067 Y101.409 E22.42212
G1 X116.784 Y101.528 E22.45838
G1 X117.483 Y101.726 E22.49462
G1 X118.156 Y101.999 E22.53086
G1 X118.795 Y102.344 E22.56709
G1 X119.392 Y102.758 E22.60333
G1 X120.105 Y103.4 E22.6512
G1 X120.223 Y103.523 E22.6597
G1 X120.696 Y104.074 E22.69593
G1 X121.106 Y104.674 E22.73219
G1 X121.447 Y105.315 E22.76841
G1 X121.716 Y105.989 E22.80462
G1 X121.909 Y106.69 E22.84089
G1 X122.024 Y107.407 E22.87712
G1 X122.06 Y108.132 E22.91333
G1 X121.988 Y109.061 E22.95982
G1 X121.954 Y109.29 E22.97137
G1 X121.808 Y110.002 E23.00763
G1 X121.585 Y110.693 E23.04386
G1 X121.287 Y111.355 E23.08008
G1 X120.918 Y111.981 E23.11633
G1 X120.404 Y112.655 E23.15862
G1 X115.62 Y118.15 E23.5221
