;FLAVOR:Marlin
;TIME:4626
;Filament used: 3.17823m
;Layer height: 0.2
;MINX:79.201
;MINY:74.901
;MINZ:0.3
;MAXX:130.799
;MAXY:135.099
;MAXZ:15.175
;Generated with Cura_SteamEngine 4.13.1
M82 ;absolute extrusion mode
G21                                        ; metric values 
G90                                        ; absolute positioning 
M82                                        ; set extruder to absolute mode 
M107                                       ; start with the fan off 
M140 S60           ; Start heating the bed 
G4 S60                                     ; wait 1 minute 
M104 S210         ; start heating the hot end 
M190 S60           ; wait for bed 
M109 S210         ; wait for hotend 
M300 S1000 P500                            ; BEEP heating done 
G28 X0 Y10 Z0                              ; move X/Y to min endstops 
M420 S1                                    ; Enable leveling 
M420 Z2.0                                  ; Set leveling fading height to 2 mm 
G0 Z0.15                                   ; lift nozzle a bit 
G92 E0                                     ; zero the extruded length 
G1 X50 E25 F500                            ; Extrude 25mm of filament in a 5cm line. 
G92 E0                                     ; zero the extruded length again 
G1 E-2 F500                                ; Retract a little 
G1 X120 F4000                              ; Quickly wipe away from the filament line`
G92 E0
G92 E0
G1 F1500 E-6
;LAYER_COUNT:75
;LAYER:0
M106 S76.5
M205 X10 Y10
G1 F600 Z0.375
G0 F6000 X90.425 Y77.701 Z0.375
M205 X8 Y8
;TYPE:SKIRT
G1 F600 Z0.3
G1 F1500 E0
G1 F1200 X90.966 Y77.126 E0.03939
G1 X91.562 Y76.608 E0.07878
G1 X92.207 Y76.153 E0.11816
G1 X92.761 Y75.834 E0.15006
G1 X92.851 Y75.787 E0.15512
G1 X93.569 Y75.457 E0.19455
G1 X94.316 Y75.202 E0.23393
G1 X95.085 Y75.023 E0.27332
G1 X95.869 Y74.924 E0.31274
G1 X96.462 Y74.901 E0.34235
G1 X106.188 Y74.901 E0.82758
G1 X106.977 Y74.941 E0.867
G1 X107.757 Y75.06 E0.90636
G1 X108.522 Y75.258 E0.94578
G1 X109.262 Y75.532 E0.98515
G1 X109.971 Y75.88 E1.02455
G1 X110.642 Y76.298 E1.064
G1 X111.266 Y76.781 E1.10336
G1 X111.703 Y77.186 E1.13309
G1 X111.82 Y77.303 E1.14134
G1 X112.35 Y77.889 E1.18076
G1 X112.817 Y78.525 E1.22013
G1 X113.218 Y79.205 E1.25951
G1 X113.548 Y79.923 E1.29894
G1 X113.803 Y80.67 E1.33832
G1 X113.982 Y81.439 E1.37771
G1 X114.082 Y82.223 E1.41714
G1 X114.105 Y82.791 E1.4455
G1 X114.115 Y85.585 E1.58489
G1 X119.788 Y85.585 E1.86792
G1 X120.577 Y85.625 E1.90733
G1 X121.357 Y85.744 E1.9467
G1 X122.122 Y85.942 E1.98612
G1 X122.862 Y86.216 E2.02549
G1 X123.571 Y86.564 E2.06489
G1 X124.242 Y86.982 E2.10433
G1 X125.02 Y87.6 E2.15391
G1 X125.229 Y87.789 E2.16796
G1 X125.787 Y88.347 E2.20733
G1 X126.286 Y88.96 E2.24677
G1 X126.751 Y89.673 E2.28924
G1 X128.192 Y92.168 E2.43298
G1 X128.424 Y92.599 E2.4574
G1 X128.865 Y93.677 E2.51551
G1 X130.021 Y97.236 E2.7022
G1 X130.175 Y97.774 E2.73012
G1 X130.365 Y98.851 E2.78468
G1 X130.756 Y102.574 E2.97144
G1 X130.799 Y103.409 E3.01316
G1 X130.756 Y104.223 E3.05382
G1 X130.365 Y107.947 E3.24064
G1 X130.243 Y108.728 E3.28007
G1 X130.027 Y109.54 E3.32199
G1 X128.867 Y113.116 E3.50955
G1 X128.49 Y114.062 E3.56036
G1 X128.193 Y114.63 E3.59234
G1 X127.8 Y115.311 E3.63156
G1 X127.8 Y123.035 E4.01691
G1 X127.76 Y123.824 E4.05633
G1 X127.641 Y124.604 E4.09569
G1 X127.494 Y125.197 E4.12617
G1 X127.479 Y125.249 E4.12887
G1 X127.222 Y125.996 E4.16828
G1 X126.891 Y126.712 E4.20764
G1 X126.589 Y127.237 E4.23786
G1 X123.973 Y131.4 E4.48315
G1 X123.52 Y132.047 E4.52256
G1 X123.003 Y132.644 E4.56196
G1 X122.429 Y133.186 E4.60134
G1 X121.803 Y133.667 E4.64073
G1 X121.131 Y134.083 E4.68016
G1 X121.042 Y134.132 E4.68523
G1 X120.332 Y134.477 E4.72461
G1 X119.59 Y134.749 E4.76404
G1 X118.825 Y134.944 E4.80342
G1 X118.044 Y135.061 E4.84282
G1 X117.28 Y135.099 E4.88099
G1 X96.463 Y135.099 E5.91955
G1 X95.674 Y135.059 E5.95896
G1 X94.894 Y134.94 E5.99833
G1 X94.129 Y134.742 E6.03775
G1 X93.389 Y134.468 E6.07712
G1 X92.852 Y134.213 E6.10678
G1 X92.762 Y134.166 E6.11184
G1 X92.082 Y133.765 E6.15123
G1 X91.445 Y133.298 E6.19063
G1 X90.859 Y132.769 E6.23002
G1 X90.33 Y132.183 E6.26941
G1 X89.945 Y131.671 E6.30137
G1 X87.085 Y127.511 E6.55323
G1 X86.672 Y126.838 E6.59262
G1 X86.328 Y126.127 E6.63203
G1 X86.077 Y125.447 E6.66819
G1 X86.058 Y125.387 E6.67133
G1 X85.858 Y124.623 E6.71073
G1 X85.736 Y123.843 E6.75012
G1 X85.694 Y123.032 E6.79063
G1 X85.694 Y120.369 E6.92349
G1 X84.649 Y119.209 E7.00138
G1 X84.007 Y118.393 E7.05318
G1 X83.675 Y117.867 E7.08421
G1 X81.806 Y114.628 E7.27078
G1 X81.51 Y114.062 E7.30265
G1 X81.133 Y113.116 E7.35345
G1 X79.973 Y109.54 E7.54101
G1 X79.767 Y108.777 E7.58044
G1 X79.635 Y107.948 E7.62232
G1 X79.244 Y104.226 E7.80904
G1 X79.201 Y103.391 E7.85075
G1 X79.244 Y102.577 E7.89142
G1 X79.635 Y98.852 E8.07828
G1 X79.757 Y98.072 E8.11767
G1 X79.973 Y97.259 E8.15963
G1 X81.133 Y93.683 E8.34719
G1 X81.51 Y92.737 E8.398
G1 X81.806 Y92.171 E8.42986
G1 X83.674 Y88.933 E8.61636
G1 X84.006 Y88.407 E8.6474
G1 X84.648 Y87.591 E8.6992
G1 X85.722 Y86.399 E8.77924
G1 X85.733 Y86.179 E8.79023
G1 X85.852 Y85.399 E8.8296
G1 X86.046 Y84.648 E8.8683
G1 X86.065 Y84.587 E8.87148
G1 X86.338 Y83.846 E8.91088
G1 X86.684 Y83.137 E8.95024
G1 X87.085 Y82.487 E8.98834
G1 X89.945 Y78.328 E9.24016
G1 X90.425 Y77.701 E9.27956
M205 X10 Y10
G0 F6000 X90.743 Y77.945
M205 X8 Y8
G1 F1200 X91.272 Y77.386 E9.31795
G1 X91.856 Y76.886 E9.35631
G1 X92.489 Y76.449 E9.39469
G1 X92.947 Y76.189 E9.42096
G1 X93.037 Y76.142 E9.42603
G1 X93.736 Y75.821 E9.4644
G1 X94.465 Y75.576 E9.50277
G1 X95.215 Y75.407 E9.54113
G1 X95.979 Y75.317 E9.5795
G1 X96.462 Y75.301 E9.60361
G1 X106.188 Y75.301 E10.08885
G1 X106.956 Y75.341 E10.12721
G1 X107.716 Y75.46 E10.16559
G1 X108.459 Y75.658 E10.20396
G1 X109.178 Y75.932 E10.24234
G1 X109.864 Y76.279 E10.2807
G1 X110.511 Y76.695 E10.31907
G1 X111.111 Y77.176 E10.35744
G1 X111.538 Y77.585 E10.38694
G1 X112.052 Y78.157 E10.4253
G1 X112.505 Y78.779 E10.46369
G1 X112.891 Y79.444 E10.50205
G1 X113.206 Y80.146 E10.54044
G1 X113.446 Y80.877 E10.57883
G1 X113.609 Y81.628 E10.61717
G1 X113.693 Y82.393 E10.65556
G1 X113.705 Y82.792 E10.67548
G1 X113.716 Y85.985 E10.83478
G1 X119.788 Y85.985 E11.13771
G1 X120.556 Y86.025 E11.17608
G1 X121.316 Y86.144 E11.21446
G1 X122.059 Y86.342 E11.25282
G1 X122.778 Y86.616 E11.29121
G1 X123.464 Y86.963 E11.32956
G1 X124.111 Y87.379 E11.36793
G1 X124.751 Y87.896 E11.40898
G1 X124.96 Y88.085 E11.42304
G1 X125.503 Y88.63 E11.46142
G1 X125.987 Y89.228 E11.4998
G1 X126.405 Y89.873 E11.53815
G1 X127.846 Y92.368 E11.68189
G1 X128.066 Y92.778 E11.70511
G1 X128.485 Y93.801 E11.76026
G1 X129.641 Y97.36 E11.94695
G1 X129.787 Y97.871 E11.97347
G1 X129.968 Y98.893 E12.02525
G1 X130.359 Y102.616 E12.21201
G1 X130.399 Y103.409 E12.25162
G1 X130.359 Y104.182 E12.29024
G1 X129.968 Y107.906 E12.47705
G1 X129.848 Y108.665 E12.51539
G1 X129.647 Y109.416 E12.55418
G1 X128.487 Y112.992 E12.74173
G1 X128.129 Y113.891 E12.79001
G1 X127.847 Y114.43 E12.82036
G1 X127.4 Y115.204 E12.86495
G1 X127.4 Y123.035 E13.25564
G1 X127.36 Y123.803 E13.29401
G1 X127.241 Y124.563 E13.33239
G1 X127.11 Y125.086 E13.35929
G1 X127.095 Y125.138 E13.36199
G1 X126.844 Y125.865 E13.40036
G1 X126.518 Y126.562 E13.43875
G1 X126.251 Y127.024 E13.46537
G1 X123.635 Y131.187 E13.71066
G1 X123.192 Y131.816 E13.74905
G1 X122.687 Y132.396 E13.78741
G1 X122.124 Y132.92 E13.82579
G1 X121.509 Y133.383 E13.86419
G1 X120.938 Y133.732 E13.89758
G1 X120.849 Y133.781 E13.90265
G1 X120.157 Y134.117 E13.94103
G1 X119.434 Y134.379 E13.97939
G1 X118.687 Y134.564 E14.01779
G1 X117.925 Y134.671 E14.05618
G1 X117.28 Y134.699 E14.08838
G1 X96.463 Y134.699 E15.12695
G1 X95.695 Y134.659 E15.16532
G1 X94.935 Y134.54 E15.2037
G1 X94.192 Y134.342 E15.24206
G1 X93.473 Y134.068 E15.28044
G1 X92.948 Y133.811 E15.30961
G1 X92.285 Y133.42 E15.34801
G1 X91.667 Y132.963 E15.38635
G1 X91.1 Y132.443 E15.42474
G1 X90.589 Y131.868 E15.46312
G1 X90.275 Y131.444 E15.48944
G1 X87.415 Y127.284 E15.7413
G1 X87.013 Y126.629 E15.77964
G1 X86.681 Y125.935 E15.81802
G1 X86.458 Y125.326 E15.85038
G1 X86.439 Y125.266 E15.85352
G1 X86.245 Y124.522 E15.89188
G1 X86.13 Y123.761 E15.93027
G1 X86.094 Y123.032 E15.96669
G1 X86.094 Y120.216 E16.10718
G1 X84.946 Y118.942 E16.19274
G1 X84.337 Y118.167 E16.24191
G1 X84.022 Y117.667 E16.27139
G1 X82.153 Y114.428 E16.45796
G1 X81.871 Y113.891 E16.48822
G1 X81.513 Y112.992 E16.5365
G1 X80.353 Y109.416 E16.72406
G1 X80.154 Y108.673 E16.76243
G1 X80.032 Y107.906 E16.80118
G1 X79.641 Y104.184 E16.98789
G1 X79.601 Y103.391 E17.02751
G1 X79.641 Y102.618 E17.06612
G1 X80.032 Y98.893 E17.25298
G1 X80.152 Y98.134 E17.29132
G1 X80.353 Y97.383 E17.33011
G1 X81.513 Y93.807 E17.51767
G1 X81.871 Y92.908 E17.56594
G1 X82.152 Y92.371 E17.59618
G1 X84.02 Y89.133 E17.78268
G1 X84.336 Y88.633 E17.81219
G1 X84.945 Y87.858 E17.86136
G1 X86.114 Y86.56 E17.94851
G1 X86.133 Y86.2 E17.9665
G1 X86.252 Y85.44 E18.00488
G1 X86.428 Y84.767 E18.03958
G1 X86.447 Y84.706 E18.04277
G1 X86.713 Y83.985 E18.08111
G1 X87.053 Y83.295 E18.11949
G1 X87.415 Y82.714 E18.15364
G1 X90.275 Y78.555 E18.40546
G1 X90.743 Y77.945 E18.44382
M205 X10 Y10
G0 F6000 X91.06 Y78.189
M205 X8 Y8
G1 F1200 X91.577 Y77.648 E18.48115
G1 X92.149 Y77.165 E18.5185
G1 X92.769 Y76.747 E18.5558
G1 X93.222 Y76.496 E18.58164
G1 X93.902 Y76.186 E18.61893
G1 X94.612 Y75.95 E18.65625
G1 X95.343 Y75.791 E18.69358
G1 X96.087 Y75.711 E18.73091
G1 X96.462 Y75.701 E18.74962
G1 X106.188 Y75.701 E19.23486
G1 X106.935 Y75.741 E19.27218
G1 X107.673 Y75.86 E19.30947
G1 X108.395 Y76.058 E19.34682
G1 X109.091 Y76.331 E19.38412
G1 X109.754 Y76.678 E19.42146
G1 X110.377 Y77.093 E19.4588
G1 X111.138 Y77.751 E19.50899
G1 X111.255 Y77.868 E19.51725
G1 X111.755 Y78.425 E19.55459
G1 X112.192 Y79.031 E19.59187
G1 X112.563 Y79.681 E19.6292
G1 X112.862 Y80.367 E19.66654
G1 X113.086 Y81.081 E19.70387
G1 X113.233 Y81.814 E19.74117
G1 X113.305 Y82.793 E19.79014
G1 X113.318 Y86.385 E19.96935
G1 X119.788 Y86.385 E20.29214
G1 X120.535 Y86.425 E20.32946
G1 X121.273 Y86.544 E20.36676
G1 X121.995 Y86.742 E20.40411
G1 X122.691 Y87.015 E20.44141
G1 X123.354 Y87.362 E20.47874
G1 X123.977 Y87.777 E20.51609
G1 X124.483 Y88.193 E20.54877
G1 X124.692 Y88.382 E20.56283
G1 X125.219 Y88.913 E20.60015
G1 X125.687 Y89.497 E20.63749
G1 X126.059 Y90.073 E20.6717
G1 X127.5 Y92.568 E20.81544
G1 X127.708 Y92.957 E20.83745
G1 X128.105 Y93.925 E20.88965
G1 X129.261 Y97.484 E21.07634
G1 X129.399 Y97.968 E21.10145
G1 X129.57 Y98.935 E21.15044
G1 X129.961 Y102.658 E21.3372
G1 X129.999 Y103.409 E21.37472
G1 X129.961 Y104.14 E21.41124
G1 X129.57 Y107.864 E21.59805
G1 X129.452 Y108.603 E21.63538
G1 X129.266 Y109.293 E21.67104
G1 X128.106 Y112.869 E21.8586
G1 X127.768 Y113.719 E21.90423
G1 X127.5 Y114.23 E21.93302
G1 X127 Y115.096 E21.98291
G1 X127 Y123.035 E22.37899
G1 X126.96 Y123.782 E22.41631
G1 X126.841 Y124.52 E22.4536
G1 X126.711 Y125.027 E22.47972
G1 X126.465 Y125.734 E22.51706
G1 X126.146 Y126.41 E22.55435
G1 X125.912 Y126.811 E22.57752
G1 X123.296 Y130.974 E22.82281
G1 X122.865 Y131.586 E22.86016
G1 X122.371 Y132.147 E22.89745
G1 X121.819 Y132.653 E22.93481
G1 X121.217 Y133.097 E22.97213
G1 X120.745 Y133.382 E22.99964
G1 X120.656 Y133.431 E23.00471
G1 X119.982 Y133.756 E23.04204
G1 X119.278 Y134.008 E23.07934
G1 X118.551 Y134.183 E23.11665
G1 X117.809 Y134.279 E23.15397
G1 X117.28 Y134.299 E23.18039
G1 X96.463 Y134.299 E24.21895
G1 X95.716 Y134.259 E24.25627
G1 X94.978 Y134.14 E24.29357
G1 X94.256 Y133.942 E24.33092
G1 X93.56 Y133.669 E24.36822
G1 X93.133 Y133.457 E24.392
G1 X92.489 Y133.076 E24.42933
G1 X91.89 Y132.628 E24.46665
G1 X91.342 Y132.119 E24.50396
G1 X90.851 Y131.554 E24.54131
G1 X90.605 Y131.218 E24.56208
G1 X87.745 Y127.058 E24.81394
G1 X87.354 Y126.42 E24.85127
G1 X87.035 Y125.743 E24.88861
G1 X86.84 Y125.205 E24.91716
G1 X86.821 Y125.145 E24.9203
G1 X86.633 Y124.421 E24.95762
G1 X86.524 Y123.681 E24.99494
G1 X86.494 Y123.032 E25.02735
G1 X86.494 Y120.061 E25.17557
G1 X85.244 Y118.674 E25.26873
G1 X84.667 Y117.941 E25.31527
G1 X84.368 Y117.468 E25.34319
G1 X82.499 Y114.229 E25.52975
G1 X82.232 Y113.719 E25.55847
G1 X81.894 Y112.869 E25.60411
G1 X80.734 Y109.293 E25.79167
G1 X80.541 Y108.57 E25.829
G1 X80.43 Y107.864 E25.86466
G1 X80.039 Y104.142 E26.05137
G1 X80.001 Y103.391 E26.08889
G1 X80.039 Y102.66 E26.1254
G1 X80.43 Y98.935 E26.31227
G1 X80.548 Y98.197 E26.34955
G1 X80.734 Y97.506 E26.38525
G1 X81.894 Y93.93 E26.57281
G1 X82.232 Y93.08 E26.61845
G1 X82.499 Y92.571 E26.64713
G1 X84.367 Y89.333 E26.83362
G1 X84.666 Y88.859 E26.86158
G1 X85.243 Y88.126 E26.90812
G1 X86.506 Y86.724 E27.00227
G1 X86.533 Y86.221 E27.0274
G1 X86.652 Y85.483 E27.06469
G1 X86.81 Y84.886 E27.0955
G1 X86.829 Y84.825 E27.09869
G1 X87.089 Y84.124 E27.13599
G1 X87.423 Y83.454 E27.17334
G1 X87.744 Y82.941 E27.20353
G1 X90.604 Y78.782 E27.45535
G1 X91.06 Y78.189 E27.49267
M205 X10 Y10
G0 F6000 X91.378 Y78.433
M205 X8 Y8
G1 F1200 X91.882 Y77.911 E27.52887
G1 X92.441 Y77.447 E27.56512
G1 X93.317 Y76.898 E27.61669
G1 X93.407 Y76.851 E27.62176
G1 X94.068 Y76.55 E27.658
G1 X94.759 Y76.325 E27.69425
G1 X95.47 Y76.176 E27.73049
G1 X96.462 Y76.101 E27.78013
G1 X106.188 Y76.101 E28.26536
G1 X106.913 Y76.141 E28.30158
G1 X107.63 Y76.26 E28.33784
G1 X108.329 Y76.458 E28.37409
G1 X109.002 Y76.731 E28.41032
G1 X109.641 Y77.076 E28.44655
G1 X110.238 Y77.49 E28.4828
G1 X110.855 Y78.034 E28.52384
G1 X110.972 Y78.151 E28.53209
G1 X111.456 Y78.692 E28.56831
G1 X111.879 Y79.283 E28.60457
G1 X112.233 Y79.917 E28.64079
G1 X112.516 Y80.586 E28.67703
G1 X112.724 Y81.282 E28.71327
G1 X112.854 Y81.997 E28.74953
G1 X112.905 Y82.795 E28.78942
G1 X112.919 Y86.785 E28.98849
G1 X119.788 Y86.785 E29.33118
G1 X120.513 Y86.825 E29.36741
G1 X121.23 Y86.944 E29.40367
G1 X121.929 Y87.142 E29.43991
G1 X122.602 Y87.415 E29.47615
G1 X123.241 Y87.76 E29.51238
G1 X123.838 Y88.174 E29.54862
G1 X124.424 Y88.679 E29.58722
G1 X124.935 Y89.195 E29.62345
G1 X125.386 Y89.764 E29.65967
G1 X125.712 Y90.273 E29.68983
G1 X127.153 Y92.768 E29.83357
G1 X127.35 Y93.135 E29.85435
G1 X127.724 Y94.048 E29.90358
G1 X128.88 Y97.607 E30.09027
G1 X129.011 Y98.065 E30.11403
G1 X129.172 Y98.977 E30.16024
G1 X129.563 Y102.7 E30.347
G1 X129.599 Y103.409 E30.38242
G1 X129.563 Y104.098 E30.41684
G1 X129.172 Y107.822 E30.60365
G1 X129.056 Y108.539 E30.63989
G1 X128.886 Y109.169 E30.67244
G1 X127.726 Y112.745 E30.86
G1 X127.407 Y113.547 E30.90306
G1 X127.154 Y114.03 E30.93026
G1 X126.6 Y114.99 E30.98556
G1 X126.6 Y123.035 E31.38693
G1 X126.56 Y123.76 E31.42315
G1 X126.441 Y124.477 E31.45941
G1 X126.326 Y124.916 E31.48205
G1 X126.087 Y125.602 E31.5183
G1 X125.774 Y126.257 E31.55451
G1 X125.573 Y126.599 E31.57431
G1 X122.957 Y130.762 E31.8196
G1 X122.538 Y131.354 E31.85579
G1 X122.055 Y131.898 E31.89208
G1 X121.516 Y132.384 E31.92829
G1 X120.927 Y132.809 E31.96452
G1 X120.463 Y133.081 E31.99136
G1 X119.809 Y133.395 E32.02755
G1 X119.123 Y133.636 E32.06383
G1 X118.416 Y133.801 E32.10005
G1 X117.694 Y133.886 E32.13632
G1 X117.28 Y133.899 E32.15698
G1 X96.463 Y133.899 E33.19555
G1 X95.738 Y133.859 E33.23177
G1 X95.021 Y133.74 E33.26803
G1 X94.322 Y133.542 E33.30428
G1 X93.408 Y133.149 E33.35391
G1 X93.318 Y133.102 E33.35898
G1 X92.693 Y132.731 E33.39524
G1 X92.114 Y132.294 E33.43143
G1 X91.585 Y131.795 E33.46771
G1 X90.934 Y130.991 E33.51932
G1 X88.074 Y126.831 E33.77118
G1 X87.696 Y126.211 E33.80741
G1 X87.389 Y125.553 E33.84364
G1 X87.202 Y125.024 E33.87163
G1 X87.021 Y124.321 E33.90784
