;FLAVOR:Marlin
;TIME:4578
;Filament used: 3.1817m
;Layer height: 0.2
;MINX:79.201
;MINY:74.901
;MINZ:0.3
;MAXX:130.799
;MAXY:135.099
;MAXZ:15.175
;Generated with Cura_SteamEngine 4.13.1
M82 ;absolute extrusion mode
G21                                        ; metric values 
G90                                        ; absolute positioning 
M82                                        ; set extruder to absolute mode 
M107                                       ; start with the fan off 
M140 S60           ; Start heating the bed 
G4 S60                                     ; wait 1 minute 
M104 S210         ; start heating the hot end 
M190 S60           ; wait for bed 
M109 S210         ; wait for hotend 
M300 S1000 P500                            ; BEEP heating done 
G28 X0 Y10 Z0                              ; move X/Y to min endstops 
M420 S1                                    ; Enable leveling 
M420 Z2.0                                  ; Set leveling fading height to 2 mm 
G0 Z0.15                                   ; lift nozzle a bit 
G92 E0                                     ; zero the extruded length 
G1 X50 E25 F500                            ; Extrude 25mm of filament in a 5cm line. 
G92 E0                                     ; zero the extruded length again 
G1 E-2 F500                                ; Retract a little 
G1 X120 F4000                              ; Quickly wipe away from the filament line`
G92 E0
G92 E0
G1 F1500 E-6
;LAYER_COUNT:75
;LAYER:0
M106 S76.5
M205 X10 Y10
G1 F600 Z0.375
G0 F6000 X84.686 Y87.871 Z0.375
M205 X8 Y8
;TYPE:SKIRT
G1 F600 Z0.3
G1 F1500 E0
G1 F1200 X84.892 Y87.679 E0.01405
G1 X85.496 Y87.171 E0.05342
G1 X86.149 Y86.726 E0.09285
G1 X86.843 Y86.349 E0.13225
G1 X87.571 Y86.045 E0.17161
G1 X88.327 Y85.816 E0.21102
G1 X89.102 Y85.664 E0.25042
G1 X90.208 Y85.585 E0.30574
G1 X94.399 Y85.584 E0.51483
G1 X94.576 Y85.586 E0.52366
G1 X95.884 Y85.586 E0.58892
G1 X95.894 Y82.791 E0.72836
G1 X95.937 Y82.003 E0.76773
G1 X96.059 Y81.223 E0.80712
G1 X96.259 Y80.459 E0.84652
G1 X96.536 Y79.719 E0.88594
G1 X96.886 Y79.011 E0.92534
G1 X97.306 Y78.343 E0.96471
G1 X97.791 Y77.72 E1.0041
G1 X98.179 Y77.303 E1.03252
G1 X98.296 Y77.186 E1.04077
G1 X98.882 Y76.656 E1.08019
G1 X99.518 Y76.189 E1.11956
G1 X100.198 Y75.788 E1.15894
G1 X100.916 Y75.458 E1.19837
G1 X101.663 Y75.203 E1.23775
G1 X102.432 Y75.024 E1.27714
G1 X103.216 Y74.924 E1.31657
G1 X103.811 Y74.901 E1.34627
G1 X113.538 Y74.901 E1.83156
G1 X114.327 Y74.941 E1.87097
G1 X115.107 Y75.06 E1.91033
G1 X115.872 Y75.258 E1.94976
G1 X116.612 Y75.532 E1.98913
G1 X117.149 Y75.787 E2.01879
G1 X117.239 Y75.834 E2.02385
G1 X117.919 Y76.235 E2.06324
G1 X118.556 Y76.702 E2.10264
G1 X119.142 Y77.231 E2.14203
G1 X119.671 Y77.817 E2.18141
G1 X120.055 Y78.328 E2.2133
G1 X122.915 Y82.487 E2.46512
G1 X123.329 Y83.16 E2.50454
G1 X123.673 Y83.871 E2.54395
G1 X123.935 Y84.587 E2.58199
G1 X123.954 Y84.648 E2.58517
G1 X124.15 Y85.413 E2.62457
G1 X124.269 Y86.194 E2.66399
G1 X124.279 Y86.402 E2.67437
G1 X125.351 Y87.591 E2.75424
G1 X125.994 Y88.407 E2.80608
G1 X126.328 Y88.935 E2.83725
G1 X128.205 Y92.191 E3.02475
G1 X128.564 Y92.895 E3.06417
G1 X128.865 Y93.677 E3.10598
G1 X130.021 Y97.236 E3.29267
G1 X130.175 Y97.774 E3.32059
G1 X130.365 Y98.851 E3.37515
G1 X130.756 Y102.574 E3.56191
G1 X130.799 Y103.409 E3.60362
G1 X130.756 Y104.223 E3.64429
G1 X130.365 Y107.947 E3.8311
G1 X130.243 Y108.728 E3.87054
G1 X130.027 Y109.54 E3.91246
G1 X128.867 Y113.116 E4.10002
G1 X128.49 Y114.062 E4.15083
G1 X128.194 Y114.628 E4.18269
G1 X126.325 Y117.867 E4.36926
G1 X125.993 Y118.393 E4.40029
G1 X125.351 Y119.209 E4.45209
G1 X124.306 Y120.369 E4.52998
G1 X124.306 Y123.032 E4.66284
G1 X124.266 Y123.821 E4.70226
G1 X124.147 Y124.601 E4.74162
G1 X123.942 Y125.387 E4.78215
G1 X123.923 Y125.447 E4.78529
G1 X123.647 Y126.187 E4.82469
G1 X123.297 Y126.895 E4.86409
G1 X122.915 Y127.511 E4.90025
G1 X120.055 Y131.671 E5.15211
G1 X119.575 Y132.298 E5.19151
G1 X119.034 Y132.874 E5.23093
G1 X118.438 Y133.392 E5.27033
G1 X117.792 Y133.847 E5.30975
G1 X117.238 Y134.166 E5.34164
G1 X117.148 Y134.213 E5.34671
G1 X116.43 Y134.543 E5.38613
G1 X115.683 Y134.798 E5.42551
G1 X114.914 Y134.977 E5.4649
G1 X114.13 Y135.076 E5.50433
G1 X113.537 Y135.099 E5.53393
G1 X92.72 Y135.099 E6.5725
G1 X91.931 Y135.059 E6.61191
G1 X91.151 Y134.94 E6.65128
G1 X90.386 Y134.742 E6.6907
G1 X89.646 Y134.468 E6.73007
G1 X88.958 Y134.132 E6.76827
G1 X88.869 Y134.083 E6.77334
G1 X88.197 Y133.667 E6.81277
G1 X87.571 Y133.186 E6.85215
G1 X86.997 Y132.644 E6.89154
G1 X86.48 Y132.047 E6.93094
G1 X86.027 Y131.4 E6.97034
G1 X83.411 Y127.237 E7.21564
G1 X83.025 Y126.548 E7.25504
G1 X82.711 Y125.824 E7.29441
G1 X82.521 Y125.249 E7.32463
G1 X82.506 Y125.197 E7.32733
G1 X82.325 Y124.428 E7.36674
G1 X82.224 Y123.645 E7.40613
G1 X82.2 Y123.035 E7.43658
G1 X82.2 Y115.311 E7.82194
G1 X81.807 Y114.63 E7.86116
G1 X81.51 Y114.062 E7.89314
G1 X81.133 Y113.116 E7.94395
G1 X79.973 Y109.54 E8.13151
G1 X79.767 Y108.777 E8.17093
G1 X79.635 Y107.948 E8.21281
G1 X79.244 Y104.226 E8.39953
G1 X79.201 Y103.391 E8.44124
G1 X79.244 Y102.577 E8.48191
G1 X79.635 Y98.852 E8.66877
G1 X79.757 Y98.072 E8.70816
G1 X79.973 Y97.259 E8.75013
G1 X81.133 Y93.683 E8.93768
G1 X81.51 Y92.737 E8.98849
G1 X81.811 Y92.162 E9.02087
G1 X83.253 Y89.67 E9.16451
G1 X83.682 Y89.008 E9.20387
G1 X84.177 Y88.392 E9.24329
G1 X84.686 Y87.871 E9.27963
M205 X10 Y10
G0 F6000 X84.959 Y88.164
M205 X8 Y8
G1 F1200 X85.165 Y87.972 E9.29368
G1 X85.754 Y87.477 E9.33206
G1 X86.391 Y87.047 E9.37041
G1 X87.07 Y86.684 E9.40882
G1 X87.782 Y86.395 E9.44716
G1 X88.521 Y86.18 E9.48555
G1 X89.278 Y86.044 E9.52393
G1 X90.208 Y85.985 E9.57042
G1 X94.399 Y85.984 E9.77951
G1 X94.567 Y85.986 E9.78789
G1 X96.283 Y85.986 E9.8735
G1 X96.294 Y82.793 E10.0328
G1 X96.337 Y82.025 E10.07118
G1 X96.459 Y81.265 E10.10958
G1 X96.659 Y80.523 E10.14792
G1 X96.935 Y79.805 E10.18629
G1 X97.284 Y79.12 E10.22465
G1 X97.703 Y78.474 E10.26306
G1 X98.186 Y77.876 E10.30141
G1 X98.578 Y77.468 E10.32964
G1 X99.15 Y76.954 E10.36801
G1 X99.772 Y76.501 E10.4064
G1 X100.437 Y76.115 E10.44476
G1 X101.139 Y75.8 E10.48315
G1 X101.87 Y75.56 E10.52153
G1 X102.621 Y75.397 E10.55987
G1 X103.386 Y75.313 E10.59827
G1 X103.811 Y75.301 E10.61948
G1 X113.538 Y75.301 E11.10476
G1 X114.306 Y75.341 E11.14313
G1 X115.066 Y75.46 E11.18151
G1 X115.809 Y75.658 E11.21987
G1 X116.528 Y75.932 E11.25826
G1 X117.053 Y76.189 E11.28742
G1 X117.716 Y76.58 E11.32582
G1 X118.334 Y77.037 E11.36417
G1 X118.901 Y77.557 E11.40255
G1 X119.412 Y78.132 E11.44093
G1 X119.725 Y78.555 E11.46718
G1 X122.585 Y82.714 E11.719
G1 X122.988 Y83.37 E11.75741
G1 X123.32 Y84.063 E11.79575
G1 X123.553 Y84.706 E11.82987
G1 X123.572 Y84.767 E11.83305
G1 X123.762 Y85.513 E11.87146
G1 X123.874 Y86.274 E11.90983
G1 X123.888 Y86.564 E11.92432
G1 X125.054 Y87.858 E12.01122
G1 X125.664 Y88.633 E12.06043
G1 X125.981 Y89.135 E12.09005
G1 X127.858 Y92.391 E12.27755
G1 X128.207 Y93.077 E12.31595
G1 X128.485 Y93.801 E12.35464
G1 X129.641 Y97.36 E12.54133
G1 X129.787 Y97.871 E12.56784
G1 X129.968 Y98.893 E12.61962
G1 X130.359 Y102.616 E12.80639
G1 X130.399 Y103.409 E12.846
G1 X130.359 Y104.182 E12.88462
G1 X129.968 Y107.906 E13.07143
G1 X129.848 Y108.665 E13.10977
G1 X129.647 Y109.416 E13.14855
G1 X128.487 Y112.992 E13.33611
G1 X128.129 Y113.891 E13.38439
G1 X127.847 Y114.428 E13.41465
G1 X125.978 Y117.667 E13.60122
G1 X125.663 Y118.167 E13.6307
G1 X125.054 Y118.942 E13.67987
G1 X123.906 Y120.216 E13.76543
G1 X123.906 Y123.032 E13.90592
G1 X123.866 Y123.8 E13.94429
G1 X123.747 Y124.56 E13.98267
G1 X123.561 Y125.266 E14.01909
G1 X123.542 Y125.326 E14.02223
G1 X123.272 Y126.046 E14.0606
G1 X122.928 Y126.735 E14.09902
G1 X122.585 Y127.284 E14.13131
G1 X119.725 Y131.444 E14.38317
G1 X119.257 Y132.055 E14.42157
G1 X118.728 Y132.613 E14.45993
G1 X118.144 Y133.114 E14.49832
G1 X117.511 Y133.551 E14.53669
G1 X117.052 Y133.811 E14.56301
G1 X116.962 Y133.858 E14.56808
G1 X116.263 Y134.179 E14.60645
G1 X115.534 Y134.424 E14.64482
G1 X114.784 Y134.593 E14.68318
G1 X114.02 Y134.683 E14.72156
G1 X113.537 Y134.699 E14.74567
G1 X92.72 Y134.699 E15.78423
G1 X91.952 Y134.659 E15.8226
G1 X91.192 Y134.54 E15.86098
G1 X90.449 Y134.342 E15.89934
G1 X89.73 Y134.068 E15.93773
G1 X89.151 Y133.781 E15.96997
G1 X89.062 Y133.732 E15.97504
G1 X88.408 Y133.327 E16.01341
G1 X87.8 Y132.856 E16.05178
G1 X87.245 Y132.324 E16.09014
G1 X86.747 Y131.738 E16.12851
G1 X86.365 Y131.187 E16.16196
G1 X83.749 Y127.024 E16.40725
G1 X83.375 Y126.353 E16.44558
G1 X83.071 Y125.646 E16.48397
G1 X82.905 Y125.138 E16.51064
G1 X82.89 Y125.086 E16.51334
G1 X82.715 Y124.337 E16.55171
G1 X82.62 Y123.574 E16.59007
G1 X82.6 Y123.035 E16.61698
G1 X82.6 Y115.204 E17.00767
G1 X82.153 Y114.43 E17.05226
G1 X81.871 Y113.891 E17.08261
G1 X81.513 Y112.992 E17.13089
G1 X80.353 Y109.416 E17.31845
G1 X80.154 Y108.673 E17.35682
G1 X80.032 Y107.906 E17.39557
G1 X79.641 Y104.184 E17.58228
G1 X79.601 Y103.391 E17.62189
G1 X79.641 Y102.618 E17.66051
G1 X80.032 Y98.893 E17.84737
G1 X80.152 Y98.134 E17.88571
G1 X80.353 Y97.383 E17.9245
G1 X81.513 Y93.807 E18.11206
G1 X81.871 Y92.908 E18.16033
G1 X82.157 Y92.363 E18.19104
G1 X83.599 Y89.871 E18.33468
G1 X84.018 Y89.226 E18.37305
G1 X84.502 Y88.628 E18.41143
G1 X84.959 Y88.164 E18.44393
M205 X10 Y10
G0 F6000 X85.231 Y88.456
M205 X8 Y8
G1 F1200 X85.437 Y88.264 E18.45797
G1 X86.011 Y87.784 E18.4953
G1 X86.633 Y87.368 E18.53264
G1 X87.295 Y87.021 E18.56993
G1 X87.991 Y86.746 E18.60726
G1 X88.712 Y86.547 E18.64458
G1 X89.45 Y86.426 E18.68189
G1 X90.208 Y86.385 E18.71976
G1 X94.399 Y86.384 E18.92885
G1 X94.558 Y86.386 E18.93678
G1 X96.682 Y86.386 E19.04275
G1 X96.694 Y82.794 E19.22196
G1 X96.737 Y82.047 E19.25929
G1 X96.859 Y81.309 E19.29661
G1 X97.059 Y80.588 E19.33393
G1 X97.334 Y79.893 E19.37122
G1 X97.683 Y79.231 E19.40856
G1 X98.1 Y78.61 E19.44588
G1 X98.744 Y77.868 E19.4949
G1 X98.861 Y77.751 E19.50315
G1 X99.418 Y77.251 E19.54049
G1 X100.024 Y76.814 E19.57777
G1 X100.674 Y76.443 E19.61511
G1 X101.36 Y76.144 E19.65244
G1 X102.074 Y75.92 E19.68978
G1 X102.807 Y75.773 E19.72707
G1 X103.811 Y75.701 E19.77729
G1 X113.538 Y75.701 E20.26257
G1 X114.285 Y75.741 E20.29989
G1 X115.023 Y75.86 E20.33719
G1 X115.745 Y76.058 E20.37454
G1 X116.441 Y76.331 E20.41184
G1 X116.868 Y76.543 E20.43562
G1 X117.512 Y76.924 E20.47295
G1 X118.111 Y77.372 E20.51027
G1 X118.659 Y77.881 E20.54759
G1 X119.15 Y78.446 E20.58493
G1 X119.396 Y78.782 E20.60571
G1 X122.256 Y82.941 E20.85753
G1 X122.646 Y83.579 E20.89483
G1 X122.966 Y84.255 E20.93214
G1 X123.171 Y84.825 E20.96237
G1 X123.19 Y84.886 E20.96555
G1 X123.374 Y85.611 E21.00287
G1 X123.48 Y86.352 E21.04021
G1 X123.496 Y86.727 E21.05894
G1 X124.757 Y88.126 E21.15291
G1 X125.334 Y88.859 E21.19945
G1 X125.634 Y89.335 E21.22752
G1 X127.511 Y92.591 E21.41502
G1 X127.85 Y93.258 E21.45235
G1 X128.105 Y93.925 E21.48797
G1 X129.261 Y97.484 E21.67466
G1 X129.399 Y97.968 E21.69977
G1 X129.57 Y98.935 E21.74876
G1 X129.961 Y102.658 E21.93553
G1 X129.999 Y103.409 E21.97304
G1 X129.961 Y104.14 E22.00956
G1 X129.57 Y107.864 E22.19637
G1 X129.452 Y108.603 E22.23371
G1 X129.266 Y109.293 E22.26936
G1 X128.106 Y112.869 E22.45692
G1 X127.768 Y113.719 E22.50256
G1 X127.501 Y114.229 E22.53128
G1 X125.632 Y117.468 E22.71785
G1 X125.333 Y117.941 E22.74576
G1 X124.756 Y118.674 E22.7923
G1 X123.506 Y120.061 E22.88546
G1 X123.506 Y123.032 E23.03368
G1 X123.466 Y123.779 E23.071
G1 X123.347 Y124.517 E23.1083
G1 X123.179 Y125.145 E23.14073
G1 X123.16 Y125.205 E23.14387
G1 X122.897 Y125.905 E23.18118
G1 X122.56 Y126.573 E23.2185
G1 X122.255 Y127.058 E23.24709
G1 X119.395 Y131.218 E23.49895
G1 X118.939 Y131.811 E23.53627
G1 X118.422 Y132.351 E23.57356
G1 X117.851 Y132.834 E23.61088
G1 X117.231 Y133.253 E23.64821
G1 X116.777 Y133.504 E23.67409
G1 X116.097 Y133.814 E23.71138
G1 X115.387 Y134.05 E23.7487
G1 X114.656 Y134.209 E23.78603
G1 X113.912 Y134.289 E23.82336
G1 X113.537 Y134.299 E23.84207
G1 X92.72 Y134.299 E24.88064
G1 X91.973 Y134.259 E24.91796
G1 X91.235 Y134.14 E24.95525
G1 X90.513 Y133.942 E24.9926
G1 X89.817 Y133.669 E25.0299
G1 X89.344 Y133.431 E25.05632
G1 X89.255 Y133.382 E25.06139
G1 X88.62 Y132.987 E25.0987
G1 X88.031 Y132.526 E25.13601
G1 X87.494 Y132.005 E25.17334
G1 X87.016 Y131.43 E25.21065
G1 X86.704 Y130.974 E25.23821
G1 X84.088 Y126.811 E25.48351
G1 X83.724 Y126.158 E25.52081
G1 X83.433 Y125.469 E25.55812
G1 X83.274 Y124.975 E25.58401
G1 X83.106 Y124.246 E25.62133
G1 X83.016 Y123.504 E25.65862
G1 X83 Y123.035 E25.68204
G1 X83 Y115.096 E26.07811
G1 X82.5 Y114.23 E26.128
G1 X82.232 Y113.719 E26.15679
G1 X81.894 Y112.869 E26.20243
G1 X80.734 Y109.293 E26.38999
G1 X80.541 Y108.57 E26.42732
G1 X80.43 Y107.864 E26.46298
G1 X80.039 Y104.142 E26.64969
G1 X80.001 Y103.391 E26.6872
G1 X80.039 Y102.66 E26.72372
G1 X80.43 Y98.935 E26.91059
G1 X80.548 Y98.197 E26.94787
G1 X80.734 Y97.506 E26.98357
G1 X81.894 Y93.93 E27.17113
G1 X82.232 Y93.08 E27.21677
G1 X82.503 Y92.563 E27.24589
G1 X83.945 Y90.071 E27.38953
G1 X84.354 Y89.445 E27.42684
G1 X84.827 Y88.865 E27.46418
G1 X85.231 Y88.456 E27.49286
M205 X10 Y10
G0 F6000 X85.71 Y88.557
M205 X8 Y8
G1 F1200 X86.268 Y88.092 E27.5291
G1 X86.873 Y87.691 E27.56531
G1 X87.519 Y87.358 E27.60157
G1 X88.198 Y87.099 E27.63782
G1 X88.901 Y86.916 E27.67406
G1 X89.62 Y86.811 E27.71032
G1 X90.208 Y86.785 E27.73968
G1 X94.399 Y86.784 E27.94877
G1 X94.549 Y86.786 E27.95625
G1 X97.08 Y86.786 E28.08253
G1 X97.094 Y82.796 E28.28159
G1 X97.136 Y82.07 E28.31787
G1 X97.258 Y81.354 E28.35411
G1 X97.458 Y80.656 E28.39033
G1 X97.733 Y79.984 E28.42656
G1 X98.081 Y79.346 E28.46281
G1 X98.497 Y78.75 E28.49907
G1 X99.027 Y78.151 E28.53898
G1 X99.144 Y78.034 E28.54723
G1 X99.685 Y77.55 E28.58345
G1 X100.276 Y77.127 E28.61971
G1 X100.91 Y76.773 E28.65593
G1 X101.579 Y76.49 E28.69217
G1 X102.275 Y76.282 E28.72841
G1 X102.99 Y76.152 E28.76467
G1 X103.811 Y76.101 E28.80571
G1 X113.538 Y76.101 E29.29099
G1 X114.263 Y76.141 E29.32722
G1 X114.98 Y76.26 E29.36348
G1 X115.679 Y76.458 E29.39972
G1 X116.593 Y76.851 E29.44936
G1 X116.683 Y76.898 E29.45442
G1 X117.308 Y77.269 E29.49069
G1 X117.887 Y77.706 E29.52688
G1 X118.416 Y78.205 E29.56316
G1 X119.066 Y79.008 E29.6147
G1 X121.926 Y83.167 E29.86652
G1 X122.304 Y83.788 E29.90279
G1 X122.612 Y84.446 E29.93903
G1 X122.789 Y84.944 E29.9654
G1 X122.808 Y85.005 E29.96859
G1 X122.986 Y85.71 E30.00487
G1 X123.085 Y86.429 E30.04108
G1 X123.104 Y86.889 E30.06404
G1 X124.46 Y88.394 E30.16511
G1 X125.004 Y89.085 E30.20899
G1 X125.288 Y89.535 E30.23553
G1 X127.165 Y92.791 E30.42304
G1 X127.493 Y93.439 E30.45927
G1 X127.724 Y94.048 E30.49177
G1 X128.88 Y97.607 E30.67846
G1 X129.011 Y98.065 E30.70222
G1 X129.172 Y98.977 E30.74843
G1 X129.563 Y102.7 E30.93519
G1 X129.599 Y103.409 E30.97061
G1 X129.563 Y104.098 E31.00503
G1 X129.172 Y107.822 E31.19184
G1 X129.056 Y108.539 E31.22808
G1 X128.886 Y109.169 E31.26063
G1 X127.726 Y112.745 E31.44819
G1 X127.407 Y113.547 E31.49125
G1 X127.155 Y114.029 E31.51839
G1 X125.286 Y117.268 E31.70495
G1 X125.003 Y117.715 E31.73135
G1 X124.459 Y118.406 E31.77522
G1 X123.106 Y119.908 E31.87608
G1 X123.106 Y123.032 E32.03194
G1 X123.066 Y123.757 E32.06816
G1 X122.947 Y124.474 E32.10442
G1 X122.798 Y125.024 E32.13285
G1 X122.779 Y125.084 E32.13599
G1 X122.522 Y125.764 E32.17226
G1 X122.192 Y126.411 E32.20849
G1 X121.926 Y126.831 E32.2333
G1 X119.066 Y130.991 E32.48516
G1 X118.622 Y131.566 E32.5214
G1 X118.118 Y132.089 E32.55764
G1 X117.559 Y132.553 E32.59388
G1 X116.682 Y133.102 E32.6455
