;FLAVOR:Marlin
;TIME:4216
;Filament used: 2.90025m
;Layer height: 0.2
;MINX:80.299
;MINY:74.901
;MINZ:0.3
;MAXX:129.701
;MAXY:135.099
;MAXZ:15.175
;Generated with Cura_SteamEngine 4.13.1
M82 ;absolute extrusion mode
G21                                        ; metric values 
G90                                        ; absolute positioning 
M82                                        ; set extruder to absolute mode 
M107                                       ; start with the fan off 
M140 S60           ; Start heating the bed 
G4 S60                                     ; wait 1 minute 
M104 S210         ; start heating the hot end 
M190 S60           ; wait for bed 
M109 S210         ; wait for hotend 
M300 S1000 P500                            ; BEEP heating done 
G28 X0 Y10 Z0                              ; move X/Y to min endstops 
M420 S1                                    ; Enable leveling 
M420 Z2.0                                  ; Set leveling fading height to 2 mm 
G0 Z0.15                                   ; lift nozzle a bit 
G92 E0                                     ; zero the extruded length 
G1 X50 E25 F500                            ; Extrude 25mm of filament in a 5cm line. 
G92 E0                                     ; zero the extruded length again 
G1 E-2 F500                                ; Retract a little 
G1 X120 F4000                              ; Quickly wipe away from the filament line`
G92 E0
G92 E0
G1 F1500 E-6
;LAYER_COUNT:75
;LAYER:0
M106 S76.5
M205 X10 Y10
G1 F600 Z0.375
G0 F6000 X90.076 Y77.701 Z0.375
M205 X8 Y8
;TYPE:SKIRT
G1 F600 Z0.3
G1 F1500 E0
G1 F1200 X90.617 Y77.126 E0.03939
G1 X91.213 Y76.608 E0.07878
G1 X91.858 Y76.153 E0.11816
G1 X92.412 Y75.834 E0.15006
G1 X92.502 Y75.787 E0.15512
G1 X93.22 Y75.457 E0.19455
G1 X93.967 Y75.202 E0.23393
G1 X94.736 Y75.023 E0.27332
G1 X95.52 Y74.924 E0.31274
G1 X96.113 Y74.901 E0.34235
G1 X105.866 Y74.901 E0.82893
G1 X106.655 Y74.941 E0.86834
G1 X107.435 Y75.06 E0.90771
G1 X108.2 Y75.258 E0.94713
G1 X108.94 Y75.532 E0.9865
G1 X109.649 Y75.88 E1.0259
G1 X110.32 Y76.298 E1.06534
G1 X110.944 Y76.781 E1.10471
G1 X111.381 Y77.186 E1.13444
G1 X111.498 Y77.303 E1.14269
G1 X112.028 Y77.889 E1.18211
G1 X112.495 Y78.525 E1.22148
G1 X112.896 Y79.205 E1.26086
G1 X113.226 Y79.923 E1.30028
G1 X113.299 Y80.137 E1.31156
G1 X113.876 Y80.196 E1.3405
G1 X114.657 Y80.316 E1.37992
G1 X115.421 Y80.515 E1.41931
G1 X116.161 Y80.789 E1.45868
G1 X116.918 Y81.164 E1.50083
G1 X117.717 Y81.615 E1.5466
G1 X118.513 Y81.919 E1.58911
G1 X119.236 Y82.238 E1.62854
G1 X119.922 Y82.628 E1.6679
G1 X120.566 Y83.085 E1.7073
G1 X120.999 Y83.451 E1.73559
G1 X121.807 Y83.966 E1.78339
G1 X122.307 Y84.33 E1.81425
G1 X122.921 Y84.827 E1.85366
G1 X123.482 Y85.383 E1.89306
G1 X123.858 Y85.84 E1.92259
G1 X124.121 Y86.12 E1.94175
G1 X124.601 Y86.747 E1.98115
G1 X125.015 Y87.419 E2.02052
G1 X125.314 Y88.027 E2.05433
G1 X125.552 Y88.473 E2.07955
G1 X125.721 Y88.682 E2.09296
G1 X126.186 Y89.32 E2.13235
G1 X126.48 Y89.809 E2.16081
G1 X128.033 Y92.615 E2.32081
G1 X128.451 Y93.495 E2.36942
G1 X128.717 Y94.267 E2.41016
G1 X128.826 Y94.692 E2.43205
G1 X129.506 Y97.691 E2.58546
G1 X129.667 Y98.71 E2.63693
G1 X129.701 Y99.438 E2.67329
G1 X129.701 Y112.981 E3.34896
G1 X129.667 Y113.709 E3.38532
G1 X129.511 Y114.704 E3.43556
G1 X127.266 Y124.748 E3.94902
G1 X126.928 Y125.863 E4.00715
G1 X126.916 Y125.894 E4.00881
G1 X126.594 Y126.615 E4.04821
G1 X126.246 Y127.228 E4.08337
G1 X123.624 Y131.4 E4.32921
G1 X123.171 Y132.047 E4.36861
G1 X122.654 Y132.644 E4.40801
G1 X122.08 Y133.186 E4.4474
G1 X121.454 Y133.667 E4.48678
G1 X120.782 Y134.083 E4.52621
G1 X120.693 Y134.132 E4.53128
G1 X119.983 Y134.477 E4.57067
G1 X119.241 Y134.749 E4.61009
G1 X118.476 Y134.944 E4.64948
G1 X117.695 Y135.061 E4.68888
G1 X116.931 Y135.099 E4.72704
G1 X96.114 Y135.099 E5.76561
G1 X95.325 Y135.059 E5.80502
G1 X94.545 Y134.94 E5.84438
G1 X93.78 Y134.742 E5.88381
G1 X93.04 Y134.468 E5.92318
G1 X92.503 Y134.213 E5.95283
G1 X92.413 Y134.166 E5.9579
G1 X91.733 Y133.765 E5.99729
G1 X91.096 Y133.298 E6.03669
G1 X90.51 Y132.769 E6.07608
G1 X89.981 Y132.183 E6.11546
G1 X89.596 Y131.671 E6.14742
G1 X86.736 Y127.511 E6.39928
G1 X86.323 Y126.838 E6.43868
G1 X85.979 Y126.127 E6.47808
G1 X85.728 Y125.447 E6.51425
G1 X85.709 Y125.387 E6.51739
G1 X85.509 Y124.623 E6.55679
G1 X85.387 Y123.843 E6.59617
G1 X85.345 Y123.032 E6.63669
G1 X85.345 Y120.586 E6.75872
G1 X84.922 Y120.217 E6.78672
G1 X82.974 Y118.495 E6.91644
G1 X82.41 Y117.943 E6.95581
G1 X81.904 Y117.336 E6.99524
G1 X81.462 Y116.682 E7.03462
G1 X81.024 Y115.844 E7.08179
G1 X80.989 Y115.766 E7.08606
G1 X80.702 Y115.03 E7.12547
G1 X80.492 Y114.269 E7.16485
G1 X80.359 Y113.491 E7.20423
G1 X80.305 Y112.592 E7.24916
G1 X80.3 Y110.493 E7.35388
G1 X80.299 Y96.431 E8.05544
G1 X80.339 Y95.642 E8.09485
G1 X80.458 Y94.861 E8.13427
G1 X80.586 Y94.334 E8.16132
G1 X80.832 Y93.583 E8.20075
G1 X81.285 Y92.611 E8.25425
G1 X82.911 Y89.671 E8.42187
G1 X83.328 Y89 E8.46128
G1 X83.709 Y88.496 E8.4928
G1 X85.369 Y86.475 E8.62328
G1 X85.384 Y86.179 E8.63807
G1 X85.503 Y85.399 E8.67743
G1 X85.697 Y84.648 E8.71613
G1 X85.716 Y84.587 E8.71932
G1 X85.989 Y83.846 E8.75872
G1 X86.335 Y83.137 E8.79808
G1 X86.736 Y82.487 E8.83618
G1 X89.596 Y78.328 E9.088
G1 X90.076 Y77.701 E9.12739
M205 X10 Y10
G0 F6000 X90.394 Y77.945
M205 X8 Y8
G1 F1200 X90.923 Y77.386 E9.16579
G1 X91.507 Y76.886 E9.20415
G1 X92.14 Y76.449 E9.24252
G1 X92.598 Y76.189 E9.2688
G1 X92.688 Y76.142 E9.27386
G1 X93.387 Y75.821 E9.31224
G1 X94.116 Y75.576 E9.35061
G1 X94.866 Y75.407 E9.38896
G1 X95.63 Y75.317 E9.42734
G1 X96.113 Y75.301 E9.45145
G1 X105.866 Y75.301 E9.93803
G1 X106.634 Y75.341 E9.9764
G1 X107.394 Y75.46 E10.01478
G1 X108.137 Y75.658 E10.05314
G1 X108.856 Y75.932 E10.09153
G1 X109.542 Y76.279 E10.12988
G1 X110.189 Y76.695 E10.16826
G1 X110.789 Y77.176 E10.20662
G1 X111.216 Y77.585 E10.23612
G1 X111.73 Y78.157 E10.27449
G1 X112.183 Y78.779 E10.31288
G1 X112.569 Y79.444 E10.35124
G1 X112.884 Y80.146 E10.38962
G1 X113.003 Y80.509 E10.40868
G1 X113.835 Y80.594 E10.45041
G1 X114.596 Y80.712 E10.48883
G1 X115.339 Y80.908 E10.52716
G1 X116.059 Y81.181 E10.56558
G1 X116.721 Y81.512 E10.60251
G1 X117.547 Y81.978 E10.64982
G1 X118.371 Y82.293 E10.69383
G1 X119.074 Y82.604 E10.73218
G1 X119.741 Y82.987 E10.77056
G1 X120.365 Y83.437 E10.80894
G1 X120.775 Y83.791 E10.83596
G1 X120.892 Y83.85 E10.8425
G1 X121.571 Y84.289 E10.88284
G1 X122.071 Y84.653 E10.91369
G1 X122.669 Y85.138 E10.95211
G1 X123.213 Y85.682 E10.99049
G1 X123.542 Y86.088 E11.01656
G1 X123.842 Y86.409 E11.03848
G1 X124.305 Y87.023 E11.07685
G1 X124.702 Y87.682 E11.11523
G1 X124.948 Y88.188 E11.1433
G1 X125.241 Y88.724 E11.17377
G1 X125.41 Y88.933 E11.18718
G1 X125.862 Y89.556 E11.22558
G1 X126.131 Y90.003 E11.25161
G1 X127.684 Y92.809 E11.41161
G1 X128.08 Y93.644 E11.45772
G1 X128.338 Y94.397 E11.49743
G1 X128.436 Y94.781 E11.5172
G1 X129.116 Y97.78 E11.67062
G1 X129.269 Y98.746 E11.71942
G1 X129.301 Y99.438 E11.75398
G1 X129.301 Y112.981 E12.42964
G1 X129.269 Y113.673 E12.4642
G1 X129.121 Y114.617 E12.51187
G1 X126.876 Y124.661 E13.02533
G1 X126.555 Y125.718 E13.08045
G1 X126.543 Y125.749 E13.08211
G1 X126.228 Y126.451 E13.12049
G1 X125.907 Y127.016 E13.15291
G1 X123.285 Y131.188 E13.39875
G1 X122.843 Y131.817 E13.4371
G1 X122.337 Y132.396 E13.47546
G1 X121.774 Y132.921 E13.51387
G1 X121.16 Y133.383 E13.55221
G1 X120.589 Y133.732 E13.58559
G1 X120.5 Y133.781 E13.59066
G1 X119.808 Y134.117 E13.62904
G1 X119.085 Y134.379 E13.66741
G1 X118.338 Y134.564 E13.7058
G1 X117.576 Y134.671 E13.74419
G1 X116.931 Y134.699 E13.7764
G1 X96.114 Y134.699 E14.81496
G1 X95.346 Y134.659 E14.85333
G1 X94.586 Y134.54 E14.89171
G1 X93.843 Y134.342 E14.93007
G1 X93.124 Y134.068 E14.96846
G1 X92.599 Y133.811 E14.99762
G1 X91.936 Y133.42 E15.03602
G1 X91.318 Y132.963 E15.07437
G1 X90.751 Y132.443 E15.11275
G1 X90.24 Y131.868 E15.15113
G1 X89.926 Y131.444 E15.17745
G1 X87.066 Y127.284 E15.42931
G1 X86.664 Y126.629 E15.46765
G1 X86.332 Y125.935 E15.50603
G1 X86.109 Y125.326 E15.53839
G1 X86.09 Y125.266 E15.54153
G1 X85.896 Y124.522 E15.57989
G1 X85.781 Y123.761 E15.61829
G1 X85.745 Y123.032 E15.6547
G1 X85.745 Y120.403 E15.78586
G1 X85.187 Y119.917 E15.82278
G1 X83.239 Y118.195 E15.95249
G1 X82.69 Y117.657 E15.99084
G1 X82.2 Y117.064 E16.02922
G1 X81.774 Y116.423 E16.06762
G1 X81.389 Y115.68 E16.10937
G1 X81.354 Y115.602 E16.11363
G1 X81.076 Y114.885 E16.152
G1 X80.874 Y114.143 E16.19037
G1 X80.75 Y113.384 E16.22873
G1 X80.705 Y112.591 E16.26836
G1 X80.7 Y110.493 E16.37303
G1 X80.699 Y96.431 E17.07459
G1 X80.739 Y95.662 E17.113
G1 X80.858 Y94.903 E17.15133
G1 X80.972 Y94.439 E17.17517
G1 X81.212 Y93.708 E17.21356
G1 X81.635 Y92.805 E17.26331
G1 X83.261 Y89.865 E17.43092
G1 X83.668 Y89.212 E17.46931
G1 X84.018 Y88.749 E17.49827
G1 X85.762 Y86.626 E17.63534
G1 X85.784 Y86.2 E17.65662
G1 X85.903 Y85.44 E17.695
G1 X86.079 Y84.767 E17.7297
G1 X86.098 Y84.706 E17.73289
G1 X86.364 Y83.985 E17.77123
G1 X86.704 Y83.295 E17.80961
G1 X87.066 Y82.714 E17.84376
G1 X89.926 Y78.555 E18.09558
G1 X90.394 Y77.945 E18.13394
M205 X10 Y10
G0 F6000 X90.711 Y78.189
M205 X8 Y8
G1 F1200 X91.228 Y77.648 E18.17127
G1 X91.8 Y77.165 E18.20862
G1 X92.42 Y76.747 E18.24593
G1 X92.873 Y76.496 E18.27176
G1 X93.553 Y76.186 E18.30905
G1 X94.263 Y75.95 E18.34638
G1 X94.994 Y75.791 E18.3837
G1 X95.738 Y75.711 E18.42103
G1 X96.113 Y75.701 E18.43975
G1 X105.866 Y75.701 E18.92632
G1 X106.613 Y75.741 E18.96365
G1 X107.351 Y75.86 E19.00094
G1 X108.073 Y76.058 E19.03829
G1 X108.769 Y76.331 E19.07559
G1 X109.432 Y76.678 E19.11292
G1 X110.055 Y77.093 E19.15027
G1 X110.816 Y77.751 E19.20046
G1 X110.933 Y77.868 E19.20872
G1 X111.433 Y78.425 E19.24606
G1 X111.87 Y79.031 E19.28333
G1 X112.241 Y79.681 E19.32067
G1 X112.54 Y80.367 E19.35801
G1 X112.701 Y80.88 E19.38483
G1 X113.795 Y80.992 E19.4397
G1 X114.534 Y81.108 E19.47702
G1 X115.256 Y81.302 E19.51432
G1 X115.954 Y81.572 E19.55165
G1 X116.525 Y81.861 E19.58358
G1 X117.372 Y82.339 E19.6321
G1 X118.228 Y82.666 E19.67782
G1 X118.911 Y82.97 E19.71512
G1 X119.559 Y83.345 E19.75247
G1 X120.445 Y84.032 E19.8084
G1 X120.782 Y84.249 E19.8284
G1 X121.336 Y84.613 E19.86147
G1 X121.836 Y84.977 E19.89233
G1 X122.416 Y85.449 E19.92963
G1 X122.943 Y85.98 E19.96696
G1 X123.562 Y86.698 E20.01425
G1 X124.008 Y87.298 E20.05155
G1 X124.387 Y87.943 E20.08887
G1 X124.582 Y88.349 E20.11135
G1 X124.791 Y88.824 E20.13724
G1 X125.099 Y89.185 E20.16091
G1 X125.538 Y89.791 E20.19824
G1 X125.781 Y90.196 E20.22181
G1 X127.334 Y93.002 E20.38181
G1 X127.708 Y93.792 E20.42542
G1 X127.718 Y93.817 E20.42676
G1 X128.046 Y94.869 E20.48174
G1 X128.726 Y97.868 E20.63515
G1 X128.87 Y98.782 E20.68132
G1 X128.901 Y99.438 E20.71408
G1 X128.901 Y112.981 E21.38974
G1 X128.87 Y113.637 E21.42251
G1 X128.73 Y114.53 E21.46761
G1 X126.485 Y124.574 E21.98107
G1 X126.182 Y125.574 E22.0332
G1 X126.17 Y125.605 E22.03486
G1 X125.863 Y126.287 E22.07217
G1 X125.569 Y126.803 E22.1018
G1 X122.947 Y130.975 E22.34763
G1 X122.515 Y131.586 E22.38497
G1 X122.021 Y132.148 E22.4223
G1 X121.47 Y132.653 E22.45958
G1 X120.868 Y133.097 E22.4969
G1 X120.396 Y133.382 E22.52441
G1 X120.307 Y133.431 E22.52948
G1 X119.633 Y133.756 E22.56681
G1 X118.929 Y134.008 E22.60412
G1 X118.202 Y134.183 E22.64142
G1 X117.46 Y134.279 E22.67875
G1 X116.931 Y134.299 E22.70516
G1 X96.114 Y134.299 E23.74372
G1 X95.367 Y134.259 E23.78105
G1 X94.629 Y134.14 E23.81834
G1 X93.907 Y133.942 E23.85569
G1 X93.211 Y133.669 E23.89299
G1 X92.784 Y133.457 E23.91677
G1 X92.14 Y133.076 E23.95411
G1 X91.541 Y132.628 E23.99142
G1 X90.993 Y132.119 E24.02874
G1 X90.502 Y131.554 E24.06608
G1 X90.256 Y131.218 E24.08686
G1 X87.396 Y127.058 E24.33872
G1 X87.005 Y126.42 E24.37605
G1 X86.686 Y125.743 E24.41339
G1 X86.491 Y125.205 E24.44194
G1 X86.472 Y125.145 E24.44508
G1 X86.284 Y124.421 E24.4824
G1 X86.175 Y123.681 E24.51971
G1 X86.145 Y123.032 E24.55213
G1 X86.145 Y120.221 E24.69237
G1 X85.452 Y119.618 E24.7382
G1 X83.504 Y117.896 E24.86791
G1 X82.971 Y117.371 E24.90524
G1 X82.496 Y116.792 E24.9426
G1 X82.087 Y116.166 E24.97991
G1 X81.753 Y115.517 E25.01632
G1 X81.718 Y115.439 E25.02059
G1 X81.449 Y114.741 E25.05791
G1 X81.256 Y114.018 E25.09524
G1 X81.141 Y113.279 E25.13255
G1 X81.105 Y112.59 E25.16697
G1 X81.1 Y110.492 E25.27164
G1 X81.099 Y96.43 E25.9732
G1 X81.139 Y95.683 E26.01052
G1 X81.346 Y94.588 E26.06612
G1 X81.358 Y94.544 E26.06839
G1 X81.593 Y93.834 E26.10571
G1 X81.985 Y92.998 E26.15177
G1 X83.611 Y90.058 E26.31939
G1 X84.008 Y89.424 E26.35671
G1 X84.328 Y89.003 E26.38309
G1 X86.154 Y86.78 E26.52661
G1 X86.184 Y86.221 E26.55454
G1 X86.303 Y85.483 E26.59184
G1 X86.461 Y84.886 E26.62265
G1 X86.48 Y84.825 E26.62583
G1 X86.74 Y84.124 E26.66313
G1 X87.074 Y83.454 E26.70048
G1 X87.395 Y82.941 E26.73068
G1 X90.255 Y78.782 E26.98249
G1 X90.711 Y78.189 E27.01982
M205 X10 Y10
G0 F6000 X91.029 Y78.433
M205 X8 Y8
G1 F1200 X91.533 Y77.911 E27.05602
G1 X92.092 Y77.447 E27.09226
G1 X92.968 Y76.898 E27.14384
G1 X93.058 Y76.851 E27.1489
G1 X93.719 Y76.55 E27.18514
G1 X94.41 Y76.325 E27.22139
G1 X95.121 Y76.176 E27.25764
G1 X96.113 Y76.101 E27.30727
G1 X105.866 Y76.101 E27.79385
G1 X106.591 Y76.141 E27.83007
G1 X107.308 Y76.26 E27.86633
G1 X108.007 Y76.458 E27.90258
G1 X108.68 Y76.731 E27.93881
G1 X109.319 Y77.076 E27.97504
G1 X109.916 Y77.49 E28.01129
G1 X110.533 Y78.034 E28.05233
G1 X110.65 Y78.151 E28.06058
G1 X111.134 Y78.692 E28.0968
G1 X111.557 Y79.283 E28.13306
G1 X111.911 Y79.917 E28.16928
G1 X112.194 Y80.586 E28.20552
G1 X112.393 Y81.251 E28.24015
G1 X113.754 Y81.39 E28.30841
G1 X114.472 Y81.504 E28.34468
G1 X115.172 Y81.695 E28.38088
G1 X115.848 Y81.963 E28.41716
G1 X116.328 Y82.209 E28.44407
G1 X117.204 Y82.704 E28.49426
G1 X118.085 Y83.04 E28.54131
G1 X118.748 Y83.336 E28.57753
G1 X119.375 Y83.703 E28.61378
G1 X120.176 Y84.327 E28.66443
G1 X120.669 Y84.647 E28.69376
G1 X121.1 Y84.936 E28.71964
G1 X121.6 Y85.3 E28.7505
G1 X122.163 Y85.759 E28.78674
G1 X122.672 Y86.278 E28.82301
G1 X122.912 Y86.583 E28.84237
G1 X123.281 Y86.986 E28.86963
G1 X123.709 Y87.572 E28.90583
G1 X124.216 Y88.51 E28.95903
G1 X124.449 Y89.039 E28.98787
G1 X124.788 Y89.436 E29.01391
G1 X125.213 Y90.025 E29.05015
G1 X125.431 Y90.39 E29.07136
G1 X126.984 Y93.196 E29.23136
G1 X127.337 Y93.941 E29.27249
G1 X127.347 Y93.966 E29.27383
G1 X127.656 Y94.958 E29.32567
G1 X128.336 Y97.957 E29.47909
G1 X128.472 Y98.818 E29.52258
G1 X128.501 Y99.438 E29.55354
G1 X128.501 Y112.981 E30.22921
G1 X128.472 Y113.601 E30.26017
G1 X128.34 Y114.443 E30.30269
G1 X126.095 Y124.487 E30.81616
G1 X125.809 Y125.43 E30.86532
G1 X125.797 Y125.461 E30.86698
G1 X125.498 Y126.122 E30.90317
G1 X125.23 Y126.59 E30.93008
G1 X122.608 Y130.762 E31.17591
G1 X122.188 Y131.355 E31.21217
G1 X121.706 Y131.898 E31.24839
G1 X121.167 Y132.385 E31.28463
G1 X120.577 Y132.809 E31.32088
G1 X120.114 Y133.081 E31.34767
G1 X119.46 Y133.395 E31.38386
G1 X118.774 Y133.636 E31.42014
G1 X118.067 Y133.801 E31.45636
G1 X117.345 Y133.886 E31.49263
G1 X116.931 Y133.899 E31.51329
G1 X96.114 Y133.899 E32.55186
G1 X95.389 Y133.859 E32.58808
G1 X94.672 Y133.74 E32.62434
G1 X93.973 Y133.542 E32.66059
G1 X93.059 Y133.149 E32.71022
G1 X92.969 Y133.102 E32.71529
G1 X92.344 Y132.731 E32.75155
G1 X91.765 Y132.294 E32.78774
G1 X91.236 Y131.795 E32.82402
G1 X90.585 Y130.991 E32.87563
G1 X87.725 Y126.831 E33.12749
G1 X87.347 Y126.211 E33.16372
G1 X87.04 Y125.553 E33.19995
G1 X86.853 Y125.024 E33.22794
G1 X86.672 Y124.321 E33.26416
G1 X86.57 Y123.602 E33.30039
