;FLAVOR:Marlin
;TIME:4244
;Filament used: 2.9009m
;Layer height: 0.2
;MINX:80.299
;MINY:74.901
;MINZ:0.3
;MAXX:129.701
;MAXY:135.099
;MAXZ:15.175
;Generated with Cura_SteamEngine 4.13.1
M82 ;absolute extrusion mode
G21                                        ; metric values 
G90                                        ; absolute positioning 
M82                                        ; set extruder to absolute mode 
M107                                       ; start with the fan off 
M140 S60           ; Start heating the bed 
G4 S60                                     ; wait 1 minute 
M104 S210         ; start heating the hot end 
M190 S60           ; wait for bed 
M109 S210         ; wait for hotend 
M300 S1000 P500                            ; BEEP heating done 
G28 X0 Y10 Z0                              ; move X/Y to min endstops 
M420 S1                                    ; Enable leveling 
M420 Z2.0                                  ; Set leveling fading height to 2 mm 
G0 Z0.15                                   ; lift nozzle a bit 
G92 E0                                     ; zero the extruded length 
G1 X50 E25 F500                            ; Extrude 25mm of filament in a 5cm line. 
G92 E0                                     ; zero the extruded length again 
G1 E-2 F500                                ; Retract a little 
G1 X120 F4000                              ; Quickly wipe away from the filament line`
G92 E0
G92 E0
G1 F1500 E-6
;LAYER_COUNT:75
;LAYER:0
M106 S76.5
M205 X10 Y10
G1 F600 Z0.375
G0 F6000 X85.655 Y86.627 Z0.375
M205 X8 Y8
;TYPE:SKIRT
G1 F600 Z0.3
G1 F1500 E0
G1 F1200 X86.494 Y85.807 E0.05853
G1 X86.964 Y85.412 E0.08916
G1 X87.593 Y84.935 E0.12854
G1 X87.994 Y84.54 E0.15662
G1 X88.565 Y83.995 E0.19601
G1 X89.2 Y83.503 E0.23608
G1 X90.379 Y82.683 E0.30773
G1 X90.999 Y82.294 E0.34425
G1 X92.326 Y81.545 E0.42027
G1 X93.032 Y81.192 E0.45965
G1 X93.771 Y80.913 E0.49906
G1 X94.526 Y80.711 E0.53805
G1 X96.062 Y80.382 E0.61642
G1 X96.646 Y80.291 E0.64591
G1 X96.848 Y79.744 E0.675
G1 X97.196 Y79.035 E0.7144
G1 X97.614 Y78.364 E0.75384
G1 X98.097 Y77.74 E0.79321
G1 X98.502 Y77.303 E0.82293
G1 X98.619 Y77.186 E0.83119
G1 X99.205 Y76.656 E0.87061
G1 X99.841 Y76.189 E0.90997
G1 X100.521 Y75.788 E0.94936
G1 X101.239 Y75.458 E0.98878
G1 X101.986 Y75.203 E1.02816
G1 X102.755 Y75.024 E1.06755
G1 X103.539 Y74.924 E1.10698
G1 X104.134 Y74.901 E1.13669
G1 X113.887 Y74.901 E1.62327
G1 X114.676 Y74.941 E1.66268
G1 X115.456 Y75.06 E1.70205
G1 X116.221 Y75.258 E1.74147
G1 X116.961 Y75.532 E1.78084
G1 X117.498 Y75.787 E1.8105
G1 X117.588 Y75.834 E1.81556
G1 X118.268 Y76.235 E1.85495
G1 X118.905 Y76.702 E1.89436
G1 X119.491 Y77.231 E1.93374
G1 X120.02 Y77.817 E1.97313
G1 X120.404 Y78.328 E2.00502
G1 X123.264 Y82.487 E2.25684
G1 X123.678 Y83.16 E2.29626
G1 X124.022 Y83.871 E2.33566
G1 X124.284 Y84.587 E2.3737
G1 X124.303 Y84.648 E2.37689
G1 X124.499 Y85.413 E2.41629
G1 X124.618 Y86.194 E2.4557
G1 X124.632 Y86.476 E2.46979
G1 X126.278 Y88.478 E2.59909
G1 X126.753 Y89.119 E2.63889
G1 X127.089 Y89.671 E2.67113
G1 X128.715 Y92.611 E2.83875
G1 X129.061 Y93.321 E2.87815
G1 X129.414 Y94.334 E2.93167
G1 X129.426 Y94.378 E2.93395
G1 X129.595 Y95.149 E2.97333
G1 X129.685 Y95.934 E3.01275
G1 X129.701 Y96.431 E3.03756
G1 X129.7 Y110.599 E3.7444
G1 X129.695 Y112.593 E3.84388
G1 X129.653 Y113.381 E3.88325
G1 X129.532 Y114.161 E3.92263
G1 X129.332 Y114.925 E3.96203
G1 X129.011 Y115.766 E4.00694
G1 X128.976 Y115.844 E4.01121
G1 X128.617 Y116.547 E4.05059
G1 X128.188 Y117.211 E4.09003
G1 X127.695 Y117.827 E4.12939
G1 X127.028 Y118.494 E4.17645
G1 X125.029 Y120.261 E4.30956
G1 X124.655 Y120.586 E4.33428
G1 X124.655 Y123.032 E4.45631
G1 X124.615 Y123.821 E4.49572
G1 X124.496 Y124.601 E4.53509
G1 X124.291 Y125.387 E4.57561
G1 X124.272 Y125.447 E4.57875
G1 X123.996 Y126.187 E4.61816
G1 X123.646 Y126.895 E4.65756
G1 X123.264 Y127.511 E4.69372
G1 X120.404 Y131.671 E4.94558
G1 X119.924 Y132.298 E4.98498
G1 X119.383 Y132.874 E5.0244
G1 X118.787 Y133.392 E5.0638
G1 X118.141 Y133.847 E5.10322
G1 X117.587 Y134.166 E5.13511
G1 X117.497 Y134.213 E5.14018
G1 X116.779 Y134.543 E5.1796
G1 X116.032 Y134.798 E5.21898
G1 X115.263 Y134.977 E5.25837
G1 X114.479 Y135.076 E5.2978
G1 X113.886 Y135.099 E5.3274
G1 X93.069 Y135.099 E6.36597
G1 X92.28 Y135.059 E6.40538
G1 X91.5 Y134.94 E6.44475
G1 X90.735 Y134.742 E6.48417
G1 X89.995 Y134.468 E6.52354
G1 X89.307 Y134.132 E6.56174
G1 X89.218 Y134.083 E6.56681
G1 X88.546 Y133.667 E6.60624
G1 X87.92 Y133.186 E6.64562
G1 X87.346 Y132.644 E6.68501
G1 X86.829 Y132.047 E6.72441
G1 X86.376 Y131.4 E6.76381
G1 X83.754 Y127.228 E7.00965
G1 X83.368 Y126.539 E7.04905
G1 X83.084 Y125.894 E7.08421
G1 X83.072 Y125.863 E7.08587
G1 X82.733 Y124.747 E7.14406
G1 X80.486 Y114.682 E7.65856
G1 X80.354 Y113.903 E7.69798
G1 X80.299 Y112.982 E7.74401
G1 X80.299 Y99.44 E8.41963
G1 X80.333 Y98.712 E8.45599
G1 X80.494 Y97.695 E8.50736
G1 X81.173 Y94.697 E8.66071
G1 X81.52 Y93.568 E8.71964
G1 X81.531 Y93.54 E8.72114
G1 X81.966 Y92.616 E8.77209
G1 X83.519 Y89.809 E8.93214
G1 X83.936 Y89.138 E8.97155
G1 X84.259 Y88.705 E8.9985
G1 X84.456 Y88.405 E9.01641
G1 X84.738 Y87.911 E9.04479
G1 X85.164 Y87.246 E9.08419
G1 X85.655 Y86.627 E9.12361
M205 X10 Y10
G0 F6000 X85.981 Y86.861
M205 X8 Y8
G1 F1200 X86.751 Y86.113 E9.17716
G1 X87.221 Y85.718 E9.20779
G1 X87.835 Y85.254 E9.24619
G1 X88.298 Y84.801 E9.27851
G1 X88.857 Y84.273 E9.31687
G1 X89.429 Y83.832 E9.3529
G1 X90.608 Y83.012 E9.42455
G1 X91.196 Y82.643 E9.45918
G1 X92.523 Y81.894 E9.53521
G1 X93.211 Y81.551 E9.57356
G1 X93.932 Y81.281 E9.61197
G1 X94.61 Y81.102 E9.64695
G1 X96.146 Y80.773 E9.72532
G1 X96.947 Y80.648 E9.76577
G1 X96.974 Y80.547 E9.77099
G1 X97.248 Y79.828 E9.80937
G1 X97.595 Y79.142 E9.84773
G1 X98.011 Y78.495 E9.8861
G1 X98.492 Y77.895 E9.92447
G1 X98.901 Y77.468 E9.95397
G1 X99.473 Y76.954 E9.99233
G1 X100.095 Y76.501 E10.03072
G1 X100.76 Y76.115 E10.06908
G1 X101.462 Y75.8 E10.10747
G1 X102.193 Y75.56 E10.14586
G1 X102.944 Y75.397 E10.1842
G1 X103.709 Y75.313 E10.22259
G1 X104.134 Y75.301 E10.2438
G1 X113.887 Y75.301 E10.73038
G1 X114.655 Y75.341 E10.76875
G1 X115.415 Y75.46 E10.80713
G1 X116.158 Y75.658 E10.84549
G1 X116.877 Y75.932 E10.88388
G1 X117.402 Y76.189 E10.91304
G1 X118.065 Y76.58 E10.95144
G1 X118.683 Y77.037 E10.98979
G1 X119.25 Y77.557 E11.02817
G1 X119.761 Y78.132 E11.06655
G1 X120.074 Y78.555 E11.0928
G1 X122.934 Y82.714 E11.34462
G1 X123.337 Y83.37 E11.38303
G1 X123.669 Y84.063 E11.42137
G1 X123.902 Y84.706 E11.45549
G1 X123.921 Y84.767 E11.45868
G1 X124.111 Y85.513 E11.49708
G1 X124.223 Y86.274 E11.53546
G1 X124.24 Y86.629 E11.55319
G1 X125.969 Y88.732 E11.68901
G1 X126.42 Y89.341 E11.72682
G1 X126.739 Y89.865 E11.75743
G1 X128.365 Y92.805 E11.92504
G1 X128.701 Y93.496 E11.96338
G1 X129.028 Y94.439 E12.01317
G1 X129.04 Y94.483 E12.01545
G1 X129.204 Y95.234 E12.0538
G1 X129.288 Y95.999 E12.09219
G1 X129.301 Y96.431 E12.11376
G1 X129.3 Y110.598 E12.82055
G1 X129.295 Y112.592 E12.92003
G1 X129.253 Y113.36 E12.9584
G1 X129.132 Y114.119 E12.99675
G1 X128.932 Y114.862 E13.03514
G1 X128.646 Y115.602 E13.07472
G1 X128.611 Y115.68 E13.07898
G1 X128.261 Y116.365 E13.11736
G1 X127.84 Y117.009 E13.15575
G1 X127.356 Y117.606 E13.19409
G1 X126.763 Y118.194 E13.23575
G1 X124.766 Y119.959 E13.36872
G1 X124.255 Y120.403 E13.40249
G1 X124.255 Y123.032 E13.53365
G1 X124.215 Y123.8 E13.57202
G1 X124.096 Y124.56 E13.6104
G1 X123.91 Y125.266 E13.64682
G1 X123.891 Y125.326 E13.64996
G1 X123.621 Y126.046 E13.68833
G1 X123.277 Y126.735 E13.72675
G1 X122.934 Y127.284 E13.75904
G1 X120.074 Y131.444 E14.0109
G1 X119.606 Y132.055 E14.0493
G1 X119.077 Y132.613 E14.08766
G1 X118.493 Y133.114 E14.12605
G1 X117.86 Y133.551 E14.16442
G1 X117.401 Y133.811 E14.19074
G1 X117.311 Y133.858 E14.19581
G1 X116.612 Y134.179 E14.23418
G1 X115.883 Y134.424 E14.27255
G1 X115.133 Y134.593 E14.31091
G1 X114.369 Y134.683 E14.34929
G1 X113.886 Y134.699 E14.3734
G1 X93.069 Y134.699 E15.41196
G1 X92.301 Y134.659 E15.45033
G1 X91.541 Y134.54 E15.48871
G1 X90.798 Y134.342 E15.52707
G1 X90.079 Y134.068 E15.56546
G1 X89.5 Y133.781 E15.5977
G1 X89.411 Y133.732 E15.60277
G1 X88.757 Y133.327 E15.64114
G1 X88.149 Y132.856 E15.67952
G1 X87.594 Y132.324 E15.71787
G1 X87.096 Y131.738 E15.75624
G1 X86.715 Y131.188 E15.78962
G1 X84.093 Y127.016 E16.03545
G1 X83.718 Y126.344 E16.07385
G1 X83.445 Y125.718 E16.10792
G1 X83.124 Y124.659 E16.16313
G1 X80.877 Y114.594 E16.67763
G1 X80.748 Y113.836 E16.71599
G1 X80.699 Y112.982 E16.75867
G1 X80.699 Y99.44 E17.43428
G1 X80.731 Y98.748 E17.46884
G1 X80.884 Y97.783 E17.51759
G1 X81.563 Y94.785 E17.67095
G1 X81.892 Y93.714 E17.72684
G1 X81.903 Y93.686 E17.72834
G1 X82.316 Y92.81 E17.77666
G1 X83.869 Y90.003 E17.93671
G1 X84.276 Y89.35 E17.9751
G1 X84.724 Y88.764 E18.0119
G1 X84.803 Y88.603 E18.02084
G1 X85.085 Y88.109 E18.04922
G1 X85.501 Y87.462 E18.0876
G1 X85.981 Y86.861 E18.12597
M205 X10 Y10
G0 F6000 X86.308 Y87.097
M205 X8 Y8
G1 F1200 X87.008 Y86.419 E18.17459
G1 X87.478 Y86.024 E18.20522
G1 X88.076 Y85.574 E18.24256
G1 X88.25 Y85.47 E18.25267
G1 X88.602 Y85.062 E18.27955
G1 X89.147 Y84.551 E18.31683
G1 X89.657 Y84.16 E18.34889
G1 X90.836 Y83.34 E18.42054
G1 X91.392 Y82.991 E18.45329
G1 X92.719 Y82.242 E18.52931
G1 X93.389 Y81.91 E18.56661
G1 X94.091 Y81.651 E18.60395
G1 X94.694 Y81.493 E18.63504
G1 X96.23 Y81.164 E18.71341
G1 X96.997 Y81.044 E18.75215
G1 X97.271 Y80.988 E18.7661
G1 X97.374 Y80.611 E18.7856
G1 X97.647 Y79.915 E18.8229
G1 X97.994 Y79.252 E18.86023
G1 X98.409 Y78.629 E18.89758
G1 X99.067 Y77.868 E18.94777
G1 X99.184 Y77.751 E18.95602
G1 X99.741 Y77.251 E18.99336
G1 X100.347 Y76.814 E19.03064
G1 X100.997 Y76.443 E19.06798
G1 X101.683 Y76.144 E19.10531
G1 X102.397 Y75.92 E19.14265
G1 X103.13 Y75.773 E19.17994
G1 X104.134 Y75.701 E19.23016
G1 X113.887 Y75.701 E19.71674
G1 X114.634 Y75.741 E19.75406
G1 X115.372 Y75.86 E19.79136
G1 X116.094 Y76.058 E19.82871
G1 X116.79 Y76.331 E19.86601
G1 X117.217 Y76.543 E19.88979
G1 X117.861 Y76.924 E19.92712
G1 X118.46 Y77.372 E19.96444
G1 X119.008 Y77.881 E20.00175
G1 X119.499 Y78.446 E20.0391
G1 X119.745 Y78.782 E20.05987
G1 X122.605 Y82.941 E20.31169
G1 X122.995 Y83.579 E20.349
G1 X123.315 Y84.255 E20.38631
G1 X123.52 Y84.825 E20.41653
G1 X123.539 Y84.886 E20.41972
G1 X123.723 Y85.611 E20.45704
G1 X123.829 Y86.352 E20.49438
G1 X123.848 Y86.782 E20.51586
G1 X125.66 Y88.986 E20.6582
G1 X126.087 Y89.563 E20.69402
G1 X126.389 Y90.058 E20.72295
G1 X128.015 Y92.998 E20.89056
G1 X128.341 Y93.671 E20.92787
G1 X128.642 Y94.544 E20.97394
G1 X128.654 Y94.588 E20.97621
G1 X128.812 Y95.319 E21.01353
G1 X128.901 Y96.43 E21.06913
G1 X128.9 Y110.597 E21.77593
G1 X128.895 Y112.591 E21.87541
G1 X128.853 Y113.337 E21.91268
G1 X128.732 Y114.076 E21.95004
G1 X128.532 Y114.797 E21.98737
G1 X128.282 Y115.439 E22.02175
G1 X128.247 Y115.517 E22.02601
G1 X127.904 Y116.182 E22.06334
G1 X127.493 Y116.807 E22.10066
G1 X127.017 Y117.384 E22.13798
G1 X126.498 Y117.894 E22.17428
G1 X124.504 Y119.657 E22.30707
G1 X123.855 Y120.221 E22.34997
G1 X123.855 Y123.032 E22.49021
G1 X123.815 Y123.779 E22.52753
G1 X123.696 Y124.517 E22.56482
G1 X123.528 Y125.145 E22.59726
G1 X123.509 Y125.205 E22.6004
G1 X123.246 Y125.905 E22.6377
G1 X122.909 Y126.573 E22.67503
G1 X122.604 Y127.058 E22.70361
G1 X119.744 Y131.218 E22.95547
G1 X119.288 Y131.811 E22.99279
G1 X118.771 Y132.351 E23.03009
G1 X118.2 Y132.834 E23.0674
G1 X117.58 Y133.253 E23.10474
G1 X117.126 Y133.504 E23.13062
G1 X116.446 Y133.814 E23.1679
G1 X115.736 Y134.05 E23.20523
G1 X115.005 Y134.209 E23.24255
G1 X114.261 Y134.289 E23.27988
G1 X113.886 Y134.299 E23.2986
G1 X93.069 Y134.299 E24.33716
G1 X92.322 Y134.259 E24.37449
G1 X91.584 Y134.14 E24.41178
G1 X90.862 Y133.942 E24.44913
G1 X90.166 Y133.669 E24.48643
G1 X89.693 Y133.431 E24.51285
G1 X89.604 Y133.382 E24.51792
G1 X88.969 Y132.987 E24.55523
G1 X88.38 Y132.526 E24.59254
G1 X87.843 Y132.005 E24.62987
G1 X87.365 Y131.43 E24.66717
G1 X87.053 Y130.975 E24.6947
G1 X84.431 Y126.803 E24.94053
G1 X84.068 Y126.149 E24.97785
G1 X83.818 Y125.574 E25.00913
G1 X83.514 Y124.572 E25.06137
G1 X81.267 Y114.507 E25.57588
G1 X81.143 Y113.769 E25.61321
G1 X81.099 Y112.982 E25.65254
G1 X81.099 Y99.44 E26.32815
G1 X81.13 Y98.784 E26.36092
G1 X81.274 Y97.872 E26.40698
G1 X81.953 Y94.874 E26.56034
G1 X82.265 Y93.86 E26.61327
G1 X82.276 Y93.832 E26.61477
G1 X82.666 Y93.003 E26.66048
G1 X84.219 Y90.196 E26.82052
G1 X84.616 Y89.562 E26.85784
G1 X85.049 Y88.999 E26.89328
G1 X85.151 Y88.802 E26.90434
G1 X85.433 Y88.308 E26.93272
G1 X85.838 Y87.679 E26.97005
G1 X86.308 Y87.097 E27.00737
M205 X10 Y10
G0 F6000 X86.633 Y87.333
M205 X8 Y8
G1 F1200 X87.266 Y86.725 E27.05116
G1 X87.736 Y86.33 E27.08179
G1 X88.317 Y85.894 E27.11803
G1 X88.511 Y85.78 E27.12925
G1 X88.905 Y85.324 E27.15932
G1 X89.437 Y84.83 E27.19554
G1 X89.886 Y84.489 E27.22367
G1 X91.065 Y83.669 E27.29531
G1 X91.589 Y83.339 E27.32621
G1 X92.916 Y82.59 E27.40223
G1 X93.567 Y82.269 E27.43844
G1 X94.25 Y82.02 E27.47471
G1 X94.778 Y81.884 E27.50191
G1 X96.314 Y81.555 E27.58028
G1 X97.037 Y81.442 E27.61679
G1 X97.6 Y81.292 E27.64586
G1 X97.774 Y80.677 E27.67775
G1 X98.047 Y80.004 E27.71398
G1 X98.392 Y79.365 E27.75021
G1 X98.806 Y78.768 E27.78646
G1 X99.35 Y78.151 E27.82749
G1 X99.467 Y78.034 E27.83575
G1 X100.008 Y77.55 E27.87196
G1 X100.599 Y77.127 E27.90822
G1 X101.233 Y76.773 E27.94445
G1 X101.902 Y76.49 E27.98069
G1 X102.598 Y76.282 E28.01693
G1 X103.313 Y76.152 E28.05319
G1 X104.134 Y76.101 E28.09423
G1 X113.887 Y76.101 E28.58081
G1 X114.612 Y76.141 E28.61703
G1 X115.329 Y76.26 E28.65329
G1 X116.028 Y76.458 E28.68954
G1 X116.942 Y76.851 E28.73917
G1 X117.032 Y76.898 E28.74424
G1 X117.657 Y77.269 E28.7805
G1 X118.236 Y77.706 E28.81669
G1 X118.765 Y78.205 E28.85297
G1 X119.415 Y79.008 E28.90451
G1 X122.275 Y83.167 E29.15633
G1 X122.653 Y83.788 E29.1926
G1 X122.961 Y84.446 E29.22885
G1 X123.138 Y84.944 E29.25522
G1 X123.157 Y85.005 E29.2584
G1 X123.335 Y85.71 E29.29468
G1 X123.434 Y86.429 E29.33089
G1 X123.455 Y86.933 E29.35606
G1 X125.351 Y89.24 E29.50504
G1 X125.755 Y89.785 E29.53888
G1 X126.039 Y90.252 E29.56615
G1 X127.665 Y93.192 E29.73377
G1 X127.981 Y93.846 E29.77
G1 X128.256 Y94.649 E29.81235
G1 X128.268 Y94.693 E29.81462
G1 X128.421 Y95.404 E29.85091
G1 X128.501 Y96.43 E29.90225
G1 X128.5 Y110.596 E30.609
G1 X128.495 Y112.59 E30.70848
G1 X128.453 Y113.315 E30.74471
G1 X128.332 Y114.031 E30.78094
G1 X128.133 Y114.729 E30.81715
G1 X127.917 Y115.275 E30.84644
G1 X127.882 Y115.353 E30.85071
G1 X127.548 Y115.998 E30.88694
G1 X127.146 Y116.603 E30.92318
G1 X126.68 Y117.16 E30.95941
G1 X126.233 Y117.595 E30.99053
G1 X124.242 Y119.356 E31.12314
G1 X123.455 Y120.04 E31.17516
G1 X123.455 Y123.032 E31.32444
G1 X123.415 Y123.757 E31.36066
G1 X123.296 Y124.474 E31.39692
G1 X123.147 Y125.024 E31.42535
G1 X123.128 Y125.084 E31.42849
G1 X122.871 Y125.764 E31.46476
G1 X122.541 Y126.411 E31.50099
G1 X122.275 Y126.831 E31.5258
G1 X119.415 Y130.991 E31.77766
G1 X118.971 Y131.566 E31.8139
G1 X118.467 Y132.089 E31.85014
G1 X117.908 Y132.553 E31.88638
G1 X117.031 Y133.102 E31.938
G1 X116.941 Y133.149 E31.94306
G1 X116.28 Y133.45 E31.9793
G1 X115.589 Y133.675 E32.01556
G1 X114.878 Y133.824 E32.0518
G1 X113.886 Y133.899 E32.10143
G1 X93.069 Y133.899 E33.14
G1 X92.344 Y133.859 E33.17622
G1 X91.627 Y133.74 E33.21248
G1 X90.928 Y133.542 E33.24873
G1 X90.255 Y133.269 E33.28496
G1 X89.797 Y133.032 E33.31069
G1 X89.181 Y132.647 E33.34693
G1 X88.611 Y132.197 E33.38316
G1 X88.094 Y131.687 E33.41939
