;FLAVOR:Marlin
;TIME:664
;Filament used: 0.524199m
;Layer height: 0.2
;MINX:80.14
;MINY:81.297
;MINZ:0.3
;MAXX:129.86
;MAXY:128.706
;MAXZ:2.975
;Generated with Cura_SteamEngine 4.13.1
M82 ;absolute extrusion mode
G21                                        ; metric values 
G90                                        ; absolute positioning 
M82                                        ; set extruder to absolute mode 
M107                                       ; start with the fan off 
M140 S60           ; Start heating the bed 
G4 S60                                     ; wait 1 minute 
M104 S210         ; start heating the hot end 
M190 S60           ; wait for bed 
M109 S210         ; wait for hotend 
M300 S1000 P500                            ; BEEP heating done 
G28 X0 Y10 Z0                              ; move X/Y to min endstops 
M420 S1                                    ; Enable leveling 
M420 Z2.0                                  ; Set leveling fading height to 2 mm 
G0 Z0.15                                   ; lift nozzle a bit 
G92 E0                                     ; zero the extruded length 
G1 X50 E25 F500                            ; Extrude 25mm of filament in a 5cm line. 
G92 E0                                     ; zero the extruded length again 
G1 E-2 F500                                ; Retract a little 
G1 X120 F4000                              ; Quickly wipe away from the filament line`
G92 E0
G92 E0
G1 F1500 E-6
;LAYER_COUNT:14
;LAYER:0
M106 S76.5
M205 X10 Y10
G1 F600 Z0.375
G0 F6000 X93.773 Y85.746 Z0.375
M205 X8 Y8
;TYPE:SKIRT
G1 F600 Z0.3
G1 F1500 E0
G1 F1200 X94.94 Y84.51 E0.08481
G1 X95.51 Y83.964 E0.12419
G1 X96.059 Y83.531 E0.15907
G1 X96.091 Y83.508 E0.16104
G1 X96.754 Y83.08 E0.20041
G1 X97.434 Y82.733 E0.23849
G1 X98.965 Y82.042 E0.3223
G1 X99.701 Y81.754 E0.36173
G1 X100.266 Y81.588 E0.3911
G1 X101.04 Y81.43 E0.43052
G1 X101.988 Y81.345 E0.478
G1 X103.678 Y81.297 E0.56235
G1 X104.467 Y81.315 E0.60172
G1 X105.277 Y81.417 E0.64245
G1 X105.316 Y81.424 E0.64443
G1 X106.085 Y81.602 E0.68381
G1 X106.685 Y81.801 E0.71535
G1 X108.258 Y82.393 E0.7992
G1 X108.982 Y82.708 E0.83859
G1 X109.74 Y83.139 E0.88209
G1 X109.771 Y83.159 E0.88393
G1 X110.412 Y83.62 E0.92332
G1 X110.874 Y84.02 E0.95381
G1 X112.106 Y85.174 E1.03803
G1 X112.655 Y85.743 E1.07748
G1 X113.108 Y86.315 E1.11388
G1 X113.131 Y86.347 E1.11585
G1 X113.559 Y87.01 E1.15522
G1 X113.916 Y87.71 E1.19442
G1 X114.604 Y89.246 E1.27839
G1 X114.889 Y89.983 E1.31781
G1 X115.112 Y90.801 E1.36011
G1 X115.121 Y90.843 E1.36225
G1 X115.247 Y91.622 E1.40162
G1 X115.29 Y92.221 E1.43158
G1 X115.345 Y93.899 E1.51534
G1 X115.331 Y94.689 E1.55476
G1 X115.238 Y95.468 E1.5939
G1 X115.231 Y95.509 E1.59598
G1 X115.059 Y96.279 E1.63534
G1 X114.832 Y96.97 E1.67163
G1 X114.229 Y98.555 E1.75623
G1 X113.907 Y99.287 E1.79613
G1 X113.529 Y99.958 E1.83455
G1 X111.819 Y102.671 E1.99455
G1 X115.614 Y101.738 E2.18952
G1 X116.389 Y101.588 E2.2289
G1 X117.096 Y101.521 E2.26433
G1 X117.137 Y101.519 E2.26638
G1 X117.927 Y101.521 E2.30579
G1 X118.796 Y101.616 E2.3494
G1 X120.457 Y101.892 E2.43341
G1 X121.228 Y102.06 E2.47278
G1 X121.875 Y102.267 E2.50667
G1 X121.913 Y102.281 E2.50869
G1 X122.639 Y102.591 E2.54807
G1 X123.312 Y102.962 E2.58641
G1 X124.743 Y103.845 E2.6703
G1 X125.393 Y104.293 E2.70969
G1 X125.982 Y104.793 E2.74823
G1 X126.014 Y104.823 E2.75042
G1 X126.562 Y105.391 E2.7898
G1 X127.013 Y105.961 E2.82606
G1 X127.996 Y107.329 E2.9101
G1 X128.424 Y107.993 E2.94952
G1 X128.763 Y108.653 E2.98653
G1 X128.778 Y108.686 E2.98834
G1 X129.068 Y109.421 E3.02776
G1 X129.264 Y110.105 E3.06326
G1 X129.655 Y111.745 E3.14737
G1 X129.799 Y112.522 E3.1868
G1 X129.858 Y113.164 E3.21896
G1 X129.86 Y113.204 E3.22096
G1 X129.86 Y113.994 E3.26037
G1 X129.764 Y114.873 E3.30449
G1 X129.488 Y116.534 E3.38849
G1 X129.32 Y117.305 E3.42786
G1 X129.135 Y117.89 E3.45847
G1 X129.121 Y117.929 E3.46054
G1 X128.817 Y118.658 E3.49994
G1 X128.41 Y119.402 E3.54225
G1 X127.527 Y120.827 E3.62589
G1 X127.078 Y121.477 E3.6653
G1 X126.587 Y122.054 E3.7031
G1 X126.557 Y122.086 E3.70529
G1 X125.989 Y122.634 E3.74466
G1 X125.44 Y123.07 E3.77964
G1 X124.075 Y124.058 E3.86371
G1 X123.413 Y124.488 E3.90309
G1 X122.841 Y124.788 E3.93531
G1 X122.803 Y124.806 E3.93741
G1 X122.073 Y125.108 E3.97683
G1 X121.268 Y125.346 E4.01871
G1 X119.598 Y125.743 E4.10434
G1 X119.07 Y125.849 E4.13121
G1 X113.678 Y126.743 E4.40389
G1 X106.919 Y128.19 E4.74874
G1 X106.139 Y128.316 E4.78816
G1 X105.684 Y128.353 E4.81093
G1 X98.979 Y128.696 E5.14589
G1 X98.565 Y128.706 E5.16655
G1 X97.664 Y128.654 E5.21157
G1 X92.103 Y128.007 E5.49088
G1 X91.324 Y127.876 E5.53029
G1 X90.483 Y127.641 E5.57386
G1 X90.442 Y127.627 E5.57602
G1 X89.709 Y127.334 E5.6154
G1 X89.041 Y126.987 E5.65296
G1 X85.256 Y124.785 E5.87142
G1 X84.594 Y124.354 E5.91083
G1 X83.979 Y123.858 E5.95025
G1 X83.418 Y123.303 E5.98962
G1 X82.915 Y122.693 E6.02907
G1 X82.866 Y122.627 E6.03317
G1 X82.428 Y121.97 E6.07256
G1 X82.059 Y121.272 E6.11195
G1 X81.762 Y120.54 E6.15136
G1 X81.569 Y119.896 E6.1849
G1 X80.373 Y115.183 E6.42749
G1 X80.217 Y114.408 E6.46693
G1 X80.142 Y113.635 E6.50568
G1 X80.14 Y113.593 E6.50777
G1 X80.142 Y112.803 E6.54719
G1 X80.265 Y111.783 E6.59844
G1 X81.121 Y107.224 E6.82987
G1 X81.306 Y106.456 E6.86928
G1 X81.622 Y105.58 E6.91574
G1 X84.039 Y99.964 E7.22077
G1 X84.396 Y99.241 E7.261
G1 X84.794 Y98.599 E7.29868
G1 X93.024 Y86.671 E8.02168
G1 X93.505 Y86.045 E8.06106
G1 X93.773 Y85.746 E8.0811
M205 X10 Y10
G0 F6000 X94.063 Y86.021
M205 X8 Y8
G1 F1200 X95.23 Y84.785 E8.1659
G1 X95.787 Y84.254 E8.2043
G1 X96.292 Y83.856 E8.23638
G1 X96.324 Y83.833 E8.23834
G1 X96.971 Y83.417 E8.27672
G1 X97.599 Y83.097 E8.31188
G1 X99.13 Y82.406 E8.39568
G1 X99.846 Y82.127 E8.43402
G1 X100.366 Y81.975 E8.46105
G1 X101.12 Y81.823 E8.49942
G1 X101.999 Y81.745 E8.54345
G1 X103.689 Y81.697 E8.6278
G1 X104.458 Y81.715 E8.66617
G1 X105.206 Y81.81 E8.70379
G1 X105.245 Y81.817 E8.70577
G1 X105.994 Y81.992 E8.74414
G1 X106.545 Y82.175 E8.77311
G1 X108.118 Y82.767 E8.85696
G1 X108.822 Y83.075 E8.8953
G1 X109.523 Y83.475 E8.93556
G1 X109.554 Y83.495 E8.9374
G1 X110.178 Y83.945 E8.97578
G1 X110.601 Y84.312 E9.00372
G1 X111.833 Y85.466 E9.08794
G1 X112.366 Y86.021 E9.12633
G1 X112.783 Y86.548 E9.15986
G1 X112.806 Y86.58 E9.16183
G1 X113.222 Y87.227 E9.2002
G1 X113.55 Y87.874 E9.23639
G1 X114.238 Y89.41 E9.32036
G1 X114.516 Y90.127 E9.35872
G1 X114.721 Y90.884 E9.39785
G1 X114.73 Y90.926 E9.39999
G1 X114.852 Y91.686 E9.4384
G1 X114.89 Y92.235 E9.46585
G1 X114.945 Y93.913 E9.54961
G1 X114.93 Y94.682 E9.58799
G1 X114.843 Y95.4 E9.62407
G1 X114.836 Y95.441 E9.62614
G1 X114.668 Y96.192 E9.66454
G1 X114.458 Y96.827 E9.6979
G1 X113.855 Y98.412 E9.78251
G1 X113.549 Y99.108 E9.82044
G1 X113.19 Y99.745 E9.85692
G1 X111.014 Y103.196 E10.06046
G1 X110.949 Y103.296 E10.06641
G1 X115.709 Y102.126 E10.31096
G1 X116.465 Y101.981 E10.34936
G1 X117.115 Y101.921 E10.38193
G1 X117.156 Y101.919 E10.38398
G1 X117.926 Y101.921 E10.42239
G1 X118.73 Y102.01 E10.46275
G1 X120.391 Y102.286 E10.54675
G1 X121.142 Y102.451 E10.58511
G1 X121.736 Y102.642 E10.61624
G1 X121.774 Y102.656 E10.61826
G1 X122.481 Y102.959 E10.65664
G1 X123.102 Y103.302 E10.69203
G1 X124.533 Y104.185 E10.77592
G1 X125.166 Y104.623 E10.81433
G1 X125.708 Y105.084 E10.84982
G1 X125.74 Y105.114 E10.85201
G1 X126.273 Y105.669 E10.8904
G1 X126.688 Y106.195 E10.92383
G1 X127.671 Y107.563 E11.00787
G1 X128.087 Y108.21 E11.04625
G1 X128.399 Y108.819 E11.08039
G1 X128.414 Y108.852 E11.08219
G1 X128.695 Y109.568 E11.12057
G1 X128.875 Y110.198 E11.15326
G1 X129.266 Y111.838 E11.23737
G1 X129.406 Y112.594 E11.27573
G1 X129.459 Y113.184 E11.30528
G1 X129.461 Y113.224 E11.30728
G1 X129.459 Y113.994 E11.3457
G1 X129.37 Y114.807 E11.3865
G1 X129.094 Y116.468 E11.4705
G1 X128.929 Y117.219 E11.50886
G1 X128.759 Y117.755 E11.53692
G1 X128.745 Y117.794 E11.53898
G1 X128.448 Y118.504 E11.57738
G1 X128.07 Y119.192 E11.61654
G1 X127.187 Y120.617 E11.70018
G1 X126.749 Y121.249 E11.73854
G1 X126.296 Y121.78 E11.77337
G1 X126.266 Y121.812 E11.77555
G1 X125.711 Y122.345 E11.81394
G1 X125.206 Y122.746 E11.84612
G1 X123.841 Y123.734 E11.93018
G1 X123.195 Y124.151 E11.96854
G1 X122.67 Y124.427 E11.99813
G1 X122.632 Y124.445 E12.00023
G1 X121.921 Y124.737 E12.03858
G1 X121.175 Y124.956 E12.07737
G1 X119.505 Y125.353 E12.16301
G1 X119.004 Y125.454 E12.1885
G1 X113.615 Y126.348 E12.46104
G1 X106.835 Y127.799 E12.80695
G1 X106.076 Y127.921 E12.8453
G1 X105.664 Y127.953 E12.86592
G1 X98.959 Y128.296 E13.20087
G1 X98.565 Y128.306 E13.22054
G1 X97.71 Y128.256 E13.26326
G1 X92.149 Y127.609 E13.54258
G1 X91.39 Y127.481 E13.58098
G1 X90.613 Y127.262 E13.62125
G1 X90.572 Y127.248 E13.62341
G1 X89.858 Y126.962 E13.66179
G1 X89.242 Y126.641 E13.69644
G1 X85.457 Y124.439 E13.91491
G1 X84.813 Y124.019 E13.95326
G1 X84.216 Y123.533 E13.99167
G1 X83.673 Y122.988 E14.03005
G1 X83.236 Y122.454 E14.06448
G1 X83.187 Y122.388 E14.06858
G1 X82.762 Y121.748 E14.10691
G1 X82.405 Y121.066 E14.14531
G1 X82.12 Y120.352 E14.18367
G1 X81.956 Y119.797 E14.21254
G1 X80.76 Y115.084 E14.45512
G1 X80.61 Y114.33 E14.49348
G1 X80.541 Y113.616 E14.52927
G1 X80.539 Y113.574 E14.53136
G1 X80.543 Y112.805 E14.56973
G1 X80.658 Y111.856 E14.61742
G1 X81.514 Y107.297 E14.84885
G1 X81.695 Y106.55 E14.88719
G1 X81.99 Y105.738 E14.93029
G1 X84.407 Y100.122 E15.23532
G1 X84.745 Y99.435 E15.27352
G1 X85.123 Y98.826 E15.30928
G1 X93.353 Y86.898 E16.03228
G1 X94.063 Y86.021 E16.08857
M205 X10 Y10
G0 F6000 X94.354 Y86.295
M205 X8 Y8
G1 F1200 X95.521 Y85.059 E16.17338
G1 X96.063 Y84.544 E16.21068
G1 X96.526 Y84.181 E16.24003
G1 X96.558 Y84.158 E16.242
G1 X97.187 Y83.754 E16.2793
G1 X97.763 Y83.462 E16.31151
G1 X99.294 Y82.771 E16.39532
G1 X99.992 Y82.5 E16.43267
G1 X100.466 Y82.363 E16.45729
G1 X101.199 Y82.215 E16.49459
G1 X102.01 Y82.145 E16.53521
G1 X103.7 Y82.097 E16.61955
G1 X104.448 Y82.116 E16.65688
G1 X105.136 Y82.204 E16.69149
G1 X105.175 Y82.211 E16.69347
G1 X105.903 Y82.382 E16.73077
G1 X106.404 Y82.55 E16.75714
G1 X107.977 Y83.142 E16.84099
G1 X108.662 Y83.442 E16.8783
G1 X109.306 Y83.811 E16.91533
G1 X109.337 Y83.831 E16.91717
G1 X109.943 Y84.269 E16.95447
G1 X110.327 Y84.604 E16.97989
G1 X111.559 Y85.758 E17.06411
G1 X112.077 Y86.298 E17.10144
G1 X112.458 Y86.782 E17.13217
G1 X112.481 Y86.814 E17.13414
G1 X112.885 Y87.443 E17.17144
G1 X113.185 Y88.038 E17.20468
G1 X113.873 Y89.574 E17.28865
G1 X114.142 Y90.272 E17.32597
G1 X114.33 Y90.968 E17.36194
G1 X114.339 Y91.01 E17.36408
G1 X114.456 Y91.749 E17.40141
G1 X114.49 Y92.248 E17.42636
G1 X114.545 Y93.926 E17.51012
G1 X114.53 Y94.674 E17.54745
G1 X114.449 Y95.333 E17.58057
G1 X114.442 Y95.374 E17.58265
G1 X114.277 Y96.104 E17.61998
G1 X114.085 Y96.685 E17.65051
G1 X113.482 Y98.27 E17.73512
G1 X113.191 Y98.929 E17.77106
G1 X112.852 Y99.531 E17.80553
G1 X110.678 Y102.979 E18.00889
G1 X110.09 Y103.891 E18.06302
G1 X110.896 Y103.721 E18.10412
G1 X115.805 Y102.514 E18.35633
G1 X116.54 Y102.375 E18.39364
G1 X117.135 Y102.32 E18.42346
G1 X117.176 Y102.318 E18.4255
G1 X117.924 Y102.322 E18.46282
G1 X118.664 Y102.405 E18.49997
G1 X120.325 Y102.681 E18.58398
G1 X121.056 Y102.843 E18.62133
G1 X121.598 Y103.018 E18.64975
G1 X121.636 Y103.032 E18.65177
G1 X122.323 Y103.327 E18.68907
G1 X122.892 Y103.643 E18.72154
G1 X124.323 Y104.526 E18.80543
G1 X124.938 Y104.952 E18.84275
G1 X125.435 Y105.376 E18.87535
G1 X125.467 Y105.406 E18.87753
G1 X125.984 Y105.946 E18.91483
G1 X126.364 Y106.428 E18.94545
G1 X127.347 Y107.796 E19.0295
G1 X127.75 Y108.426 E19.06681
G1 X128.035 Y108.984 E19.09807
G1 X128.05 Y109.017 E19.09988
G1 X128.322 Y109.714 E19.1372
G1 X128.486 Y110.291 E19.16713
G1 X128.877 Y111.931 E19.25124
G1 X129.012 Y112.666 E19.28853
G1 X129.061 Y113.244 E19.31747
G1 X129.059 Y113.992 E19.35478
G1 X128.975 Y114.741 E19.39239
G1 X128.699 Y116.402 E19.47639
G1 X128.537 Y117.133 E19.51374
G1 X128.368 Y117.659 E19.54131
G1 X128.078 Y118.349 E19.57865
G1 X127.73 Y118.981 E19.61464
G1 X126.847 Y120.406 E19.69828
G1 X126.42 Y121.02 E19.73559
G1 X126.004 Y121.507 E19.76755
G1 X125.974 Y121.539 E19.76973
G1 X125.434 Y122.056 E19.80703
G1 X124.971 Y122.421 E19.83644
G1 X123.606 Y123.409 E19.92051
G1 X122.978 Y123.815 E19.95782
G1 X122.499 Y124.065 E19.98478
G1 X122.461 Y124.083 E19.98687
G1 X121.768 Y124.367 E20.02424
G1 X121.083 Y124.567 E20.05984
G1 X119.413 Y124.964 E20.14548
G1 X118.939 Y125.06 E20.16961
G1 X113.527 Y125.957 E20.4433
G1 X106.751 Y127.408 E20.78902
G1 X105.644 Y127.554 E20.84472
G1 X98.939 Y127.897 E21.17967
G1 X98.565 Y127.906 E21.19834
G1 X97.756 Y127.859 E21.23877
G1 X92.195 Y127.212 E21.51808
G1 X91.458 Y127.086 E21.55538
G1 X90.742 Y126.883 E21.59251
G1 X90.701 Y126.869 E21.59467
G1 X90.007 Y126.59 E21.63199
G1 X89.443 Y126.296 E21.66372
G1 X85.658 Y124.094 E21.88219
G1 X85.032 Y123.683 E21.91955
G1 X84.454 Y123.209 E21.95684
G1 X83.93 Y122.675 E21.99417
G1 X83.558 Y122.216 E22.02364
G1 X83.509 Y122.15 E22.02774
G1 X83.095 Y121.526 E22.0651
G1 X82.751 Y120.862 E22.10241
G1 X82.48 Y120.165 E22.13972
G1 X82.344 Y119.699 E22.16394
G1 X81.148 Y114.986 E22.40653
G1 X81.003 Y114.252 E22.44385
G1 X80.941 Y113.597 E22.47668
G1 X80.939 Y113.555 E22.47877
G1 X80.943 Y112.807 E22.51609
G1 X81.051 Y111.93 E22.56018
G1 X81.907 Y107.371 E22.7916
G1 X82.084 Y106.644 E22.82893
G1 X82.357 Y105.896 E22.86866
G1 X84.774 Y100.28 E23.17369
G1 X85.095 Y99.629 E23.2099
G1 X85.452 Y99.054 E23.24366
G1 X93.682 Y87.126 E23.96666
G1 X94.354 Y86.295 E24.01998
M205 X10 Y10
G0 F6000 X94.645 Y86.57
M205 X8 Y8
G1 F1200 X95.812 Y85.334 E24.10479
G1 X96.339 Y84.834 E24.14103
G1 X96.759 Y84.506 E24.16761
G1 X96.791 Y84.483 E24.16958
G1 X97.403 Y84.092 E24.20581
G1 X97.928 Y83.826 E24.23518
G1 X99.459 Y83.135 E24.31898
G1 X100.136 Y82.873 E24.35519
G1 X100.565 Y82.75 E24.37746
G1 X101.278 Y82.608 E24.41373
G1 X102.022 Y82.545 E24.45098
G1 X103.712 Y82.497 E24.53533
G1 X104.438 Y82.516 E24.57156
G1 X105.065 Y82.598 E24.60311
G1 X105.104 Y82.605 E24.60509
G1 X105.811 Y82.772 E24.64133
G1 X106.263 Y82.924 E24.66512
G1 X107.836 Y83.516 E24.74897
G1 X108.5 Y83.809 E24.78518
G1 X109.089 Y84.147 E24.81906
G1 X109.12 Y84.167 E24.8209
G1 X109.708 Y84.594 E24.85716
G1 X110.054 Y84.896 E24.88007
G1 X111.286 Y86.05 E24.96429
G1 X111.788 Y86.575 E25.00052
G1 X112.133 Y87.015 E25.02842
G1 X112.156 Y87.047 E25.03039
G1 X112.547 Y87.659 E25.06662
G1 X112.82 Y88.201 E25.0969
G1 X113.508 Y89.737 E25.18086
G1 X113.768 Y90.415 E25.21709
G1 X113.938 Y91.052 E25.24998
G1 X113.947 Y91.094 E25.25213
G1 X114.06 Y91.812 E25.28839
G1 X114.09 Y92.261 E25.31084
G1 X114.145 Y93.939 E25.3946
G1 X114.129 Y94.665 E25.43083
G1 X114.055 Y95.266 E25.46104
G1 X114.048 Y95.307 E25.46311
G1 X113.886 Y96.015 E25.49935
G1 X113.711 Y96.543 E25.5271
G1 X113.108 Y98.128 E25.6117
G1 X112.833 Y98.751 E25.64568
G1 X112.514 Y99.318 E25.67814
G1 X110.342 Y102.763 E25.88132
G1 X109.234 Y104.481 E25.98331
G1 X110.978 Y104.113 E26.07223
G1 X115.9 Y102.903 E26.3251
G1 X116.614 Y102.769 E26.36135
G1 X117.154 Y102.72 E26.3884
G1 X117.195 Y102.718 E26.39045
G1 X117.922 Y102.722 E26.42672
G1 X118.599 Y102.799 E26.46071
G1 X120.26 Y103.075 E26.54471
G1 X120.969 Y103.234 E26.58096
G1 X121.46 Y103.393 E26.60671
G1 X121.498 Y103.407 E26.60873
G1 X122.164 Y103.695 E26.64493
G1 X122.682 Y103.983 E26.6745
G1 X124.113 Y104.866 E26.75839
G1 X124.709 Y105.281 E26.79463
G1 X125.161 Y105.668 E26.82431
G1 X125.193 Y105.698 E26.8265
G1 X125.695 Y106.223 E26.86274
G1 X126.039 Y106.662 E26.89057
G1 X127.022 Y108.03 E26.97461
