;FLAVOR:Marlin
;TIME:14782
;Filament used: 12.2162m
;Layer height: 0.2
;MINX:41.067
;MINY:44.187
;MINZ:0.3
;MAXX:168.969
;MAXY:165.848
;MAXZ:7.575
;Generated with Cura_SteamEngine 4.13.1
M82 ;absolute extrusion mode
G21                                        ; metric values 
G90                                        ; absolute positioning 
M82                                        ; set extruder to absolute mode 
M107                                       ; start with the fan off 
M140 S60           ; Start heating the bed 
G4 S60                                     ; wait 1 minute 
M104 S210         ; start heating the hot end 
M190 S60           ; wait for bed 
M109 S210         ; wait for hotend 
M300 S1000 P500                            ; BEEP heating done 
G28 X0 Y10 Z0                              ; move X/Y to min endstops 
M420 S1                                    ; Enable leveling 
M420 Z2.0                                  ; Set leveling fading height to 2 mm 
G0 Z0.15                                   ; lift nozzle a bit 
G92 E0                                     ; zero the extruded length 
G1 X50 E25 F500                            ; Extrude 25mm of filament in a 5cm line. 
G92 E0                                     ; zero the extruded length again 
G1 E-2 F500                                ; Retract a little 
G1 X120 F4000                              ; Quickly wipe away from the filament line`
G92 E0
G92 E0
G1 F1500 E-6
;LAYER_COUNT:37
;LAYER:0
M106 S76.5
M205 X10 Y10
G1 F600 Z0.375
G0 F6000 X46.897 Y46.45 Z0.375
M205 X8 Y8
;TYPE:SKIRT
G1 F600 Z0.3
G1 F1500 E0
G1 F1200 X47.484 Y45.922 E0.03939
G1 X48.122 Y45.457 E0.07878
G1 X48.804 Y45.059 E0.11817
G1 X49.523 Y44.731 E0.1576
G1 X50.271 Y44.478 E0.19699
G1 X51.041 Y44.302 E0.2364
G1 X51.824 Y44.205 E0.27576
G1 X52.614 Y44.187 E0.31519
G1 X53.719 Y44.298 E0.37059
G1 X64.82 Y46.213 E0.9326
G1 X65.59 Y46.386 E0.97198
G1 X66.339 Y46.636 E1.01137
G1 X67.059 Y46.961 E1.05078
G1 X67.742 Y47.357 E1.09017
G1 X68.382 Y47.82 E1.12958
G1 X68.971 Y48.346 E1.16898
G1 X69.505 Y48.928 E1.20838
G1 X69.977 Y49.561 E1.24778
G1 X70.382 Y50.239 E1.28718
G1 X70.717 Y50.954 E1.32657
G1 X70.938 Y51.558 E1.35866
G1 X71.16 Y52.316 E1.39806
G1 X71.304 Y53.092 E1.43744
G1 X71.368 Y53.879 E1.47683
G1 X71.36 Y54.314 E1.49854
G1 X72.012 Y54.834 E1.54014
G1 X102.425 Y82.029 E3.57559
G1 X102.986 Y82.584 E3.61496
G1 X103.489 Y83.193 E3.65437
G1 X103.796 Y83.638 E3.68134
G1 X103.828 Y83.688 E3.6843
G1 X104.219 Y84.374 E3.72369
G1 X104.539 Y85.096 E3.76309
G1 X104.746 Y85.708 E3.79533
G1 X110.05 Y103.884 E4.73995
G1 X113.909 Y103.884 E4.93248
G1 X118.481 Y88.245 E5.74537
G1 X121.412 Y77.252 E6.31297
G1 X121.749 Y76.261 E6.36519
G1 X121.759 Y76.237 E6.36649
G1 X122.201 Y75.342 E6.41629
G1 X128.394 Y64.596 E7.03507
G1 X128.822 Y63.933 E7.07444
G1 X129.316 Y63.316 E7.11387
G1 X129.869 Y62.753 E7.15324
G1 X130.476 Y62.248 E7.19264
G1 X131.328 Y61.693 E7.24337
G1 X131.424 Y61.639 E7.24886
G1 X132.131 Y61.287 E7.28827
G1 X132.87 Y61.008 E7.32767
G1 X133.169 Y60.929 E7.3431
G1 X133.192 Y60.746 E7.3523
G1 X133.37 Y59.977 E7.39168
G1 X133.625 Y59.23 E7.43106
G1 X133.954 Y58.512 E7.47047
G1 X134.354 Y57.831 E7.50987
G1 X134.642 Y57.422 E7.53483
G1 X134.786 Y57.231 E7.54676
G1 X135.292 Y56.626 E7.58611
G1 X135.858 Y56.074 E7.62555
G1 X136.476 Y55.583 E7.66493
G1 X137.141 Y55.157 E7.70433
G1 X137.845 Y54.8 E7.74371
G1 X138.582 Y54.516 E7.78312
G1 X139.344 Y54.308 E7.82252
G1 X140.123 Y54.178 E7.86193
G1 X140.911 Y54.128 E7.90132
G1 X141.7 Y54.157 E7.94071
G1 X142.187 Y54.216 E7.96518
G1 X154.964 Y56.159 E8.60996
G1 X155.737 Y56.317 E8.64932
G1 X156.491 Y56.552 E8.68872
G1 X157.217 Y56.863 E8.72813
G1 X157.908 Y57.245 E8.76752
G1 X158.557 Y57.695 E8.80692
G1 X159.157 Y58.209 E8.84633
G1 X159.702 Y58.78 E8.88571
G1 X160.186 Y59.404 E8.92511
G1 X160.605 Y60.074 E8.96454
G1 X160.954 Y60.782 E9.00392
G1 X161.213 Y61.47 E9.04059
G1 X161.289 Y61.705 E9.05292
G1 X161.493 Y62.468 E9.09232
G1 X161.62 Y63.247 E9.1317
G1 X161.665 Y64.002 E9.16943
G1 X162.22 Y64.407 E9.20371
G1 X162.846 Y64.975 E9.24588
G1 X162.952 Y65.082 E9.25339
G1 X163.479 Y65.67 E9.29279
G1 X163.943 Y66.309 E9.33219
G1 X164.341 Y66.991 E9.37158
G1 X164.667 Y67.71 E9.41097
G1 X164.919 Y68.458 E9.45035
G1 X165.095 Y69.228 E9.48975
G1 X165.2 Y70.158 E9.53644
G1 X168.967 Y141.233 E13.08737
G1 X168.969 Y142.023 E13.12678
G1 X168.917 Y142.618 E13.15658
G1 X168.722 Y143.644 E13.20868
G1 X164.482 Y159.929 E14.04823
G1 X164.245 Y160.682 E14.08762
G1 X163.933 Y161.408 E14.12704
G1 X163.549 Y162.098 E14.16643
G1 X163.097 Y162.745 E14.20581
G1 X162.582 Y163.344 E14.24522
G1 X162.009 Y163.887 E14.28461
G1 X161.432 Y164.336 E14.32108
G1 X161.313 Y164.42 E14.32835
G1 X160.646 Y164.843 E14.36775
G1 X159.939 Y165.195 E14.40715
G1 X159.2 Y165.474 E14.44656
G1 X158.437 Y165.677 E14.48595
G1 X157.658 Y165.802 E14.52532
G1 X156.869 Y165.848 E14.56475
G1 X156.167 Y165.821 E14.59979
G1 X150.61 Y165.358 E14.878
G1 X149.828 Y165.253 E14.91736
G1 X149.06 Y165.069 E14.95676
G1 X148.314 Y164.808 E14.99619
G1 X147.599 Y164.474 E15.03556
G1 X146.921 Y164.068 E15.07499
G1 X146.288 Y163.597 E15.11435
G1 X145.706 Y163.063 E15.15376
G1 X145.369 Y162.674 E15.17943
G1 X144.78 Y163.02 E15.21352
G1 X144.062 Y163.349 E15.25292
G1 X143.315 Y163.604 E15.2923
G1 X142.546 Y163.782 E15.33168
G1 X141.762 Y163.882 E15.37111
G1 X141.044 Y163.903 E15.40694
G1 X135.006 Y163.803 E15.70822
G1 X134.497 Y163.778 E15.73365
G1 X87.091 Y159.889 E18.10669
G1 X81.461 Y160.185 E18.38796
G1 X80.671 Y160.187 E18.42737
G1 X79.885 Y160.108 E18.46678
G1 X79.112 Y159.951 E18.50613
G1 X78.358 Y159.716 E18.54554
G1 X77.631 Y159.406 E18.58497
G1 X76.94 Y159.025 E18.62433
G1 X76.291 Y158.575 E18.66373
G1 X75.839 Y158.179 E18.69372
G1 X75.692 Y158.309 E18.70351
G1 X75.049 Y158.767 E18.74289
G1 X74.364 Y159.159 E18.78227
G1 X73.642 Y159.479 E18.82167
G1 X72.891 Y159.724 E18.86108
G1 X72.119 Y159.892 E18.90049
G1 X71.099 Y159.993 E18.95163
G1 X69.985 Y160.029 E19.00724
G1 X68.048 Y160.137 E19.10402
G1 X67.258 Y160.141 E19.14344
G1 X66.472 Y160.065 E19.18283
G1 X65.698 Y159.91 E19.22222
G1 X64.943 Y159.677 E19.26164
G1 X64.216 Y159.37 E19.30101
G1 X63.399 Y158.912 E19.34774
G1 X63.29 Y158.842 E19.3542
G1 X62.648 Y158.382 E19.3936
G1 X62.056 Y157.86 E19.43298
G1 X61.52 Y157.28 E19.47238
G1 X61.044 Y156.65 E19.51177
G1 X60.636 Y155.974 E19.55116
G1 X60.241 Y155.121 E19.59806
G1 X52.577 Y135.534 E20.6474
G1 X52.364 Y134.913 E20.68016
G1 X52.116 Y133.79 E20.73753
G1 X41.141 Y57.993 E24.5585
G1 X41.067 Y57.206 E24.59793
G1 X41.073 Y56.417 E24.6373
G1 X41.16 Y55.632 E24.6767
G1 X41.325 Y54.86 E24.71609
G1 X41.567 Y54.108 E24.7555
G1 X41.884 Y53.385 E24.79488
G1 X42.273 Y52.697 E24.83432
G1 X42.729 Y52.053 E24.87368
G1 X43.248 Y51.458 E24.91307
G1 X43.825 Y50.918 E24.9525
G1 X44.395 Y50.479 E24.9884
G1 X44.674 Y50.29 E25.00521
G1 X44.901 Y49.537 E25.04444
G1 X45.204 Y48.808 E25.08383
G1 X45.58 Y48.113 E25.12325
G1 X46.218 Y47.213 E25.17829
G1 X46.365 Y47.034 E25.18985
G1 X46.897 Y46.45 E25.22926
M205 X10 Y10
G0 F6000 X47.193 Y46.719
M205 X8 Y8
G1 F1200 X47.767 Y46.208 E25.2676
G1 X48.392 Y45.759 E25.306
G1 X49.059 Y45.377 E25.34434
G1 X49.763 Y45.067 E25.38272
G1 X50.495 Y44.831 E25.42109
G1 X51.248 Y44.673 E25.45948
G1 X52.013 Y44.594 E25.49785
G1 X52.782 Y44.594 E25.53621
G1 X53.651 Y44.692 E25.57984
G1 X64.752 Y46.607 E26.14185
G1 X65.502 Y46.777 E26.18022
G1 X66.231 Y47.024 E26.21862
G1 X66.929 Y47.345 E26.25695
G1 X67.591 Y47.737 E26.29533
G1 X68.209 Y48.195 E26.33371
G1 X68.775 Y48.716 E26.37209
G1 X69.285 Y49.292 E26.41047
G1 X69.732 Y49.918 E26.44885
G1 X70.111 Y50.587 E26.48721
G1 X70.482 Y51.466 E26.53481
G1 X70.56 Y51.69 E26.54664
G1 X70.775 Y52.428 E26.58499
G1 X70.912 Y53.185 E26.62337
G1 X70.97 Y53.952 E26.66175
G1 X70.954 Y54.524 E26.69029
G1 X71.121 Y54.631 E26.70019
G1 X71.746 Y55.132 E26.74015
G1 X102.159 Y82.327 E28.7756
G1 X102.705 Y82.869 E28.81398
G1 X103.191 Y83.464 E28.85231
G1 X103.491 Y83.904 E28.87888
G1 X103.871 Y84.573 E28.91726
G1 X104.18 Y85.277 E28.95562
G1 X104.362 Y85.82 E28.98419
G1 X109.75 Y104.284 E29.94378
G1 X114.208 Y104.284 E30.16619
G1 X118.872 Y88.334 E30.99526
G1 X121.799 Y77.355 E31.56214
G1 X122.118 Y76.415 E31.61166
G1 X122.128 Y76.391 E31.61296
G1 X122.548 Y75.542 E31.66022
G1 X128.741 Y64.796 E32.279
G1 X129.159 Y64.15 E32.31738
G1 X129.642 Y63.552 E32.35573
G1 X130.184 Y63.007 E32.39408
G1 X130.78 Y62.52 E32.43248
G1 X131.524 Y62.041 E32.47663
G1 X131.62 Y61.987 E32.48212
G1 X132.309 Y61.646 E32.52048
G1 X133.03 Y61.377 E32.55887
G1 X133.529 Y61.248 E32.58458
G1 X133.607 Y60.699 E32.61225
G1 X133.794 Y59.953 E32.65062
G1 X134.057 Y59.23 E32.689
G1 X134.394 Y58.538 E32.7274
G1 X134.961 Y57.663 E32.77942
G1 X135.105 Y57.472 E32.79135
G1 X135.599 Y56.883 E32.8297
G1 X136.152 Y56.348 E32.86809
G1 X136.758 Y55.874 E32.90647
G1 X137.409 Y55.465 E32.94483
G1 X138.099 Y55.125 E32.98321
G1 X138.821 Y54.859 E33.0216
G1 X139.566 Y54.67 E33.05994
G1 X140.328 Y54.559 E33.09836
G1 X141.096 Y54.527 E33.13671
G1 X142.127 Y54.611 E33.18831
G1 X154.904 Y56.554 E33.83309
G1 X155.657 Y56.709 E33.87145
G1 X156.39 Y56.941 E33.9098
G1 X157.095 Y57.249 E33.94819
G1 X157.765 Y57.627 E33.98656
G1 X158.391 Y58.074 E34.02494
G1 X158.968 Y58.582 E34.06329
G1 X159.489 Y59.148 E34.10167
G1 X159.948 Y59.765 E34.14004
G1 X160.341 Y60.427 E34.17845
G1 X160.663 Y61.125 E34.2168
G1 X160.908 Y61.828 E34.25394
G1 X161.106 Y62.571 E34.2923
G1 X161.226 Y63.331 E34.33069
G1 X161.267 Y64.099 E34.36906
G1 X161.261 Y64.22 E34.3751
G1 X161.446 Y64.331 E34.38587
G1 X162.06 Y64.794 E34.42423
G1 X162.562 Y65.256 E34.45827
G1 X162.668 Y65.363 E34.46578
G1 X163.18 Y65.937 E34.50416
G1 X163.63 Y66.561 E34.54254
G1 X164.013 Y67.228 E34.58091
G1 X164.324 Y67.931 E34.61926
G1 X164.561 Y68.663 E34.65765
G1 X164.72 Y69.416 E34.69605
G1 X164.801 Y70.179 E34.73433
G1 X168.568 Y141.254 E38.28525
G1 X168.568 Y142.024 E38.32366
G1 X168.52 Y142.569 E38.35096
G1 X168.335 Y143.544 E38.40047
G1 X164.095 Y159.829 E39.24002
G1 X163.863 Y160.562 E39.27838
G1 X163.556 Y161.267 E39.31674
G1 X163.177 Y161.936 E39.3551
G1 X162.731 Y162.563 E39.39349
G1 X162.223 Y163.14 E39.43184
G1 X161.657 Y163.661 E39.47022
G1 X161.201 Y164.01 E39.49887
G1 X161.082 Y164.094 E39.50614
G1 X160.432 Y164.504 E39.54448
G1 X159.742 Y164.844 E39.58285
G1 X159.021 Y165.112 E39.62123
G1 X158.276 Y165.302 E39.65959
G1 X157.515 Y165.415 E39.69797
G1 X156.746 Y165.448 E39.73637
G1 X156.201 Y165.422 E39.76359
G1 X150.644 Y164.959 E40.04179
G1 X149.881 Y164.856 E40.0802
G1 X149.134 Y164.674 E40.11856
G1 X148.41 Y164.415 E40.15692
G1 X147.716 Y164.082 E40.19533
G1 X147.061 Y163.68 E40.23367
G1 X146.451 Y163.211 E40.27206
G1 X145.893 Y162.682 E40.31042
G1 X145.435 Y162.143 E40.34571
G1 X145.224 Y162.297 E40.35874
G1 X144.56 Y162.684 E40.39708
G1 X143.858 Y163 E40.43549
G1 X143.128 Y163.241 E40.47384
G1 X142.377 Y163.405 E40.51219
G1 X141.612 Y163.491 E40.5506
G1 X141.05 Y163.503 E40.57864
G1 X135.012 Y163.403 E40.87992
G1 X134.53 Y163.379 E40.904
G1 X87.103 Y159.488 E43.27809
G1 X81.44 Y159.786 E43.56101
G1 X80.671 Y159.786 E43.59938
G1 X79.906 Y159.707 E43.63774
G1 X79.153 Y159.548 E43.67614
G1 X78.421 Y159.313 E43.7145
G1 X77.717 Y159.002 E43.75289
G1 X77.049 Y158.621 E43.79126
G1 X76.425 Y158.172 E43.82961
G1 X75.838 Y157.648 E43.86887
G1 X75.428 Y158.008 E43.89609
G1 X74.8 Y158.452 E43.93446
G1 X74.129 Y158.829 E43.97286
G1 X73.423 Y159.134 E44.01123
G1 X72.689 Y159.364 E44.0496
G1 X71.936 Y159.516 E44.08793
G1 X71.086 Y159.593 E44.13051
G1 X69.991 Y159.628 E44.18517
G1 X68.025 Y159.738 E44.2834
G1 X67.256 Y159.74 E44.32177
G1 X66.491 Y159.663 E44.36013
G1 X65.738 Y159.507 E44.39849
G1 X65.005 Y159.274 E44.43687
G1 X64.3 Y158.966 E44.47525
G1 X63.615 Y158.576 E44.51457
G1 X63.506 Y158.506 E44.52104
G1 X62.882 Y158.057 E44.55939
G1 X62.307 Y157.546 E44.59777
G1 X61.788 Y156.978 E44.63615
G1 X61.331 Y156.359 E44.67454
G1 X60.941 Y155.696 E44.71292
G1 X60.614 Y154.975 E44.75241
G1 X52.95 Y135.388 E45.80175
G1 X52.747 Y134.798 E45.83288
G1 X52.511 Y133.732 E45.88735
G1 X41.536 Y57.935 E49.70832
G1 X41.466 Y57.17 E49.74664
G1 X41.475 Y56.4 E49.78506
G1 X41.564 Y55.636 E49.82343
G1 X41.732 Y54.886 E49.86178
G1 X41.977 Y54.157 E49.90015
G1 X42.297 Y53.457 E49.93855
G1 X42.687 Y52.794 E49.97692
G1 X43.144 Y52.175 E50.01531
G1 X43.663 Y51.608 E50.05366
G1 X44.237 Y51.096 E50.09203
G1 X44.826 Y50.666 E50.12842
G1 X45.036 Y50.535 E50.14076
G1 X45.091 Y50.273 E50.15412
G1 X45.326 Y49.541 E50.19248
G1 X45.636 Y48.837 E50.23085
G1 X46.017 Y48.168 E50.26926
G1 X46.527 Y47.467 E50.31251
G1 X46.674 Y47.288 E50.32407
G1 X47.193 Y46.719 E50.36249
M205 X10 Y10
G0 F6000 X47.488 Y46.99
M205 X8 Y8
G1 F1200 X48.049 Y46.495 E50.39982
G1 X48.66 Y46.063 E50.43715
G1 X49.313 Y45.698 E50.47447
G1 X50.002 Y45.405 E50.51182
G1 X50.717 Y45.188 E50.5491
G1 X51.452 Y45.048 E50.58643
G1 X52.198 Y44.987 E50.62377
G1 X52.946 Y45.006 E50.6611
G1 X53.583 Y45.086 E50.69313
G1 X64.684 Y47.001 E51.25514
G1 X65.413 Y47.167 E51.29245
G1 X66.121 Y47.411 E51.32981
G1 X66.798 Y47.728 E51.3671
G1 X67.438 Y48.116 E51.40444
G1 X68.032 Y48.57 E51.44174
G1 X68.575 Y49.084 E51.47904
G1 X69.06 Y49.654 E51.51638
G1 X69.481 Y50.272 E51.55369
G1 X69.834 Y50.932 E51.59103
G1 X70.105 Y51.597 E51.62686
G1 X70.183 Y51.821 E51.63869
G1 X70.391 Y52.54 E51.67603
G1 X70.521 Y53.276 E51.71332
G1 X70.571 Y54.023 E51.75067
G1 X70.543 Y54.736 E51.78627
G1 X70.921 Y54.98 E51.80871
G1 X71.479 Y55.43 E51.84448
G1 X101.892 Y82.625 E53.87992
G1 X102.422 Y83.153 E53.91725
G1 X102.893 Y83.734 E53.95456
G1 X103.154 Y84.12 E53.97781
G1 X103.523 Y84.77 E54.0151
G1 X103.82 Y85.457 E54.05244
G1 X103.978 Y85.932 E54.07741
G1 X109.45 Y104.684 E55.05197
G1 X114.508 Y104.684 E55.30432
G1 X119.248 Y88.473 E56.14695
G1 X122.185 Y77.458 E56.71569
G1 X122.487 Y76.569 E56.76253
G1 X122.497 Y76.545 E56.76383
G1 X122.894 Y75.742 E56.80852
G1 X129.087 Y64.996 E57.4273
G1 X129.495 Y64.368 E57.46466
G1 X129.967 Y63.788 E57.50197
G1 X130.498 Y63.262 E57.53926
G1 X131.083 Y62.795 E57.5766
G1 X131.72 Y62.39 E57.61426
G1 X131.816 Y62.336 E57.61976
G1 X132.487 Y62.005 E57.65709
G1 X133.189 Y61.747 E57.6944
G1 X133.899 Y61.569 E57.73092
G1 X133.908 Y61.394 E57.73966
G1 X134.025 Y60.655 E57.77699
G1 X134.22 Y59.933 E57.8143
G1 X134.491 Y59.236 E57.85161
G1 X134.835 Y58.571 E57.88896
G1 X135.281 Y57.904 E57.92899
G1 X135.425 Y57.713 E57.94093
G1 X135.906 Y57.141 E57.97821
G1 X136.446 Y56.623 E58.01554
G1 X137.038 Y56.166 E58.05286
G1 X137.676 Y55.774 E58.09021
G1 X138.351 Y55.453 E58.1275
G1 X139.057 Y55.206 E58.16482
G1 X139.786 Y55.036 E58.20216
G1 X140.528 Y54.944 E58.23947
G1 X141.276 Y54.932 E58.27679
G1 X142.066 Y55.007 E58.31638
G1 X154.843 Y56.95 E58.96116
G1 X155.576 Y57.101 E58.99849
G1 X156.288 Y57.331 E59.03582
G1 X156.972 Y57.634 E59.07315
G1 X157.619 Y58.009 E59.11045
G1 X158.222 Y58.451 E59.14775
G1 X158.775 Y58.955 E59.18508
G1 X159.271 Y59.515 E59.2224
G1 X159.705 Y60.125 E59.25975
G1 X160.071 Y60.777 E59.29706
G1 X160.451 Y61.716 E59.3476
G1 X160.527 Y61.951 E59.35992
G1 X160.719 Y62.674 E59.39724
G1 X160.833 Y63.413 E59.43454
G1 X160.867 Y64.161 E59.4719
G1 X160.85 Y64.438 E59.48574
G1 X161.307 Y64.721 E59.51256
G1 X161.897 Y65.181 E59.54989
G1 X162.278 Y65.538 E59.57594
G1 X162.384 Y65.645 E59.58345
G1 X162.881 Y66.203 E59.62073
G1 X163.316 Y66.812 E59.65807
G1 X163.684 Y67.464 E59.69542
G1 X163.979 Y68.151 E59.73272
G1 X164.2 Y68.866 E59.77006
G1 X164.343 Y69.6 E59.80737
G1 X164.401 Y70.201 E59.83749
