;FLAVOR:Marlin
;TIME:13179
;Filament used: 10.713m
;Layer height: 0.2
;MINX:32.63
;MINY:42.908
;MINZ:0.3
;MAXX:177.359
;MAXY:167.089
;MAXZ:7.575
;Generated with Cura_SteamEngine 4.13.1
M82 ;absolute extrusion mode
G21                                        ; metric values 
G90                                        ; absolute positioning 
M82                                        ; set extruder to absolute mode 
M107                                       ; start with the fan off 
M140 S60           ; Start heating the bed 
G4 S60                                     ; wait 1 minute 
M104 S210         ; start heating the hot end 
M190 S60           ; wait for bed 
M109 S210         ; wait for hotend 
M300 S1000 P500                            ; BEEP heating done 
G28 X0 Y10 Z0                              ; move X/Y to min endstops 
M420 S1                                    ; Enable leveling 
M420 Z2.0                                  ; Set leveling fading height to 2 mm 
G0 Z0.15                                   ; lift nozzle a bit 
G92 E0                                     ; zero the extruded length 
G1 X50 E25 F500                            ; Extrude 25mm of filament in a 5cm line. 
G92 E0                                     ; zero the extruded length again 
G1 E-2 F500                                ; Retract a little 
G1 X120 F4000                              ; Quickly wipe away from the filament line`
G92 E0
G92 E0
G1 F1500 E-6
;LAYER_COUNT:37
;LAYER:0
M106 S76.5
M205 X10 Y10
G1 F600 Z0.375
G0 F6000 X48.568 Y48.244 Z0.375
M205 X8 Y8
;TYPE:SKIRT
G1 F600 Z0.3
G1 F1500 E0
G1 F1200 X49.125 Y47.685 E0.03937
G1 X49.736 Y47.185 E0.07876
G1 X50.395 Y46.749 E0.11818
G1 X50.825 Y46.512 E0.14268
G1 X51.542 Y46.181 E0.18208
G1 X52.288 Y45.925 E0.22142
G1 X53.057 Y45.745 E0.26083
G1 X53.841 Y45.644 E0.30026
G1 X54.244 Y45.623 E0.3204
G1 X135.552 Y43.505 E4.37825
G1 X139.823 Y43.212 E4.59183
G1 X140.21 Y43.195 E4.61115
G1 X155.519 Y42.908 E5.37506
G1 X156.308 Y42.934 E5.41444
G1 X157.091 Y43.038 E5.45385
G1 X157.859 Y43.222 E5.49325
G1 X158.604 Y43.482 E5.53261
G1 X159.542 Y43.939 E5.58467
G1 X159.638 Y43.994 E5.59019
G1 X160.303 Y44.421 E5.62962
G1 X160.921 Y44.913 E5.66903
G1 X161.486 Y45.464 E5.7084
G1 X161.992 Y46.07 E5.74779
G1 X162.618 Y47.044 E5.80555
G1 X164.488 Y50.493 E6.00129
G1 X164.829 Y51.206 E6.04072
G1 X165.096 Y51.949 E6.08011
G1 X165.286 Y52.715 E6.11948
G1 X165.398 Y53.497 E6.15889
G1 X165.431 Y54.286 E6.19829
G1 X165.383 Y55.074 E6.23768
G1 X165.256 Y55.854 E6.2771
G1 X165.051 Y56.616 E6.31647
G1 X164.676 Y57.556 E6.36696
G1 X165.032 Y57.922 E6.39244
G1 X165.523 Y58.541 E6.43185
G1 X165.949 Y59.206 E6.47125
G1 X166.305 Y59.911 E6.51066
G1 X166.588 Y60.648 E6.55004
G1 X166.796 Y61.41 E6.58945
G1 X166.934 Y62.276 E6.6332
G1 X167.503 Y67.813 E6.9109
G1 X167.544 Y68.601 E6.95026
G1 X167.505 Y69.39 E6.98968
G1 X167.386 Y70.171 E7.02909
G1 X167.189 Y70.935 E7.06845
G1 X166.802 Y71.931 E7.12176
G1 X166.754 Y72.033 E7.12739
G1 X166.382 Y72.73 E7.1668
G1 X165.941 Y73.385 E7.2062
G1 X165.437 Y73.993 E7.2456
G1 X164.873 Y74.546 E7.285
G1 X163.964 Y75.241 E7.34209
G1 X149.289 Y84.834 E8.21678
G1 X149.289 Y94.608 E8.70441
G1 X149.249 Y95.397 E8.74382
G1 X149.13 Y96.177 E8.78319
G1 X148.932 Y96.942 E8.82261
G1 X148.658 Y97.682 E8.86198
G1 X148.31 Y98.391 E8.90138
G1 X147.892 Y99.062 E8.94082
G1 X147.409 Y99.686 E8.98019
G1 X147.148 Y99.968 E8.99936
G1 X147.534 Y100.395 E9.02808
G1 X148.001 Y101.031 E9.06744
G1 X148.402 Y101.711 E9.10683
G1 X148.732 Y102.429 E9.14625
G1 X148.987 Y103.176 E9.18563
G1 X149.166 Y103.945 E9.22502
G1 X149.266 Y104.729 E9.26445
G1 X149.289 Y105.324 E9.29416
G1 X149.289 Y110 E9.52745
G1 X149.249 Y110.789 E9.56686
G1 X149.13 Y111.569 E9.60622
G1 X148.932 Y112.334 E9.64565
G1 X148.658 Y113.074 E9.68502
G1 X148.31 Y113.783 E9.72442
G1 X148.082 Y114.149 E9.74593
G1 X148.247 Y114.411 E9.76138
G1 X148.599 Y115.118 E9.80078
G1 X148.878 Y115.857 E9.84019
G1 X149.081 Y116.62 E9.87958
G1 X149.234 Y117.732 E9.93558
G1 X150.004 Y129.606 E10.52922
G1 X150.94 Y129.618 E10.57592
G1 X167.24 Y129.236 E11.38936
G1 X168.03 Y129.258 E11.42879
G1 X168.813 Y129.359 E11.46817
G1 X169.582 Y129.539 E11.50758
G1 X170.329 Y129.795 E11.54697
G1 X171.046 Y130.126 E11.58637
G1 X171.725 Y130.528 E11.62574
G1 X172.361 Y130.996 E11.66513
G1 X172.795 Y131.379 E11.69401
G1 X172.915 Y131.493 E11.70227
G1 X173.459 Y132.065 E11.74165
G1 X173.943 Y132.689 E11.78105
G1 X174.361 Y133.359 E11.82045
G1 X174.709 Y134.068 E11.85985
G1 X174.984 Y134.809 E11.89928
G1 X175.182 Y135.573 E11.93866
G1 X175.302 Y136.353 E11.97803
G1 X175.342 Y137.021 E12.01142
G1 X175.438 Y142.933 E12.30641
G1 X175.411 Y143.723 E12.34584
G1 X175.304 Y144.505 E12.38522
G1 X175.119 Y145.273 E12.42463
G1 X174.857 Y146.018 E12.46403
G1 X174.521 Y146.732 E12.5034
G1 X174.208 Y147.252 E12.53368
G1 X174.461 Y147.467 E12.55025
G1 X175.008 Y148.037 E12.58966
G1 X175.494 Y148.659 E12.62904
G1 X175.916 Y149.326 E12.66842
G1 X176.267 Y150.034 E12.70784
G1 X176.546 Y150.773 E12.74725
G1 X176.748 Y151.536 E12.78663
G1 X176.895 Y152.571 E12.83878
G1 X177.341 Y158.585 E13.13965
G1 X177.359 Y159.375 E13.17907
G1 X177.298 Y160.162 E13.21845
G1 X177.157 Y160.939 E13.25785
G1 X176.938 Y161.698 E13.29726
G1 X176.644 Y162.431 E13.33666
G1 X176.277 Y163.13 E13.37605
G1 X175.842 Y163.789 E13.41545
G1 X175.229 Y164.522 E13.46312
G1 X175.107 Y164.651 E13.47198
G1 X174.536 Y165.196 E13.51136
G1 X173.913 Y165.681 E13.55075
G1 X173.244 Y166.101 E13.59015
G1 X172.536 Y166.45 E13.62954
G1 X171.796 Y166.727 E13.66896
G1 X171.032 Y166.927 E13.70836
G1 X170.252 Y167.049 E13.74774
G1 X169.273 Y167.089 E13.79663
G1 X151.887 Y166.717 E14.66422
G1 X141.888 Y166.653 E15.16308
G1 X141.1 Y166.608 E15.20246
G1 X140.32 Y166.483 E15.24187
G1 X139.236 Y166.17 E15.29816
G1 X139.171 Y166.146 E15.30161
G1 X138.445 Y165.835 E15.34102
G1 X137.754 Y165.453 E15.38041
G1 X136.925 Y164.859 E15.43129
G1 X121.819 Y152.465 E16.40613
G1 X121.235 Y151.934 E16.44551
G1 X120.707 Y151.346 E16.48494
G1 X120.038 Y150.38 E16.54356
G1 X120.004 Y150.322 E16.54692
G1 X119.64 Y149.621 E16.58632
G1 X119.348 Y148.887 E16.62573
G1 X119.086 Y147.916 E16.67591
G1 X114.195 Y123.612 E17.91275
G1 X100.982 Y92.08 E19.61842
G1 X98.141 Y90.961 E19.77076
G1 X82.35 Y84.654 E20.61908
G1 X66.894 Y87.933 E21.40735
G1 X66.841 Y88.043 E21.41344
G1 X65.707 Y90.285 E21.53879
G1 X65.316 Y90.97 E21.57814
G1 X64.669 Y91.84 E21.63223
G1 X64.639 Y91.875 E21.63453
G1 X64.096 Y92.448 E21.67391
G1 X63.213 Y93.173 E21.73091
G1 X58.585 Y96.438 E22.01348
G1 X57.918 Y96.86 E22.05286
G1 X57.211 Y97.212 E22.09226
G1 X56.747 Y97.397 E22.11718
G1 X55.993 Y97.633 E22.1566
G1 X55.023 Y97.819 E22.20588
G1 X48.406 Y98.657 E22.53864
G1 X47.619 Y98.717 E22.57801
G1 X46.829 Y98.696 E22.61744
G1 X46.166 Y98.617 E22.65075
G1 X46.111 Y98.608 E22.65353
G1 X45.34 Y98.441 E22.69289
G1 X44.315 Y98.087 E22.74699
G1 X39.451 Y96.016 E23.01074
G1 X38.741 Y95.67 E23.05014
G1 X38.07 Y95.254 E23.08953
G1 X37.154 Y94.513 E23.14831
G1 X37.101 Y94.463 E23.15195
G1 X36.555 Y93.892 E23.19136
G1 X36.069 Y93.27 E23.23074
G1 X35.507 Y92.336 E23.28512
G1 X33.549 Y88.501 E23.49995
G1 X33.226 Y87.78 E23.53936
G1 X32.94 Y86.891 E23.58595
G1 X32.93 Y86.852 E23.58796
G1 X32.773 Y86.078 E23.62736
G1 X32.687 Y85.01 E23.68082
G1 X32.63 Y80.341 E23.91377
G1 X32.673 Y79.415 E23.96002
G1 X32.676 Y79.387 E23.96143
G1 X32.857 Y78.357 E24.0136
G1 X34.009 Y73.669 E24.25444
G1 X34.236 Y72.912 E24.29387
G1 X34.38 Y72.54 E24.31377
G1 X38.786 Y61.923 E24.88726
G1 X39.302 Y60.9 E24.94442
G1 X39.707 Y60.287 E24.98108
G1 X48.07 Y48.857 E25.68766
G1 X48.568 Y48.244 E25.72706
M205 X10 Y10
G0 F6000 X48.879 Y48.497
M205 X8 Y8
G1 F1200 X49.424 Y47.954 E25.76545
G1 X50.022 Y47.471 E25.8038
G1 X50.928 Y46.909 E25.85699
G1 X51.01 Y46.866 E25.86161
G1 X51.709 Y46.545 E25.89998
G1 X52.438 Y46.298 E25.93838
G1 X53.188 Y46.128 E25.97675
G1 X54.254 Y46.023 E26.03019
G1 X135.566 Y43.905 E30.08824
G1 X139.85 Y43.611 E30.30247
G1 X140.217 Y43.595 E30.3208
G1 X155.526 Y43.308 E31.0847
G1 X156.295 Y43.334 E31.12309
G1 X157.057 Y43.439 E31.16146
G1 X157.804 Y43.623 E31.19984
G1 X158.528 Y43.883 E31.23822
G1 X159.344 Y44.286 E31.28363
G1 X159.44 Y44.341 E31.28915
G1 X160.086 Y44.758 E31.32751
G1 X160.686 Y45.239 E31.36587
G1 X161.233 Y45.78 E31.40426
G1 X161.72 Y46.375 E31.44262
G1 X162.266 Y47.235 E31.49344
G1 X164.136 Y50.684 E31.68917
G1 X164.467 Y51.378 E31.72754
G1 X164.724 Y52.103 E31.76591
G1 X164.905 Y52.851 E31.80431
G1 X165.007 Y53.613 E31.84266
G1 X165.029 Y54.382 E31.88104
G1 X164.971 Y55.149 E31.91942
G1 X164.834 Y55.906 E31.9578
G1 X164.619 Y56.644 E31.99615
G1 X164.307 Y57.404 E32.03713
G1 X164.224 Y57.663 E32.0507
G1 X164.758 Y58.217 E32.08909
G1 X165.232 Y58.822 E32.12744
G1 X165.641 Y59.474 E32.16584
G1 X165.98 Y60.165 E32.20423
G1 X166.245 Y60.887 E32.2426
G1 X166.433 Y61.632 E32.28094
G1 X166.536 Y62.317 E32.3155
G1 X167.105 Y67.854 E32.59319
G1 X167.144 Y68.622 E32.63156
G1 X167.103 Y69.39 E32.66993
G1 X166.982 Y70.149 E32.70827
G1 X166.783 Y70.892 E32.74665
G1 X166.44 Y71.761 E32.79326
G1 X166.392 Y71.863 E32.79888
G1 X166.028 Y72.541 E32.83727
G1 X165.597 Y73.178 E32.87565
G1 X165.101 Y73.766 E32.91402
G1 X164.548 Y74.3 E32.95238
G1 X163.745 Y74.906 E33.00257
G1 X148.889 Y84.618 E33.88806
G1 X148.889 Y94.608 E34.38647
G1 X148.849 Y95.376 E34.42483
G1 X148.73 Y96.136 E34.46321
G1 X148.532 Y96.879 E34.50157
G1 X148.258 Y97.598 E34.53996
G1 X147.911 Y98.284 E34.57832
G1 X147.495 Y98.931 E34.61669
G1 X147.014 Y99.531 E34.65506
G1 X146.605 Y99.958 E34.68456
G1 X146.722 Y100.091 E34.69339
G1 X147.236 Y100.663 E34.73176
G1 X147.689 Y101.285 E34.77015
G1 X148.075 Y101.95 E34.80851
G1 X148.39 Y102.652 E34.8469
G1 X148.63 Y103.383 E34.88528
G1 X148.793 Y104.134 E34.92362
G1 X148.877 Y104.899 E34.96202
G1 X148.889 Y105.324 E34.98323
G1 X148.889 Y110 E35.21652
G1 X148.849 Y110.768 E35.25488
G1 X148.73 Y111.528 E35.29326
G1 X148.532 Y112.271 E35.33162
G1 X148.258 Y112.99 E35.37001
G1 X147.911 Y113.676 E35.40837
G1 X147.609 Y114.146 E35.43624
G1 X147.928 Y114.66 E35.46642
G1 X148.264 Y115.352 E35.5048
G1 X148.527 Y116.074 E35.54313
G1 X148.713 Y116.821 E35.58154
G1 X148.834 Y117.758 E35.62867
G1 X149.628 Y130.001 E36.24076
G1 X150.944 Y130.018 E36.30642
G1 X167.25 Y129.636 E37.12016
G1 X168.018 Y129.658 E37.15849
G1 X168.781 Y129.76 E37.19689
G1 X169.529 Y129.94 E37.23528
G1 X170.254 Y130.197 E37.27365
G1 X170.948 Y130.528 E37.31201
G1 X171.604 Y130.929 E37.35037
G1 X172.216 Y131.396 E37.38878
G1 X172.64 Y131.783 E37.41742
G1 X173.169 Y132.341 E37.45578
G1 X173.638 Y132.951 E37.49417
G1 X174.04 Y133.606 E37.53251
G1 X174.373 Y134.3 E37.57091
G1 X174.632 Y135.024 E37.60927
G1 X174.814 Y135.771 E37.64763
G1 X174.917 Y136.534 E37.68604
G1 X174.942 Y137.028 E37.71072
G1 X175.038 Y142.94 E38.00571
G1 X175.011 Y143.709 E38.0441
G1 X174.903 Y144.47 E38.08245
G1 X174.718 Y145.217 E38.12084
G1 X174.456 Y145.94 E38.15921
G1 X174.12 Y146.632 E38.19758
G1 X173.714 Y147.285 E38.23595
G1 X173.681 Y147.329 E38.23869
G1 X174.201 Y147.772 E38.27277
G1 X174.732 Y148.329 E38.31116
G1 X175.202 Y148.938 E38.34954
G1 X175.606 Y149.592 E38.3879
G1 X175.94 Y150.285 E38.42628
G1 X176.2 Y151.009 E38.46465
G1 X176.384 Y151.756 E38.50304
G1 X176.496 Y152.601 E38.54556
G1 X176.942 Y158.615 E38.84643
G1 X176.959 Y159.384 E38.8848
G1 X176.896 Y160.15 E38.92315
G1 X176.754 Y160.906 E38.96152
G1 X176.534 Y161.643 E38.99989
G1 X176.238 Y162.353 E39.03827
G1 X175.871 Y163.029 E39.07665
G1 X175.436 Y163.663 E39.11501
G1 X174.938 Y164.247 E39.1533
G1 X174.816 Y164.376 E39.16216
G1 X174.26 Y164.906 E39.20048
G1 X173.651 Y165.376 E39.23886
G1 X172.996 Y165.78 E39.27725
G1 X172.304 Y166.115 E39.31561
G1 X171.58 Y166.375 E39.35399
G1 X170.833 Y166.559 E39.39237
G1 X170.071 Y166.664 E39.43074
G1 X169.282 Y166.689 E39.47013
G1 X151.899 Y166.317 E40.33757
G1 X141.891 Y166.253 E40.83688
G1 X141.123 Y166.208 E40.87526
G1 X140.364 Y166.084 E40.91363
G1 X139.375 Y165.795 E40.96503
G1 X139.31 Y165.771 E40.96849
G1 X138.603 Y165.467 E41.00689
G1 X137.932 Y165.092 E41.04524
G1 X137.179 Y164.55 E41.09152
G1 X122.073 Y152.156 E42.06637
G1 X121.505 Y151.638 E42.10472
G1 X120.993 Y151.063 E42.14313
G1 X120.383 Y150.177 E42.19679
G1 X120.349 Y150.119 E42.20015
G1 X119.995 Y149.436 E42.23853
G1 X119.714 Y148.721 E42.27686
G1 X119.478 Y147.837 E42.3225
G1 X114.579 Y123.494 E43.56133
G1 X101.285 Y91.768 E45.27749
G1 X98.289 Y90.589 E45.43812
G1 X82.387 Y84.238 E46.2924
G1 X66.617 Y87.583 E47.09668
G1 X66.484 Y87.862 E47.1121
G1 X65.35 Y90.104 E47.23744
G1 X64.968 Y90.771 E47.27579
G1 X64.365 Y91.58 E47.32613
G1 X64.335 Y91.615 E47.32843
G1 X63.805 Y92.172 E47.36679
G1 X62.983 Y92.846 E47.41982
G1 X58.355 Y96.111 E47.70239
G1 X57.704 Y96.521 E47.74077
G1 X57.014 Y96.861 E47.77915
G1 X56.608 Y97.022 E47.80094
G1 X55.874 Y97.251 E47.8393
G1 X54.973 Y97.422 E47.88505
G1 X48.356 Y98.26 E48.21781
G1 X47.589 Y98.317 E48.25619
G1 X46.82 Y98.294 E48.29457
G1 X46.231 Y98.222 E48.32417
G1 X46.176 Y98.213 E48.32695
G1 X45.424 Y98.049 E48.36535
G1 X44.472 Y97.719 E48.41562
G1 X39.608 Y95.648 E48.67937
G1 X38.917 Y95.31 E48.71774
G1 X38.265 Y94.902 E48.75612
G1 X37.429 Y94.222 E48.80988
G1 X37.376 Y94.172 E48.81352
G1 X36.845 Y93.616 E48.85187
G1 X36.374 Y93.007 E48.89028
G1 X35.863 Y92.154 E48.93989
G1 X33.905 Y88.319 E49.15471
G1 X33.592 Y87.617 E49.19306
G1 X33.328 Y86.792 E49.23628
G1 X33.318 Y86.753 E49.23828
G1 X33.166 Y85.999 E49.27666
G1 X33.087 Y85.005 E49.32641
G1 X33.03 Y80.336 E49.55936
G1 X33.071 Y79.458 E49.60321
G1 X33.074 Y79.43 E49.60462
G1 X33.246 Y78.452 E49.65416
G1 X34.398 Y73.764 E49.895
G1 X34.749 Y72.694 E49.95118
G1 X39.155 Y62.077 E50.52467
G1 X39.645 Y61.106 E50.57893
G1 X40.03 Y60.523 E50.61379
G1 X48.393 Y49.093 E51.32037
G1 X48.879 Y48.497 E51.35874
M205 X10 Y10
G0 F6000 X49.189 Y48.75
M205 X8 Y8
G1 F1200 X49.722 Y48.225 E51.39606
G1 X50.307 Y47.759 E51.43338
G1 X51.114 Y47.264 E51.48061
G1 X51.196 Y47.221 E51.48523
G1 X51.876 Y46.909 E51.52255
G1 X52.586 Y46.672 E51.5599
G1 X53.316 Y46.512 E51.59718
G1 X54.265 Y46.422 E51.64474
G1 X135.602 Y44.303 E55.70403
G1 X139.877 Y44.01 E55.91782
G1 X140.225 Y43.995 E55.93519
G1 X155.534 Y43.708 E56.6991
G1 X156.281 Y43.734 E56.73639
G1 X157.022 Y43.84 E56.77373
G1 X157.747 Y44.024 E56.81105
G1 X158.448 Y44.284 E56.84835
G1 X159.145 Y44.633 E56.88724
G1 X159.241 Y44.688 E56.89276
G1 X159.869 Y45.094 E56.93007
G1 X160.45 Y45.565 E56.96738
G1 X160.978 Y46.095 E57.00471
G1 X161.446 Y46.678 E57.042
G1 X161.915 Y47.426 E57.08605
G1 X163.785 Y50.875 E57.28179
G1 X164.106 Y51.55 E57.31908
G1 X164.353 Y52.256 E57.35639
G1 X164.523 Y52.985 E57.39374
G1 X164.614 Y53.727 E57.43103
G1 X164.626 Y54.475 E57.46836
G1 X164.558 Y55.22 E57.50568
G1 X164.411 Y55.954 E57.54303
G1 X164.186 Y56.667 E57.58033
G1 X163.946 Y57.231 E57.61091
G1 X163.685 Y57.733 E57.63913
G1 X163.966 Y57.97 E57.65747
G1 X164.483 Y58.51 E57.69477
G1 X164.94 Y59.103 E57.73212
G1 X165.331 Y59.74 E57.76941
G1 X165.651 Y60.416 E57.80673
G1 X165.898 Y61.123 E57.84409
G1 X166.068 Y61.851 E57.88139
G1 X166.138 Y62.357 E57.90687
G1 X166.707 Y67.894 E58.18457
G1 X166.744 Y68.642 E58.22193
G1 X166.701 Y69.388 E58.25921
G1 X166.578 Y70.126 E58.29654
G1 X166.377 Y70.847 E58.33388
G1 X166.078 Y71.591 E58.37388
G1 X166.03 Y71.693 E58.37951
G1 X165.675 Y72.351 E58.41681
G1 X165.253 Y72.969 E58.45414
G1 X164.767 Y73.537 E58.49144
G1 X164.223 Y74.051 E58.52878
G1 X163.526 Y74.571 E58.57216
G1 X148.489 Y84.401 E59.46844
G1 X148.489 Y94.608 E59.97767
