;FLAVOR:Marlin
;TIME:1845
;Filament used: 1.32822m
;Layer height: 0.2
;MINX:86.075
;MINY:79.428
;MINZ:0.3
;MAXX:123.923
;MAXY:130.573
;MAXZ:8.775
;Generated with Cura_SteamEngine 4.13.1
M82 ;absolute extrusion mode
G21                                        ; metric values 
G90                                        ; absolute positioning 
M82                                        ; set extruder to absolute mode 
M107                                       ; start with the fan off 
M140 S60           ; Start heating the bed 
G4 S60                                     ; wait 1 minute 
M104 S210         ; start heating the hot end 
M190 S60           ; wait for bed 
M109 S210         ; wait for hotend 
M300 S1000 P500                            ; BEEP heating done 
G28 X0 Y10 Z0                              ; move X/Y to min endstops 
M420 S1                                    ; Enable leveling 
M420 Z2.0                                  ; Set leveling fading height to 2 mm 
G0 Z0.15                                   ; lift nozzle a bit 
G92 E0                                     ; zero the extruded length 
G1 X50 E25 F500                            ; Extrude 25mm of filament in a 5cm line. 
G92 E0                                     ; zero the extruded length again 
G1 E-2 F500                                ; Retract a little 
G1 X120 F4000                              ; Quickly wipe away from the filament line`
G92 E0
G92 E0
G1 F1500 E-6
;LAYER_COUNT:43
;LAYER:0
M106 S76.5
M205 X10 Y10
G1 F600 Z0.375
G0 F6000 X92.257 Y84.703 Z0.375
M205 X8 Y8
;TYPE:SKIRT
G1 F600 Z0.3
G1 F1500 E0
G1 F1200 X92.827 Y84.186 E0.03839
G1 X94.365 Y82.925 E0.13762
G1 X95.001 Y82.455 E0.17707
G1 X95.646 Y82.069 E0.21457
G1 X97.392 Y81.134 E0.31338
G1 X97.924 Y80.874 E0.34293
G1 X98.835 Y80.536 E0.3914
G1 X100.734 Y79.962 E0.49038
G1 X101.284 Y79.817 E0.51876
G1 X102.248 Y79.661 E0.56748
G1 X104.226 Y79.466 E0.66664
G1 X105.009 Y79.428 E0.70575
G1 X105.774 Y79.466 E0.74396
G1 X107.752 Y79.661 E0.84312
G1 X108.738 Y79.822 E0.89296
G1 X109.266 Y79.962 E0.92022
G1 X111.165 Y80.536 E1.01919
G1 X112.094 Y80.882 E1.06865
G1 X112.608 Y81.134 E1.09721
G1 X114.354 Y82.069 E1.19602
G1 X115.017 Y82.467 E1.2346
G1 X115.635 Y82.925 E1.27298
G1 X117.172 Y84.185 E1.37213
G1 X117.757 Y84.717 E1.41158
G1 X118.274 Y85.287 E1.44997
G1 X119.535 Y86.825 E1.5492
G1 X119.942 Y87.367 E1.58301
G1 X120.39 Y88.104 E1.62604
G1 X121.326 Y89.852 E1.72497
G1 X121.586 Y90.384 E1.75451
G1 X121.926 Y91.299 E1.80321
G1 X122.505 Y93.218 E1.90321
G1 X122.694 Y93.985 E1.94262
G1 X122.799 Y94.706 E1.97897
G1 X122.994 Y96.684 E2.07813
G1 X123.032 Y97.469 E2.11734
G1 X122.994 Y98.234 E2.15555
G1 X122.799 Y100.212 E2.25472
G1 X122.638 Y101.198 E2.30456
G1 X122.499 Y101.724 E2.3317
G1 X121.926 Y103.621 E2.43057
G1 X121.754 Y104.08 E2.45502
G1 X123.712 Y112.239 E2.87363
G1 X123.857 Y113.015 E2.91302
G1 X123.923 Y113.802 E2.95242
G1 X123.909 Y114.592 E2.99184
G1 X123.815 Y115.376 E3.03123
G1 X123.643 Y116.146 E3.07059
G1 X123.393 Y116.896 E3.11004
G1 X123.17 Y117.414 E3.13817
G1 X122.807 Y118.115 E3.17756
G1 X122.374 Y118.776 E3.21698
G1 X121.878 Y119.39 E3.25636
G1 X121.321 Y119.95 E3.29576
G1 X120.711 Y120.452 E3.33518
G1 X119.751 Y121.059 E3.39184
G1 X118.502 Y121.727 E3.46251
G1 X118.554 Y122.405 E3.49643
G1 X118.535 Y123.194 E3.53581
G1 X118.435 Y123.977 E3.57519
G1 X118.257 Y124.747 E3.61462
G1 X118.003 Y125.494 E3.65398
G1 X117.673 Y126.212 E3.6934
G1 X117.091 Y127.158 E3.74882
G1 X116.971 Y127.325 E3.75908
G1 X116.479 Y127.942 E3.79845
G1 X115.926 Y128.506 E3.83785
G1 X115.319 Y129.011 E3.87725
G1 X114.665 Y129.453 E3.91663
G1 X113.968 Y129.826 E3.95607
G1 X113.238 Y130.126 E3.99544
G1 X112.481 Y130.352 E4.03486
G1 X111.706 Y130.499 E4.07421
G1 X110.637 Y130.573 E4.12767
G1 X99.338 Y130.573 E4.69138
G1 X98.549 Y130.533 E4.7308
G1 X97.769 Y130.414 E4.77016
G1 X97.004 Y130.216 E4.80958
G1 X96.264 Y129.942 E4.84895
G1 X95.555 Y129.594 E4.88836
G1 X94.884 Y129.176 E4.9278
G1 X94.26 Y128.693 E4.96716
G1 X93.687 Y128.15 E5.00655
G1 X93.004 Y127.325 E5.05998
G1 X92.884 Y127.158 E5.07024
G1 X92.456 Y126.494 E5.10965
G1 X92.098 Y125.79 E5.14906
G1 X91.812 Y125.054 E5.18845
G1 X91.603 Y124.292 E5.22787
G1 X91.471 Y123.514 E5.26724
G1 X91.419 Y122.726 E5.30664
G1 X91.447 Y121.937 E5.34603
G1 X91.477 Y121.717 E5.35711
G1 X90.248 Y121.059 E5.42666
G1 X89.571 Y120.651 E5.46609
G1 X88.94 Y120.177 E5.50546
G1 X88.359 Y119.642 E5.54487
G1 X87.835 Y119.051 E5.58427
G1 X87.374 Y118.41 E5.62366
G1 X86.83 Y117.414 E5.68028
G1 X86.774 Y117.291 E5.68703
G1 X86.484 Y116.557 E5.7264
G1 X86.269 Y115.797 E5.76581
G1 X86.132 Y115.019 E5.80522
G1 X86.075 Y114.231 E5.84463
G1 X86.097 Y113.442 E5.88401
G1 X86.2 Y112.659 E5.92341
G1 X86.288 Y112.239 E5.94482
G1 X88.246 Y104.08 E6.36343
G1 X88.075 Y103.622 E6.38782
G1 X87.502 Y101.726 E6.48664
G1 X87.357 Y101.177 E6.51497
G1 X87.201 Y100.214 E6.56364
G1 X87.006 Y98.237 E6.66275
G1 X86.968 Y97.451 E6.70201
G1 X87.006 Y96.686 E6.74022
G1 X87.201 Y94.708 E6.83939
G1 X87.362 Y93.722 E6.88923
G1 X87.501 Y93.196 E6.91637
G1 X88.074 Y91.299 E7.01524
G1 X88.437 Y90.333 E7.06672
G1 X88.674 Y89.852 E7.09347
G1 X89.609 Y88.106 E7.19228
G1 X90.007 Y87.443 E7.23086
G1 X90.465 Y86.825 E7.26924
G1 X91.725 Y85.288 E7.36839
G1 X92.257 Y84.703 E7.40784
M205 X10 Y10
G0 F6000 X92.539 Y84.985
M205 X8 Y8
G1 F1200 X93.08 Y84.496 E7.44423
G1 X94.618 Y83.235 E7.54345
G1 X95.223 Y82.788 E7.58098
G1 X95.835 Y82.421 E7.61658
G1 X97.581 Y81.486 E7.71539
G1 X98.087 Y81.24 E7.74346
G1 X98.951 Y80.919 E7.78945
G1 X100.85 Y80.345 E7.88842
G1 X101.373 Y80.207 E7.91541
G1 X102.287 Y80.059 E7.9616
G1 X104.265 Y79.864 E8.06076
G1 X105.009 Y79.828 E8.09792
G1 X105.735 Y79.864 E8.13419
G1 X107.713 Y80.059 E8.23335
G1 X108.649 Y80.212 E8.28067
G1 X109.15 Y80.345 E8.30653
G1 X111.049 Y80.919 E8.4055
G1 X111.931 Y81.248 E8.45247
G1 X112.419 Y81.486 E8.47956
G1 X114.165 Y82.421 E8.57837
G1 X114.795 Y82.8 E8.61505
G1 X115.381 Y83.234 E8.65143
G1 X116.918 Y84.494 E8.75058
G1 X117.475 Y84.999 E8.78809
G1 X117.964 Y85.54 E8.82447
G1 X119.225 Y87.078 E8.9237
G1 X119.612 Y87.594 E8.95588
G1 X120.038 Y88.293 E8.99672
G1 X120.974 Y90.041 E9.09564
G1 X121.22 Y90.547 E9.12371
G1 X121.543 Y91.414 E9.16987
G1 X122.122 Y93.333 E9.26987
G1 X122.305 Y94.08 E9.30824
G1 X122.401 Y94.745 E9.34176
G1 X122.596 Y96.723 E9.44092
G1 X122.632 Y97.469 E9.47819
G1 X122.596 Y98.195 E9.51445
G1 X122.401 Y100.173 E9.61361
G1 X122.248 Y101.109 E9.66093
G1 X122.116 Y101.609 E9.68673
G1 X121.543 Y103.506 E9.78559
G1 X121.337 Y104.056 E9.81489
G1 X123.323 Y112.332 E10.23951
G1 X123.463 Y113.089 E10.27792
G1 X123.524 Y113.855 E10.31625
G1 X123.505 Y114.624 E10.35463
G1 X123.407 Y115.387 E10.39301
G1 X123.23 Y116.135 E10.43136
G1 X122.862 Y117.125 E10.48405
G1 X122.806 Y117.248 E10.49079
G1 X122.451 Y117.931 E10.5292
G1 X122.028 Y118.573 E10.56755
G1 X121.54 Y119.167 E10.60591
G1 X120.993 Y119.708 E10.64429
G1 X120.392 Y120.189 E10.68269
G1 X119.562 Y120.707 E10.7315
G1 X118.067 Y121.507 E10.8161
G1 X118.102 Y121.708 E10.82628
G1 X118.156 Y122.475 E10.86464
G1 X118.129 Y123.244 E10.90303
G1 X118.023 Y124.005 E10.94136
G1 X117.839 Y124.752 E10.97974
G1 X117.578 Y125.476 E11.01814
G1 X117.243 Y126.168 E11.05649
G1 X116.766 Y126.924 E11.10109
G1 X116.646 Y127.091 E11.11135
G1 X116.166 Y127.692 E11.14972
G1 X115.625 Y128.239 E11.18811
G1 X115.031 Y128.727 E11.22646
G1 X114.389 Y129.151 E11.26484
G1 X113.707 Y129.506 E11.3032
G1 X112.991 Y129.788 E11.34159
G1 X112.251 Y129.995 E11.37993
G1 X111.492 Y130.123 E11.41833
G1 X110.637 Y130.173 E11.46106
G1 X99.338 Y130.173 E12.02477
G1 X98.57 Y130.133 E12.06314
G1 X97.81 Y130.014 E12.10152
G1 X97.067 Y129.816 E12.13988
G1 X96.348 Y129.542 E12.17827
G1 X95.662 Y129.195 E12.21662
G1 X95.015 Y128.779 E12.255
G1 X94.415 Y128.298 E12.29336
G1 X93.868 Y127.757 E12.33174
G1 X93.329 Y127.091 E12.37449
G1 X93.209 Y126.924 E12.38475
G1 X92.793 Y126.277 E12.42312
G1 X92.446 Y125.59 E12.46152
G1 X92.173 Y124.871 E12.49989
G1 X91.976 Y124.128 E12.53824
G1 X91.857 Y123.368 E12.57662
G1 X91.818 Y122.6 E12.61498
G1 X91.859 Y121.832 E12.65336
G1 X91.912 Y121.496 E12.67033
G1 X90.437 Y120.706 E12.7538
G1 X89.778 Y120.308 E12.79221
G1 X89.165 Y119.844 E12.83057
G1 X88.603 Y119.319 E12.86894
G1 X88.098 Y118.739 E12.9073
G1 X87.657 Y118.109 E12.94567
G1 X87.194 Y117.248 E12.99444
G1 X87.138 Y117.125 E13.00119
G1 X86.856 Y116.41 E13.03953
G1 X86.65 Y115.669 E13.0779
G1 X86.522 Y114.91 E13.1163
G1 X86.473 Y114.143 E13.15465
G1 X86.505 Y113.374 E13.19305
G1 X86.677 Y112.332 E13.24574
G1 X88.663 Y104.056 E13.67035
G1 X88.457 Y103.507 E13.6996
G1 X87.884 Y101.611 E13.79842
G1 X87.747 Y101.088 E13.82539
G1 X87.599 Y100.174 E13.87159
G1 X87.404 Y98.197 E13.9707
G1 X87.368 Y97.451 E14.00796
G1 X87.404 Y96.725 E14.04422
G1 X87.599 Y94.747 E14.14339
G1 X87.752 Y93.811 E14.1907
G1 X87.884 Y93.311 E14.2165
G1 X88.457 Y91.414 E14.31537
G1 X88.802 Y90.497 E14.36425
G1 X89.026 Y90.041 E14.38959
G1 X89.961 Y88.295 E14.48841
G1 X90.34 Y87.665 E14.52509
G1 X90.774 Y87.079 E14.56147
G1 X92.034 Y85.542 E14.66062
G1 X92.539 Y84.985 E14.69813
M205 X10 Y10
G0 F6000 X92.822 Y85.268
M205 X8 Y8
G1 F1200 X93.334 Y84.805 E14.73257
G1 X94.872 Y83.544 E14.83179
G1 X95.445 Y83.121 E14.86733
G1 X96.023 Y82.774 E14.90096
G1 X97.769 Y81.839 E14.99977
G1 X98.249 Y81.605 E15.02642
G1 X99.067 Y81.301 E15.06995
G1 X100.966 Y80.727 E15.16893
G1 X101.462 Y80.597 E15.19451
G1 X102.326 Y80.457 E15.23818
G1 X104.304 Y80.262 E15.33734
G1 X105.009 Y80.228 E15.37255
G1 X105.696 Y80.262 E15.40687
G1 X107.674 Y80.457 E15.50603
G1 X108.56 Y80.602 E15.55082
G1 X109.034 Y80.727 E15.57528
G1 X110.933 Y81.301 E15.67425
G1 X111.769 Y81.613 E15.71877
G1 X112.231 Y81.839 E15.74443
G1 X113.977 Y82.774 E15.84324
G1 X114.573 Y83.133 E15.87795
G1 X115.128 Y83.544 E15.91241
G1 X116.665 Y84.804 E16.01156
G1 X117.192 Y85.282 E16.04706
G1 X117.655 Y85.794 E16.0815
G1 X118.916 Y87.332 E16.18072
G1 X119.282 Y87.82 E16.21115
G1 X119.685 Y88.482 E16.24982
G1 X120.621 Y90.23 E16.34874
G1 X120.855 Y90.709 E16.37534
G1 X121.16 Y91.53 E16.41904
G1 X121.739 Y93.449 E16.51904
G1 X121.916 Y94.176 E16.55637
G1 X122.003 Y94.784 E16.58701
G1 X122.198 Y96.762 E16.68617
G1 X122.232 Y97.469 E16.72148
G1 X122.198 Y98.156 E16.7558
G1 X122.003 Y100.134 E16.85496
G1 X121.858 Y101.02 E16.89975
G1 X121.733 Y101.493 E16.92416
G1 X121.16 Y103.39 E17.02303
G1 X120.92 Y104.032 E17.05722
G1 X122.934 Y112.426 E17.48788
G1 X123.069 Y113.161 E17.52517
G1 X123.125 Y113.907 E17.56249
G1 X123.102 Y114.655 E17.59982
G1 X122.998 Y115.396 E17.63716
G1 X122.816 Y116.121 E17.67445
G1 X122.498 Y116.96 E17.71921
G1 X122.442 Y117.083 E17.72595
G1 X122.096 Y117.746 E17.76327
G1 X121.681 Y118.368 E17.80057
G1 X121.202 Y118.943 E17.83791
G1 X120.665 Y119.464 E17.87523
G1 X120.075 Y119.924 E17.91256
G1 X119.373 Y120.354 E17.95363
G1 X117.623 Y121.29 E18.05264
G1 X117.71 Y121.797 E18.07831
G1 X117.757 Y122.543 E18.1156
G1 X117.723 Y123.291 E18.15295
G1 X117.611 Y124.03 E18.19024
G1 X117.419 Y124.754 E18.22761
G1 X117.152 Y125.452 E18.2649
G1 X116.812 Y126.118 E18.3022
G1 X116.442 Y126.691 E18.33623
G1 X116.322 Y126.858 E18.34649
G1 X115.853 Y127.441 E18.38382
G1 X115.325 Y127.971 E18.42114
G1 X114.744 Y128.442 E18.45846
G1 X114.115 Y128.848 E18.49581
G1 X113.447 Y129.184 E18.53311
G1 X112.747 Y129.447 E18.57042
G1 X112.023 Y129.634 E18.60773
G1 X111.283 Y129.743 E18.64504
G1 X110.637 Y129.773 E18.67731
G1 X99.338 Y129.773 E19.24102
G1 X98.591 Y129.733 E19.27834
G1 X97.853 Y129.614 E19.31563
G1 X97.131 Y129.416 E19.35298
G1 X96.435 Y129.143 E19.39028
G1 X95.772 Y128.796 E19.42762
G1 X95.149 Y128.381 E19.46496
G1 X94.575 Y127.902 E19.50226
G1 X94.054 Y127.365 E19.53959
G1 X93.653 Y126.858 E19.57184
G1 X93.533 Y126.691 E19.5821
G1 X93.13 Y126.061 E19.61941
G1 X92.796 Y125.391 E19.65676
G1 X92.535 Y124.69 E19.69408
G1 X92.351 Y123.965 E19.7314
G1 X92.245 Y123.225 E19.76869
G1 X92.219 Y122.477 E19.80603
G1 X92.273 Y121.731 E19.84335
G1 X92.355 Y121.279 E19.86627
G1 X90.625 Y120.353 E19.96416
G1 X89.986 Y119.966 E20.00143
G1 X89.391 Y119.512 E20.03877
G1 X88.848 Y118.997 E20.07611
G1 X88.363 Y118.427 E20.11345
G1 X87.942 Y117.809 E20.15075
G1 X87.558 Y117.083 E20.19173
G1 X87.502 Y116.96 E20.19847
G1 X87.229 Y116.263 E20.23582
G1 X87.032 Y115.542 E20.27311
G1 X86.913 Y114.803 E20.31045
G1 X86.873 Y114.056 E20.34777
G1 X86.913 Y113.309 E20.38509
G1 X87.066 Y112.426 E20.4298
G1 X89.08 Y104.032 E20.86047
G1 X88.84 Y103.391 E20.89461
G1 X88.267 Y101.495 E20.99343
G1 X88.137 Y100.999 E21.01901
G1 X87.997 Y100.135 E21.06268
G1 X87.802 Y98.158 E21.16179
G1 X87.768 Y97.451 E21.1971
G1 X87.802 Y96.764 E21.23142
G1 X87.997 Y94.786 E21.33058
G1 X88.142 Y93.9 E21.37537
G1 X88.267 Y93.427 E21.39978
G1 X88.84 Y91.53 E21.49865
G1 X89.167 Y90.661 E21.54497
G1 X89.379 Y90.229 E21.56898
G1 X90.314 Y88.483 E21.66779
G1 X90.673 Y87.887 E21.7025
G1 X91.084 Y87.332 E21.73696
G1 X92.344 Y85.795 E21.83611
G1 X92.822 Y85.268 E21.87161
M205 X10 Y10
G0 F6000 X93.105 Y85.551
M205 X8 Y8
G1 F1200 X93.587 Y85.114 E21.90406
G1 X95.125 Y83.853 E22.00329
G1 X95.667 Y83.453 E22.0369
G1 X96.212 Y83.127 E22.06858
G1 X97.958 Y82.192 E22.16739
G1 X98.411 Y81.971 E22.19254
G1 X99.182 Y81.684 E22.23358
G1 X101.081 Y81.11 E22.33256
G1 X101.55 Y80.987 E22.35675
G1 X102.365 Y80.855 E22.39794
G1 X104.343 Y80.66 E22.4971
G1 X105.009 Y80.628 E22.53036
G1 X105.657 Y80.66 E22.56273
G1 X107.635 Y80.855 E22.66189
G1 X108.472 Y80.992 E22.70421
G1 X108.919 Y81.11 E22.72727
G1 X110.818 Y81.684 E22.82625
G1 X111.607 Y81.979 E22.86827
G1 X112.042 Y82.192 E22.89244
G1 X113.788 Y83.127 E22.99125
G1 X114.351 Y83.465 E23.02401
G1 X114.874 Y83.853 E23.0565
G1 X116.411 Y85.113 E23.15565
G1 X116.909 Y85.565 E23.18921
G1 X117.346 Y86.047 E23.22166
G1 X118.607 Y87.585 E23.32089
G1 X118.953 Y88.047 E23.34969
G1 X119.332 Y88.67 E23.38607
G1 X120.268 Y90.418 E23.48499
G1 X120.489 Y90.871 E23.51014
G1 X120.777 Y91.646 E23.55139
G1 X121.356 Y93.565 E23.65139
G1 X121.527 Y94.27 E23.68758
G1 X121.605 Y94.823 E23.71544
G1 X121.8 Y96.801 E23.8146
G1 X121.832 Y97.469 E23.84797
G1 X121.8 Y98.117 E23.88034
G1 X121.605 Y100.095 E23.9795
G1 X121.468 Y100.932 E24.02181
G1 X121.35 Y101.377 E24.04478
G1 X120.777 Y103.274 E24.14365
G1 X120.503 Y104.008 E24.18273
G1 X122.545 Y112.519 E24.6194
G1 X122.675 Y113.234 E24.65565
G1 X122.726 Y113.958 E24.69186
G1 X122.697 Y114.684 E24.72811
G1 X122.589 Y115.402 E24.76434
G1 X122.402 Y116.104 E24.80058
G1 X122.134 Y116.794 E24.83751
G1 X122.078 Y116.917 E24.84425
G1 X121.741 Y117.56 E24.88047
G1 X121.335 Y118.163 E24.91674
G1 X120.866 Y118.717 E24.95295
G1 X120.339 Y119.217 E24.9892
G1 X119.759 Y119.655 E25.02546
G1 X119.185 Y120.001 E25.05889
G1 X117.173 Y121.077 E25.17273
G1 X117.199 Y121.168 E25.17745
G1 X117.317 Y121.885 E25.2137
G1 X117.357 Y122.61 E25.24993
G1 X117.317 Y123.335 E25.28615
G1 X117.197 Y124.052 E25.32242
G1 X116.999 Y124.751 E25.35867
G1 X116.725 Y125.424 E25.39492
G1 X116.38 Y126.062 E25.4311
G1 X115.997 Y126.624 E25.46503
G1 X115.541 Y127.19 E25.5013
G1 X115.026 Y127.702 E25.53753
G1 X114.458 Y128.155 E25.57377
G1 X113.843 Y128.542 E25.61002
G1 X113.19 Y128.859 E25.64624
G1 X112.506 Y129.103 E25.68247
G1 X111.799 Y129.27 E25.71871
G1 X111.078 Y129.358 E25.75495
G1 X110.637 Y129.373 E25.77696
G1 X99.338 Y129.373 E26.34067
G1 X98.613 Y129.333 E26.3769
G1 X97.896 Y129.214 E26.41316
G1 X97.197 Y129.016 E26.4494
G1 X96.524 Y128.743 E26.48564
G1 X95.885 Y128.398 E26.52187
G1 X95.288 Y127.984 E26.55811
