;FLAVOR:Marlin
;TIME:1768
;Filament used: 1.3715m
;Layer height: 0.2
;MINX:86.075
;MINY:79.428
;MINZ:0.3
;MAXX:123.923
;MAXY:130.573
;MAXZ:8.775
;Generated with Cura_SteamEngine 4.13.1
M82 ;absolute extrusion mode
G21                                        ; metric values 
G90                                        ; absolute positioning 
M82                                        ; set extruder to absolute mode 
M107                                       ; start with the fan off 
M140 S60.0           ; Start heating the bed 
G4 S60                                     ; wait 1 minute 
M104 S220.0         ; start heating the hot end 
M190 S60.0           ; wait for bed 
M109 S220.0         ; wait for hotend 
M300 S1000 P500                            ; BEEP heating done 
G28 X0 Y10 Z0                              ; move X/Y to min endstops 
M420 S1                                    ; Enable leveling 
M420 Z2.0                                  ; Set leveling fading height to 2 mm 
G0 Z0.15                                   ; lift nozzle a bit 
G92 E0                                     ; zero the extruded length 
G1 X50 E25 F500                            ; Extrude 25mm of filament in a 5cm line. 
G92 E0                                     ; zero the extruded length again 
G1 E-2 F500                                ; Retract a little 
G1 X120 F4000                              ; Quickly wipe away from the filament line`
G92 E0
G92 E0
G1 F2400 E-3
;LAYER_COUNT:43
;LAYER:0
M106 S76.5
M205 X10 Y10
G1 F600 Z0.375
G0 F6000 X92.539 Y84.985 Z0.375
M205 X8 Y8
;TYPE:SKIRT
G1 F600 Z0.3
G1 F2400 E0
G1 F1200 X93.08 Y84.496 E0.03638
G1 X94.618 Y83.235 E0.13561
G1 X95.223 Y82.788 E0.17314
G1 X95.835 Y82.421 E0.20874
G1 X97.581 Y81.486 E0.30755
G1 X98.087 Y81.24 E0.33562
G1 X98.951 Y80.919 E0.3816
G1 X100.85 Y80.345 E0.48058
G1 X101.373 Y80.207 E0.50756
G1 X102.287 Y80.059 E0.55376
G1 X104.265 Y79.864 E0.65292
G1 X105.009 Y79.828 E0.69008
G1 X105.735 Y79.864 E0.72634
G1 X107.713 Y80.059 E0.82551
G1 X108.649 Y80.212 E0.87282
G1 X109.15 Y80.345 E0.89868
G1 X111.049 Y80.919 E0.99766
G1 X111.931 Y81.248 E1.04462
G1 X112.419 Y81.486 E1.07171
G1 X114.165 Y82.421 E1.17052
G1 X114.795 Y82.8 E1.2072
G1 X115.381 Y83.234 E1.24358
G1 X116.918 Y84.494 E1.34274
G1 X117.475 Y84.999 E1.38025
G1 X117.964 Y85.54 E1.41663
G1 X119.225 Y87.078 E1.51585
G1 X119.612 Y87.594 E1.54803
G1 X120.038 Y88.293 E1.58887
G1 X120.974 Y90.041 E1.6878
G1 X121.22 Y90.547 E1.71587
G1 X121.543 Y91.414 E1.76203
G1 X122.122 Y93.333 E1.86203
G1 X122.305 Y94.08 E1.9004
G1 X122.401 Y94.745 E1.93392
G1 X122.596 Y96.723 E2.03308
G1 X122.632 Y97.469 E2.07034
G1 X122.596 Y98.195 E2.10661
G1 X122.401 Y100.173 E2.20577
G1 X122.248 Y101.109 E2.25308
G1 X122.116 Y101.609 E2.27888
G1 X121.543 Y103.506 E2.37775
G1 X121.337 Y104.056 E2.40705
G1 X123.323 Y112.332 E2.83166
G1 X123.463 Y113.089 E2.87007
G1 X123.524 Y113.855 E2.90841
G1 X123.505 Y114.624 E2.94678
G1 X123.407 Y115.387 E2.98516
G1 X123.23 Y116.135 E3.02351
G1 X122.862 Y117.125 E3.07621
G1 X122.806 Y117.248 E3.08295
G1 X122.451 Y117.931 E3.12135
G1 X122.028 Y118.573 E3.15971
G1 X121.54 Y119.167 E3.19806
G1 X120.993 Y119.708 E3.23644
G1 X120.392 Y120.189 E3.27485
G1 X119.562 Y120.707 E3.32366
G1 X118.069 Y121.506 E3.40814
G1 X118.104 Y121.704 E3.41817
G1 X118.158 Y122.471 E3.45653
G1 X118.132 Y123.24 E3.49492
G1 X118.026 Y124.002 E3.5333
G1 X117.842 Y124.749 E3.57169
G1 X117.581 Y125.472 E3.61003
G1 X117.247 Y126.165 E3.64841
G1 X116.768 Y126.924 E3.69319
G1 X116.648 Y127.091 E3.70345
G1 X116.168 Y127.692 E3.74182
G1 X115.627 Y128.239 E3.78021
G1 X115.033 Y128.727 E3.81856
G1 X114.391 Y129.151 E3.85694
G1 X113.709 Y129.506 E3.8953
G1 X112.993 Y129.788 E3.9337
G1 X112.253 Y129.995 E3.97203
G1 X111.494 Y130.123 E4.01043
G1 X110.639 Y130.173 E4.05316
G1 X99.337 Y130.173 E4.61702
G1 X98.569 Y130.133 E4.65539
G1 X97.809 Y130.014 E4.69377
G1 X97.066 Y129.816 E4.73213
G1 X96.347 Y129.542 E4.77052
G1 X95.661 Y129.195 E4.80887
G1 X95.014 Y128.779 E4.84725
G1 X94.414 Y128.298 E4.88561
G1 X93.867 Y127.757 E4.92399
G1 X93.328 Y127.091 E4.96674
G1 X93.208 Y126.924 E4.977
G1 X92.792 Y126.277 E5.01537
G1 X92.445 Y125.59 E5.05377
G1 X92.172 Y124.871 E5.09214
G1 X91.975 Y124.128 E5.13049
G1 X91.856 Y123.368 E5.16887
G1 X91.817 Y122.6 E5.20724
G1 X91.858 Y121.832 E5.24561
G1 X91.911 Y121.495 E5.26263
G1 X90.437 Y120.706 E5.34604
G1 X89.778 Y120.308 E5.38444
G1 X89.165 Y119.844 E5.4228
G1 X88.603 Y119.319 E5.46117
G1 X88.098 Y118.739 E5.49954
G1 X87.657 Y118.109 E5.5379
G1 X87.194 Y117.248 E5.58668
G1 X87.138 Y117.125 E5.59342
G1 X86.856 Y116.41 E5.63176
G1 X86.65 Y115.669 E5.67013
G1 X86.522 Y114.91 E5.70854
G1 X86.473 Y114.143 E5.74688
G1 X86.505 Y113.374 E5.78528
G1 X86.677 Y112.332 E5.83797
G1 X88.663 Y104.056 E6.26258
G1 X88.457 Y103.507 E6.29184
G1 X87.884 Y101.611 E6.39065
G1 X87.747 Y101.088 E6.41763
G1 X87.599 Y100.174 E6.46382
G1 X87.404 Y98.197 E6.56293
G1 X87.368 Y97.451 E6.60019
G1 X87.404 Y96.725 E6.63646
G1 X87.599 Y94.747 E6.73562
G1 X87.752 Y93.811 E6.78293
G1 X87.884 Y93.311 E6.80873
G1 X88.457 Y91.414 E6.9076
G1 X88.802 Y90.497 E6.95648
G1 X89.026 Y90.041 E6.98183
G1 X89.961 Y88.295 E7.08064
G1 X90.34 Y87.665 E7.11732
G1 X90.774 Y87.079 E7.1537
G1 X92.034 Y85.542 E7.25285
G1 X92.539 Y84.985 E7.29036
M205 X10 Y10
G0 F6000 X92.257 Y84.703
M205 X8 Y8
G1 F1200 X92.827 Y84.186 E7.32876
G1 X94.365 Y82.925 E7.42798
G1 X95.001 Y82.455 E7.46743
G1 X95.646 Y82.069 E7.50494
G1 X97.392 Y81.134 E7.60375
G1 X97.924 Y80.874 E7.63329
G1 X98.835 Y80.536 E7.68177
G1 X100.734 Y79.962 E7.78074
G1 X101.284 Y79.817 E7.80912
G1 X102.248 Y79.661 E7.85784
G1 X104.226 Y79.466 E7.957
G1 X105.009 Y79.428 E7.99611
G1 X105.774 Y79.466 E8.03432
G1 X107.752 Y79.661 E8.13348
G1 X108.738 Y79.822 E8.18333
G1 X109.266 Y79.962 E8.21058
G1 X111.165 Y80.536 E8.30955
G1 X112.094 Y80.882 E8.35901
G1 X112.608 Y81.134 E8.38757
G1 X114.354 Y82.069 E8.48638
G1 X115.017 Y82.467 E8.52496
G1 X115.635 Y82.925 E8.56334
G1 X117.172 Y84.185 E8.66249
G1 X117.757 Y84.717 E8.70194
G1 X118.274 Y85.287 E8.74034
G1 X119.535 Y86.825 E8.83956
G1 X119.942 Y87.367 E8.87338
G1 X120.39 Y88.104 E8.91641
G1 X121.326 Y89.852 E9.01533
G1 X121.586 Y90.384 E9.04487
G1 X121.926 Y91.299 E9.09357
G1 X122.505 Y93.218 E9.19357
G1 X122.694 Y93.985 E9.23298
G1 X122.799 Y94.706 E9.26933
G1 X122.994 Y96.684 E9.36849
G1 X123.032 Y97.469 E9.4077
G1 X122.994 Y98.234 E9.44592
G1 X122.799 Y100.212 E9.54508
G1 X122.638 Y101.198 E9.59492
G1 X122.499 Y101.724 E9.62206
G1 X121.926 Y103.621 E9.72093
G1 X121.754 Y104.08 E9.74538
G1 X123.712 Y112.239 E10.164
G1 X123.857 Y113.015 E10.20338
G1 X123.923 Y113.802 E10.24278
G1 X123.909 Y114.592 E10.2822
G1 X123.815 Y115.376 E10.3216
G1 X123.643 Y116.146 E10.36096
G1 X123.393 Y116.896 E10.4004
G1 X123.17 Y117.414 E10.42854
G1 X122.807 Y118.115 E10.46792
G1 X122.374 Y118.776 E10.50734
G1 X121.878 Y119.39 E10.54672
G1 X121.321 Y119.95 E10.58613
G1 X120.711 Y120.452 E10.62554
G1 X119.751 Y121.059 E10.68221
G1 X118.505 Y121.726 E10.75272
G1 X118.556 Y122.401 E10.78649
G1 X118.537 Y123.19 E10.82586
G1 X118.438 Y123.974 E10.86529
G1 X118.261 Y124.743 E10.90466
G1 X118.006 Y125.491 E10.94408
G1 X117.677 Y126.209 E10.98348
G1 X117.093 Y127.158 E11.03908
G1 X116.973 Y127.325 E11.04934
G1 X116.481 Y127.942 E11.08871
G1 X115.928 Y128.506 E11.12811
G1 X115.321 Y129.011 E11.16751
G1 X114.667 Y129.453 E11.20689
G1 X113.97 Y129.826 E11.24633
G1 X113.24 Y130.126 E11.2857
G1 X112.483 Y130.352 E11.32512
G1 X111.708 Y130.499 E11.36447
G1 X110.639 Y130.573 E11.41793
G1 X99.337 Y130.573 E11.98179
G1 X98.548 Y130.533 E12.02121
G1 X97.768 Y130.414 E12.06057
G1 X97.003 Y130.216 E12.09999
G1 X96.263 Y129.942 E12.13936
G1 X95.554 Y129.594 E12.17877
G1 X94.883 Y129.176 E12.21821
G1 X94.259 Y128.693 E12.25757
G1 X93.686 Y128.15 E12.29696
G1 X93.003 Y127.325 E12.35039
G1 X92.883 Y127.158 E12.36065
G1 X92.455 Y126.494 E12.40006
G1 X92.097 Y125.79 E12.43947
G1 X91.811 Y125.054 E12.47886
G1 X91.602 Y124.292 E12.51828
G1 X91.47 Y123.514 E12.55765
G1 X91.418 Y122.726 E12.59705
G1 X91.446 Y121.937 E12.63644
G1 X91.476 Y121.716 E12.64757
G1 X90.248 Y121.059 E12.71705
G1 X89.571 Y120.651 E12.75648
G1 X88.94 Y120.177 E12.79586
G1 X88.359 Y119.642 E12.83526
G1 X87.835 Y119.051 E12.87467
G1 X87.374 Y118.41 E12.91406
G1 X86.83 Y117.414 E12.97068
G1 X86.774 Y117.291 E12.97742
G1 X86.484 Y116.557 E13.01679
G1 X86.269 Y115.797 E13.0562
G1 X86.132 Y115.019 E13.09561
G1 X86.075 Y114.231 E13.13502
G1 X86.097 Y113.442 E13.1744
G1 X86.2 Y112.659 E13.2138
G1 X86.288 Y112.239 E13.23521
G1 X88.246 Y104.08 E13.65382
G1 X88.075 Y103.622 E13.67821
G1 X87.502 Y101.726 E13.77703
G1 X87.357 Y101.177 E13.80536
G1 X87.201 Y100.214 E13.85403
G1 X87.006 Y98.237 E13.95314
G1 X86.968 Y97.451 E13.9924
G1 X87.006 Y96.686 E14.03062
G1 X87.201 Y94.708 E14.12978
G1 X87.362 Y93.722 E14.17962
G1 X87.501 Y93.196 E14.20676
G1 X88.074 Y91.299 E14.30563
G1 X88.437 Y90.333 E14.35711
G1 X88.674 Y89.852 E14.38386
G1 X89.609 Y88.106 E14.48268
G1 X90.007 Y87.443 E14.52126
G1 X90.465 Y86.825 E14.55963
G1 X91.725 Y85.288 E14.65879
G1 X92.257 Y84.703 E14.69824
M205 X10 Y10
G0 F6000 X92.822 Y85.268
M205 X8 Y8
G1 F1200 X93.334 Y84.805 E14.73268
G1 X94.872 Y83.544 E14.8319
G1 X95.445 Y83.121 E14.86743
G1 X96.023 Y82.774 E14.90107
G1 X97.769 Y81.839 E14.99988
G1 X98.249 Y81.605 E15.02652
G1 X99.067 Y81.301 E15.07006
G1 X100.966 Y80.727 E15.16903
G1 X101.462 Y80.597 E15.19461
G1 X102.326 Y80.457 E15.23828
G1 X104.304 Y80.262 E15.33744
G1 X105.009 Y80.228 E15.37266
G1 X105.696 Y80.262 E15.40697
G1 X107.674 Y80.457 E15.50613
G1 X108.56 Y80.602 E15.55092
G1 X109.034 Y80.727 E15.57538
G1 X110.933 Y81.301 E15.67436
G1 X111.769 Y81.613 E15.71887
G1 X112.231 Y81.839 E15.74453
G1 X113.977 Y82.774 E15.84335
G1 X114.573 Y83.133 E15.87806
G1 X115.128 Y83.544 E15.91251
G1 X116.665 Y84.804 E16.01167
G1 X117.192 Y85.282 E16.04716
G1 X117.655 Y85.794 E16.0816
G1 X118.916 Y87.332 E16.18083
G1 X119.282 Y87.82 E16.21126
G1 X119.685 Y88.482 E16.24993
G1 X120.621 Y90.23 E16.34885
G1 X120.855 Y90.709 E16.37545
G1 X121.16 Y91.53 E16.41914
G1 X121.739 Y93.449 E16.51914
G1 X121.916 Y94.176 E16.55647
G1 X122.003 Y94.784 E16.58711
G1 X122.198 Y96.762 E16.68628
G1 X122.232 Y97.469 E16.72159
G1 X122.198 Y98.156 E16.75591
G1 X122.003 Y100.134 E16.85507
G1 X121.858 Y101.02 E16.89986
G1 X121.733 Y101.493 E16.92427
G1 X121.16 Y103.39 E17.02313
G1 X120.92 Y104.032 E17.05732
G1 X122.934 Y112.426 E17.48799
G1 X123.069 Y113.161 E17.52527
G1 X123.125 Y113.907 E17.56259
G1 X123.102 Y114.655 E17.59993
G1 X122.998 Y115.396 E17.63726
G1 X122.816 Y116.121 E17.67455
G1 X122.498 Y116.96 E17.71932
G1 X122.442 Y117.083 E17.72606
G1 X122.096 Y117.746 E17.76337
G1 X121.681 Y118.368 E17.80067
G1 X121.202 Y118.943 E17.83801
G1 X120.665 Y119.464 E17.87534
G1 X120.075 Y119.924 E17.91266
G1 X119.373 Y120.354 E17.95373
G1 X117.625 Y121.289 E18.05263
G1 X117.712 Y121.793 E18.07815
G1 X117.759 Y122.54 E18.11549
G1 X117.726 Y123.287 E18.1528
G1 X117.613 Y124.027 E18.19014
G1 X117.422 Y124.75 E18.22745
G1 X117.156 Y125.449 E18.26477
G1 X116.816 Y126.115 E18.30207
G1 X116.444 Y126.691 E18.33628
G1 X116.324 Y126.858 E18.34654
G1 X115.855 Y127.441 E18.38387
G1 X115.327 Y127.971 E18.42119
G1 X114.746 Y128.442 E18.45851
G1 X114.117 Y128.848 E18.49586
G1 X113.449 Y129.184 E18.53316
G1 X112.749 Y129.447 E18.57047
G1 X112.025 Y129.634 E18.60778
G1 X111.285 Y129.743 E18.64509
G1 X110.639 Y129.773 E18.67736
G1 X99.337 Y129.773 E19.24122
G1 X98.59 Y129.733 E19.27854
G1 X97.852 Y129.614 E19.31583
G1 X97.13 Y129.416 E19.35318
G1 X96.434 Y129.143 E19.39048
G1 X95.771 Y128.796 E19.42782
G1 X95.148 Y128.381 E19.46516
G1 X94.574 Y127.902 E19.50246
G1 X94.053 Y127.365 E19.53979
G1 X93.652 Y126.858 E19.57204
G1 X93.532 Y126.691 E19.5823
G1 X93.129 Y126.061 E19.61961
G1 X92.795 Y125.391 E19.65696
G1 X92.534 Y124.69 E19.69428
G1 X92.35 Y123.965 E19.73159
G1 X92.244 Y123.225 E19.76889
G1 X92.218 Y122.477 E19.80623
G1 X92.272 Y121.731 E19.84354
G1 X92.354 Y121.278 E19.86651
G1 X90.625 Y120.353 E19.96434
G1 X89.986 Y119.966 E20.00161
G1 X89.391 Y119.512 E20.03895
G1 X88.848 Y118.997 E20.07629
G1 X88.363 Y118.427 E20.11363
G1 X87.942 Y117.809 E20.15093
G1 X87.558 Y117.083 E20.19191
G1 X87.502 Y116.96 E20.19865
G1 X87.229 Y116.263 E20.236
G1 X87.032 Y115.542 E20.27329
G1 X86.913 Y114.803 E20.31063
G1 X86.873 Y114.056 E20.34795
G1 X86.913 Y113.309 E20.38527
G1 X87.066 Y112.426 E20.42998
G1 X89.08 Y104.032 E20.86065
G1 X88.84 Y103.391 E20.89479
G1 X88.267 Y101.495 E20.99361
G1 X88.137 Y100.999 E21.01919
G1 X87.997 Y100.135 E21.06286
G1 X87.802 Y98.158 E21.16197
G1 X87.768 Y97.451 E21.19728
G1 X87.802 Y96.764 E21.2316
G1 X87.997 Y94.786 E21.33076
G1 X88.142 Y93.9 E21.37555
G1 X88.267 Y93.427 E21.39996
G1 X88.84 Y91.53 E21.49883
G1 X89.167 Y90.661 E21.54515
G1 X89.379 Y90.229 E21.56916
G1 X90.314 Y88.483 E21.66797
G1 X90.673 Y87.887 E21.70268
G1 X91.084 Y87.332 E21.73713
G1 X92.344 Y85.795 E21.83629
G1 X92.822 Y85.268 E21.87179
M205 X10 Y10
G0 F6000 X93.105 Y85.551
M205 X8 Y8
G1 F1200 X93.587 Y85.114 E21.90424
G1 X95.125 Y83.853 E22.00347
G1 X95.667 Y83.453 E22.03708
G1 X96.212 Y83.127 E22.06876
G1 X97.958 Y82.192 E22.16757
G1 X98.411 Y81.971 E22.19272
G1 X99.182 Y81.684 E22.23376
G1 X101.081 Y81.11 E22.33274
G1 X101.55 Y80.987 E22.35693
G1 X102.365 Y80.855 E22.39812
G1 X104.343 Y80.66 E22.49728
G1 X105.009 Y80.628 E22.53054
G1 X105.657 Y80.66 E22.56291
G1 X107.635 Y80.855 E22.66207
G1 X108.472 Y80.992 E22.70439
G1 X108.919 Y81.11 E22.72745
G1 X110.818 Y81.684 E22.82643
G1 X111.607 Y81.979 E22.86845
G1 X112.042 Y82.192 E22.89262
G1 X113.788 Y83.127 E22.99143
G1 X114.351 Y83.465 E23.02419
G1 X114.874 Y83.853 E23.05668
G1 X116.411 Y85.113 E23.15583
G1 X116.909 Y85.565 E23.18938
G1 X117.346 Y86.047 E23.22184
G1 X118.607 Y87.585 E23.32107
G1 X118.953 Y88.047 E23.34987
G1 X119.332 Y88.67 E23.38625
G1 X120.268 Y90.418 E23.48517
G1 X120.489 Y90.871 E23.51032
G1 X120.777 Y91.646 E23.55156
G1 X121.356 Y93.565 E23.65157
G1 X121.527 Y94.27 E23.68776
G1 X121.605 Y94.823 E23.71562
G1 X121.8 Y96.801 E23.81478
G1 X121.832 Y97.469 E23.84815
G1 X121.8 Y98.117 E23.88052
G1 X121.605 Y100.095 E23.97968
G1 X121.468 Y100.932 E24.02199
G1 X121.35 Y101.377 E24.04496
G1 X120.777 Y103.274 E24.14382
G1 X120.503 Y104.008 E24.18291
G1 X122.545 Y112.519 E24.61958
G1 X122.675 Y113.234 E24.65583
G1 X122.726 Y113.958 E24.69204
G1 X122.697 Y114.684 E24.72829
G1 X122.589 Y115.402 E24.76452
G1 X122.402 Y116.104 E24.80076
G1 X122.134 Y116.794 E24.83769
G1 X122.078 Y116.917 E24.84443
G1 X121.741 Y117.56 E24.88065
G1 X121.335 Y118.163 E24.91692
G1 X120.866 Y118.717 E24.95313
G1 X120.339 Y119.217 E24.98938
G1 X119.759 Y119.655 E25.02564
G1 X119.185 Y120.001 E25.05907
G1 X117.175 Y121.076 E25.17279
G1 X117.2 Y121.165 E25.17741
G1 X117.319 Y121.882 E25.21367
G1 X117.359 Y122.607 E25.24989
G1 X117.319 Y123.332 E25.28612
G1 X117.199 Y124.049 E25.32239
G1 X117.002 Y124.748 E25.35862
G1 X116.729 Y125.421 E25.39485
G1 X116.383 Y126.06 E25.4311
G1 X115.999 Y126.624 E25.46515
G1 X115.543 Y127.19 E25.50141
G1 X115.028 Y127.702 E25.53764
G1 X114.46 Y128.155 E25.57388
G1 X113.845 Y128.542 E25.61014
G1 X113.192 Y128.859 E25.64635
G1 X112.508 Y129.103 E25.68258
G1 X111.801 Y129.27 E25.71882
G1 X111.08 Y129.358 E25.75506
G1 X110.639 Y129.373 E25.77708
G1 X99.337 Y129.373 E26.34094
G1 X98.612 Y129.333 E26.37716
G1 X97.895 Y129.214 E26.41342
G1 X97.196 Y129.016 E26.44967
G1 X96.523 Y128.743 E26.4859
G1 X95.884 Y128.398 E26.52213
G1 X95.287 Y127.984 E26.55838
