;FLAVOR:Marlin
;TIME:5431
;Filament used: 4.58751m
;Layer height: 0.2
;MINX:42.863
;MINY:51.778
;MINZ:0.3
;MAXX:167.137
;MAXY:158.163
;MAXZ:7.775
;Generated with Cura_SteamEngine 4.13.1
M82 ;absolute extrusion mode
G21                                        ; metric values 
G90                                        ; absolute positioning 
M82                                        ; set extruder to absolute mode 
M107                                       ; start with the fan off 
M140 S60.0           ; Start heating the bed 
G4 S60                                     ; wait 1 minute 
M104 S220.0         ; start heating the hot end 
M190 S60.0           ; wait for bed 
M109 S220.0         ; wait for hotend 
M300 S1000 P500                            ; BEEP heating done 
G28 X0 Y10 Z0                              ; move X/Y to min endstops 
M420 S1                                    ; Enable leveling 
M420 Z2.0                                  ; Set leveling fading height to 2 mm 
G0 Z0.15                                   ; lift nozzle a bit 
G92 E0                                     ; zero the extruded length 
G1 X50 E25 F500                            ; Extrude 25mm of filament in a 5cm line. 
G92 E0                                     ; zero the extruded length again 
G1 E-2 F500                                ; Retract a little 
G1 X120 F4000                              ; Quickly wipe away from the filament line`
G92 E0
G92 E0
G1 F2400 E-3
;LAYER_COUNT:38
;LAYER:0
M106 S76.5
M205 X10 Y10
G1 F600 Z0.375
G0 F6000 X76.294 Y104.519 Z0.375
M205 X8 Y8
;TYPE:SKIRT
G1 F600 Z0.3
G1 F2400 E0
G1 F1200 X115.883 Y68.579 E2.6676
G1 X116.645 Y67.97 E2.71626
G1 X117.351 Y67.526 E2.75787
G1 X132.186 Y59.272 E3.60484
G1 X132.868 Y58.935 E3.64279
G1 X133.481 Y58.697 E3.6756
G1 X152.594 Y52.192 E4.68286
G1 X153.353 Y51.976 E4.72223
G1 X154.131 Y51.837 E4.76166
G1 X154.918 Y51.778 E4.80104
G1 X155.708 Y51.799 E4.84046
G1 X156.491 Y51.9 E4.87985
G1 X156.997 Y52.008 E4.90567
G1 X157.756 Y52.226 E4.94506
G1 X158.488 Y52.521 E4.98444
G1 X159.188 Y52.888 E5.02387
G1 X159.846 Y53.323 E5.06322
G1 X160.733 Y54.087 E5.12163
G1 X162.471 Y55.825 E5.24425
G1 X163.001 Y56.411 E5.28367
G1 X163.468 Y57.047 E5.32304
G1 X163.869 Y57.727 E5.36242
G1 X164.199 Y58.445 E5.40184
G1 X164.454 Y59.192 E5.44122
G1 X164.633 Y59.961 E5.48062
G1 X164.733 Y60.745 E5.52005
G1 X164.756 Y61.34 E5.54975
G1 X164.756 Y61.506 E5.55803
G1 X164.716 Y62.295 E5.59745
G1 X164.597 Y63.075 E5.63681
G1 X164.473 Y63.555 E5.66155
G1 X164.852 Y63.934 E5.68829
G1 X165.381 Y64.52 E5.72767
G1 X165.849 Y65.156 E5.76707
G1 X166.25 Y65.837 E5.8065
G1 X166.58 Y66.554 E5.84587
G1 X166.835 Y67.301 E5.88525
G1 X167.014 Y68.071 E5.92469
G1 X167.114 Y68.854 E5.96408
G1 X167.137 Y69.45 E5.99383
G1 X167.137 Y69.616 E6.00211
G1 X167.097 Y70.405 E6.04153
G1 X166.978 Y71.185 E6.08089
G1 X166.78 Y71.95 E6.12032
G1 X166.506 Y72.69 E6.15968
G1 X166.158 Y73.399 E6.19909
G1 X165.74 Y74.07 E6.23853
G1 X165.257 Y74.694 E6.2779
G1 X164.852 Y75.131 E6.30762
G1 X162.136 Y77.847 E6.49925
G1 X161.55 Y78.377 E6.53867
G1 X160.914 Y78.844 E6.57803
G1 X160.234 Y79.245 E6.61742
G1 X159.516 Y79.575 E6.65684
G1 X158.769 Y79.83 E6.69622
G1 X158 Y80.009 E6.73561
G1 X157.216 Y80.109 E6.77504
G1 X156.621 Y80.132 E6.80475
G1 X156.455 Y80.132 E6.81303
G1 X155.666 Y80.092 E6.85245
G1 X154.886 Y79.973 E6.89181
G1 X154.121 Y79.775 E6.93124
G1 X153.381 Y79.501 E6.9706
G1 X152.672 Y79.153 E7.01001
G1 X152.001 Y78.735 E7.04945
G1 X151.377 Y78.252 E7.08882
G1 X151.298 Y78.179 E7.09418
G1 X92.505 Y136.972 E11.24235
G1 X92.808 Y137.306 E11.26484
G1 X93.275 Y137.943 E11.30425
G1 X93.676 Y138.623 E11.34363
G1 X94.006 Y139.341 E11.38306
G1 X94.262 Y140.088 E11.42245
G1 X94.441 Y140.857 E11.46184
G1 X94.541 Y141.64 E11.50123
G1 X94.564 Y142.237 E11.53103
G1 X94.564 Y142.403 E11.53931
G1 X94.524 Y143.192 E11.57873
G1 X94.405 Y143.972 E11.61809
G1 X94.207 Y144.737 E11.65752
G1 X93.933 Y145.477 E11.69688
G1 X93.585 Y146.186 E11.73629
G1 X93.167 Y146.857 E11.77573
G1 X92.684 Y147.481 E11.8151
G1 X92.278 Y147.919 E11.84489
G1 X89.485 Y150.711 E12.04192
G1 X88.899 Y151.241 E12.08134
G1 X88.263 Y151.708 E12.1207
G1 X87.582 Y152.109 E12.16013
G1 X86.865 Y152.438 E12.19949
G1 X86.118 Y152.694 E12.23888
G1 X85.348 Y152.872 E12.27831
G1 X84.565 Y152.972 E12.31769
G1 X83.971 Y152.995 E12.34735
G1 X83.805 Y152.995 E12.35563
G1 X83.016 Y152.955 E12.39505
G1 X82.236 Y152.836 E12.43441
G1 X81.471 Y152.638 E12.47383
G1 X80.731 Y152.364 E12.5132
G1 X80.022 Y152.016 E12.55261
G1 X79.351 Y151.598 E12.59205
G1 X78.727 Y151.115 E12.63141
G1 X78.59 Y150.988 E12.64073
G1 X78.115 Y151.463 E12.67425
G1 X77.53 Y151.992 E12.7136
G1 X76.893 Y152.46 E12.75303
G1 X76.213 Y152.86 E12.79239
G1 X75.495 Y153.19 E12.83182
G1 X74.748 Y153.446 E12.87121
G1 X73.979 Y153.625 E12.9106
G1 X73.196 Y153.725 E12.94998
G1 X72.843 Y153.739 E12.96761
G1 X72.607 Y154.038 E12.98661
G1 X72.057 Y154.605 E13.02602
G1 X71.327 Y155.207 E13.07323
G1 X70.652 Y155.698 E13.11487
G1 X69.991 Y156.129 E13.15424
G1 X69.289 Y156.492 E13.19367
G1 X68.555 Y156.782 E13.23304
G1 X67.795 Y156.996 E13.27243
G1 X67.017 Y157.132 E13.31184
G1 X66.064 Y157.19 E13.35947
G1 X65.232 Y157.19 E13.40098
G1 X64.443 Y157.15 E13.44039
G1 X63.842 Y157.058 E13.47073
G1 X63.472 Y157.276 E13.49215
G1 X62.755 Y157.605 E13.53151
G1 X62.008 Y157.861 E13.5709
G1 X61.239 Y158.04 E13.6103
G1 X60.455 Y158.14 E13.64973
G1 X59.859 Y158.163 E13.67948
G1 X59.693 Y158.163 E13.68776
G1 X58.904 Y158.123 E13.72718
G1 X58.124 Y158.004 E13.76654
G1 X57.359 Y157.806 E13.80597
G1 X56.619 Y157.532 E13.84534
G1 X55.91 Y157.184 E13.88474
G1 X55.239 Y156.766 E13.92418
G1 X54.615 Y156.283 E13.96355
G1 X54.178 Y155.878 E13.99327
G1 X45.148 Y146.848 E14.63039
G1 X44.618 Y146.262 E14.66981
G1 X44.151 Y145.626 E14.70917
G1 X43.75 Y144.946 E14.74856
G1 X43.42 Y144.228 E14.78798
G1 X43.165 Y143.481 E14.82736
G1 X42.986 Y142.712 E14.86675
G1 X42.886 Y141.928 E14.90618
G1 X42.863 Y141.333 E14.93589
G1 X42.863 Y141.167 E14.94417
G1 X42.903 Y140.378 E14.98359
G1 X43.022 Y139.598 E15.02295
G1 X43.22 Y138.833 E15.06237
G1 X43.494 Y138.093 E15.10174
G1 X43.842 Y137.384 E15.14114
G1 X43.748 Y136.887 E15.16638
G1 X43.62 Y136.108 E15.20577
G1 X43.572 Y135.32 E15.24515
G1 X43.604 Y134.531 E15.28455
G1 X43.716 Y133.749 E15.32396
G1 X43.954 Y132.83 E15.37132
G1 X44.221 Y132.008 E15.41444
G1 X44.502 Y131.271 E15.45379
G1 X44.857 Y130.565 E15.49322
G1 X45.281 Y129.899 E15.53261
G1 X45.771 Y129.279 E15.57203
G1 X46.32 Y128.712 E15.61141
G1 X47.05 Y128.111 E15.65858
G1 X47.751 Y127.601 E15.70183
G1 X48.412 Y127.169 E15.74123
G1 X49.114 Y126.806 E15.78065
G1 X49.849 Y126.517 E15.82006
G1 X50.609 Y126.303 E15.85945
G1 X51.387 Y126.166 E15.89886
G1 X52.34 Y126.108 E15.94649
G1 X53.204 Y126.108 E15.9896
G1 X53.993 Y126.148 E16.02901
G1 X54.564 Y126.235 E16.05783
G1 X76.022 Y104.778 E17.57177
G1 X76.294 Y104.519 E17.59051
M205 X10 Y10
G0 F6000 X76.563 Y104.815
M205 X8 Y8
G1 F1200 X116.152 Y68.875 E20.25811
G1 X116.876 Y68.296 E20.30436
G1 X117.545 Y67.876 E20.34376
G1 X132.38 Y59.622 E21.19073
G1 X133.028 Y59.301 E21.22681
G1 X133.61 Y59.076 E21.25794
G1 X152.723 Y52.571 E22.26521
G1 X153.463 Y52.361 E22.30358
G1 X154.221 Y52.229 E22.34197
G1 X154.988 Y52.177 E22.38032
G1 X155.757 Y52.205 E22.41871
G1 X156.795 Y52.371 E22.47116
G1 X156.906 Y52.397 E22.47684
G1 X157.644 Y52.611 E22.51518
G1 X158.357 Y52.901 E22.55358
G1 X159.036 Y53.263 E22.59197
G1 X159.673 Y53.693 E22.63031
G1 X160.451 Y54.369 E22.68173
G1 X162.189 Y56.107 E22.80436
G1 X162.703 Y56.679 E22.84273
G1 X163.156 Y57.301 E22.88111
G1 X163.542 Y57.966 E22.91948
G1 X163.857 Y58.668 E22.95786
G1 X164.097 Y59.399 E22.99625
G1 X164.26 Y60.15 E23.03459
G1 X164.344 Y60.915 E23.07298
G1 X164.356 Y61.506 E23.10247
G1 X164.316 Y62.274 E23.14084
G1 X164.197 Y63.034 E23.17922
G1 X164.026 Y63.674 E23.21227
G1 X164.569 Y64.217 E23.25058
G1 X165.084 Y64.788 E23.28894
G1 X165.537 Y65.41 E23.32733
G1 X165.923 Y66.075 E23.36569
G1 X166.237 Y66.777 E23.40406
G1 X166.478 Y67.508 E23.44246
G1 X166.641 Y68.26 E23.48085
G1 X166.725 Y69.024 E23.5192
G1 X166.737 Y69.616 E23.54874
G1 X166.697 Y70.384 E23.58711
G1 X166.578 Y71.144 E23.62548
G1 X166.38 Y71.887 E23.66385
G1 X166.106 Y72.606 E23.70223
G1 X165.759 Y73.292 E23.74059
G1 X165.343 Y73.939 E23.77896
G1 X164.862 Y74.539 E23.81733
G1 X164.57 Y74.849 E23.83858
G1 X161.854 Y77.565 E24.0302
G1 X161.282 Y78.079 E24.06857
G1 X160.66 Y78.532 E24.10696
G1 X159.995 Y78.918 E24.14532
G1 X159.293 Y79.233 E24.18371
G1 X158.562 Y79.473 E24.22209
G1 X157.811 Y79.636 E24.26043
G1 X157.046 Y79.72 E24.29883
G1 X156.455 Y79.732 E24.32832
G1 X155.687 Y79.692 E24.36669
G1 X154.927 Y79.573 E24.40506
G1 X154.184 Y79.375 E24.44343
G1 X153.465 Y79.101 E24.48181
G1 X152.779 Y78.754 E24.52017
G1 X152.132 Y78.338 E24.55854
G1 X151.532 Y77.857 E24.59691
G1 X151.287 Y77.625 E24.61374
G1 X91.953 Y136.96 E28.80011
G1 X91.996 Y137.003 E28.80315
G1 X92.511 Y137.575 E28.84155
G1 X92.963 Y138.196 E28.87987
G1 X93.349 Y138.862 E28.91827
G1 X93.664 Y139.564 E28.95666
G1 X93.904 Y140.294 E28.99499
G1 X94.068 Y141.046 E29.03339
G1 X94.152 Y141.81 E29.07174
G1 X94.164 Y142.403 E29.10133
G1 X94.124 Y143.171 E29.1397
G1 X94.005 Y143.931 E29.17808
G1 X93.807 Y144.674 E29.21644
G1 X93.533 Y145.393 E29.25483
G1 X93.186 Y146.079 E29.29318
G1 X92.77 Y146.726 E29.33156
G1 X92.289 Y147.326 E29.36992
G1 X91.996 Y147.637 E29.39124
G1 X89.203 Y150.429 E29.58826
G1 X88.631 Y150.943 E29.62663
G1 X88.009 Y151.396 E29.66502
G1 X87.344 Y151.782 E29.70338
G1 X86.642 Y152.096 E29.74175
G1 X85.911 Y152.336 E29.78013
G1 X85.159 Y152.499 E29.81852
G1 X84.395 Y152.583 E29.85687
G1 X83.805 Y152.595 E29.88631
G1 X83.037 Y152.555 E29.92468
G1 X82.277 Y152.436 E29.96305
G1 X81.534 Y152.238 E30.00142
G1 X80.815 Y151.964 E30.0398
G1 X80.129 Y151.617 E30.07816
G1 X79.482 Y151.201 E30.11653
G1 X78.882 Y150.72 E30.1549
G1 X78.579 Y150.433 E30.17572
G1 X77.832 Y151.18 E30.22843
G1 X77.261 Y151.695 E30.26679
G1 X76.639 Y152.148 E30.30518
G1 X75.974 Y152.533 E30.34351
G1 X75.272 Y152.848 E30.3819
G1 X74.542 Y153.088 E30.42024
G1 X73.79 Y153.252 E30.45864
G1 X73.025 Y153.336 E30.49703
G1 X72.645 Y153.347 E30.516
G1 X72.253 Y153.834 E30.54719
G1 X71.711 Y154.38 E30.58557
G1 X71.092 Y154.883 E30.62536
G1 X70.417 Y155.374 E30.66701
G1 X69.772 Y155.794 E30.70541
G1 X69.088 Y156.144 E30.74374
G1 X68.37 Y156.421 E30.78213
G1 X67.628 Y156.623 E30.8205
G1 X66.869 Y156.746 E30.85886
G1 X66.064 Y156.79 E30.89908
G1 X65.232 Y156.79 E30.94059
G1 X64.464 Y156.75 E30.97896
G1 X63.765 Y156.641 E31.01425
G1 X63.234 Y156.949 E31.04488
G1 X62.532 Y157.263 E31.08325
G1 X61.801 Y157.504 E31.12165
G1 X61.05 Y157.667 E31.15999
G1 X60.285 Y157.751 E31.19838
G1 X59.693 Y157.763 E31.22792
G1 X58.925 Y157.723 E31.26629
G1 X58.165 Y157.604 E31.30467
G1 X57.422 Y157.406 E31.34303
G1 X56.703 Y157.132 E31.38142
G1 X56.017 Y156.785 E31.41977
G1 X55.37 Y156.369 E31.45815
G1 X54.77 Y155.888 E31.49651
G1 X54.46 Y155.596 E31.51776
G1 X45.43 Y146.566 E32.15488
G1 X44.916 Y145.994 E32.19324
G1 X44.463 Y145.372 E32.23163
G1 X44.077 Y144.707 E32.26999
G1 X43.762 Y144.005 E32.30838
G1 X43.522 Y143.274 E32.34676
G1 X43.359 Y142.523 E32.3851
G1 X43.275 Y141.758 E32.4235
G1 X43.263 Y141.167 E32.45299
G1 X43.303 Y140.399 E32.49136
G1 X43.422 Y139.639 E32.52974
G1 X43.62 Y138.896 E32.5681
G1 X43.894 Y138.177 E32.60649
G1 X44.241 Y137.491 E32.64484
G1 X44.3 Y137.399 E32.65029
G1 X44.135 Y136.783 E32.68211
G1 X44.014 Y136.024 E32.72045
G1 X43.972 Y135.256 E32.75883
G1 X44.01 Y134.487 E32.79724
G1 X44.128 Y133.727 E32.83561
G1 X44.334 Y132.954 E32.87552
G1 X44.601 Y132.132 E32.91864
G1 X44.876 Y131.414 E32.957
G1 X45.225 Y130.728 E32.9954
G1 X45.642 Y130.082 E33.03376
G1 X46.125 Y129.483 E33.07215
G1 X46.667 Y128.937 E33.11053
G1 X47.286 Y128.434 E33.15032
G1 X47.987 Y127.924 E33.19357
G1 X48.631 Y127.505 E33.2319
G1 X49.316 Y127.154 E33.2703
G1 X50.033 Y126.877 E33.30865
G1 X50.776 Y126.675 E33.34706
G1 X51.535 Y126.552 E33.38543
G1 X52.34 Y126.508 E33.42565
G1 X53.204 Y126.508 E33.46875
G1 X53.972 Y126.548 E33.50712
G1 X54.702 Y126.662 E33.54398
G1 X76.304 Y105.061 E35.06808
G1 X76.563 Y104.815 E35.0859
M205 X10 Y10
G0 F6000 X76.832 Y105.111
M205 X8 Y8
G1 F1200 X116.421 Y69.171 E37.7535
G1 X117.106 Y68.623 E37.79727
G1 X117.74 Y68.225 E37.83461
G1 X132.575 Y59.971 E38.68158
G1 X133.188 Y59.668 E38.7157
G1 X133.739 Y59.454 E38.74519
G1 X152.852 Y52.949 E39.75245
G1 X153.572 Y52.746 E39.78977
G1 X154.309 Y52.622 E39.82706
G1 X155.056 Y52.576 E39.8644
G1 X155.803 Y52.611 E39.90171
G1 X156.703 Y52.76 E39.94722
G1 X156.814 Y52.786 E39.95291
G1 X157.533 Y52.996 E39.99028
G1 X158.224 Y53.28 E40.02755
G1 X158.882 Y53.637 E40.0649
G1 X159.497 Y54.062 E40.10219
G1 X160.168 Y54.652 E40.14677
G1 X161.906 Y56.39 E40.26939
G1 X162.406 Y56.947 E40.30674
G1 X162.843 Y57.553 E40.34401
G1 X163.214 Y58.203 E40.38135
G1 X163.513 Y58.889 E40.41868
G1 X163.737 Y59.603 E40.45602
G1 X163.884 Y60.336 E40.49332
G1 X163.956 Y61.34 E40.54353
G1 X163.956 Y61.506 E40.55182
G1 X163.916 Y62.253 E40.58914
G1 X163.797 Y62.991 E40.62643
G1 X163.599 Y63.713 E40.66378
G1 X163.571 Y63.785 E40.66764
G1 X164.286 Y64.5 E40.71808
G1 X164.786 Y65.056 E40.75539
G1 X165.224 Y65.663 E40.79273
G1 X165.595 Y66.313 E40.83007
G1 X165.894 Y66.998 E40.86736
G1 X166.118 Y67.712 E40.90469
G1 X166.265 Y68.446 E40.94204
G1 X166.337 Y69.45 E40.99226
G1 X166.337 Y69.616 E41.00054
G1 X166.297 Y70.363 E41.03786
G1 X166.178 Y71.101 E41.07516
G1 X165.98 Y71.823 E41.11251
G1 X165.707 Y72.519 E41.14981
G1 X165.36 Y73.182 E41.18714
G1 X164.945 Y73.805 E41.22449
G1 X164.287 Y74.566 E41.27468
G1 X161.571 Y77.282 E41.46631
G1 X161.014 Y77.782 E41.50365
G1 X160.408 Y78.219 E41.54092
G1 X159.758 Y78.59 E41.57826
G1 X159.072 Y78.889 E41.6156
G1 X158.358 Y79.113 E41.65293
G1 X157.625 Y79.26 E41.69023
G1 X156.621 Y79.332 E41.74045
G1 X156.455 Y79.332 E41.74873
G1 X155.708 Y79.292 E41.78605
G1 X154.97 Y79.173 E41.82334
G1 X154.248 Y78.975 E41.86069
G1 X153.552 Y78.702 E41.89799
G1 X152.889 Y78.355 E41.93533
G1 X152.266 Y77.94 E41.97267
G1 X151.504 Y77.28 E42.02297
G1 X151.285 Y77.061 E42.03842
G1 X91.387 Y136.96 E46.26458
G1 X91.713 Y137.286 E46.28758
G1 X92.213 Y137.843 E46.32493
G1 X92.651 Y138.449 E46.36223
G1 X93.021 Y139.099 E46.39954
G1 X93.32 Y139.785 E46.43688
G1 X93.545 Y140.498 E46.47418
G1 X93.691 Y141.232 E46.51152
G1 X93.764 Y142.237 E46.56179
G1 X93.764 Y142.403 E46.57007
G1 X93.724 Y143.15 E46.60739
G1 X93.605 Y143.888 E46.64469
G1 X93.407 Y144.61 E46.68204
G1 X93.134 Y145.306 E46.71934
G1 X92.787 Y145.969 E46.75667
G1 X92.372 Y146.592 E46.79402
G1 X91.713 Y147.354 E46.84428
G1 X88.92 Y150.146 E47.0413
G1 X88.363 Y150.645 E47.07861
G1 X87.757 Y151.083 E47.11592
G1 X87.107 Y151.453 E47.15323
G1 X86.421 Y151.752 E47.19056
G1 X85.707 Y151.976 E47.2279
G1 X84.974 Y152.123 E47.2652
G1 X83.971 Y152.195 E47.31536
G1 X83.805 Y152.195 E47.32365
G1 X83.058 Y152.155 E47.36097
G1 X82.32 Y152.036 E47.39826
G1 X81.598 Y151.838 E47.43561
G1 X80.902 Y151.565 E47.47291
G1 X80.239 Y151.218 E47.51025
G1 X79.616 Y150.803 E47.54759
G1 X78.855 Y150.144 E47.59781
G1 X78.579 Y149.868 E47.61729
G1 X77.55 Y150.897 E47.68989
G1 X76.993 Y151.397 E47.72723
G1 X76.387 Y151.835 E47.76454
G1 X75.737 Y152.205 E47.80185
G1 X75.051 Y152.504 E47.83918
G1 X74.337 Y152.729 E47.87653
G1 X73.604 Y152.875 E47.91382
G1 X72.599 Y152.948 E47.96409
G1 X72.443 Y152.948 E47.97188
G1 X72.375 Y153.051 E47.97803
G1 X71.9 Y153.628 E48.01532
G1 X71.366 Y154.152 E48.05264
