;FLAVOR:Marlin
;TIME:10851
;Filament used: 8.92211m
;Layer height: 0.2
;MINX:68.605
;MINY:68.065
;MINZ:0.3
;MAXX:138.306
;MAXY:141.935
;MAXZ:28.575
;Generated with Cura_SteamEngine 4.13.1
M82 ;absolute extrusion mode
G21                                        ; metric values 
G90                                        ; absolute positioning 
M82                                        ; set extruder to absolute mode 
M107                                       ; start with the fan off 
M140 S60.0           ; Start heating the bed 
G4 S60                                     ; wait 1 minute 
M104 S220.0         ; start heating the hot end 
M190 S60.0           ; wait for bed 
M109 S220.0         ; wait for hotend 
M300 S1000 P500                            ; BEEP heating done 
G28 X0 Y10 Z0                              ; move X/Y to min endstops 
M420 S1                                    ; Enable leveling 
M420 Z2.0                                  ; Set leveling fading height to 2 mm 
G0 Z0.15                                   ; lift nozzle a bit 
G92 E0                                     ; zero the extruded length 
G1 X50 E25 F500                            ; Extrude 25mm of filament in a 5cm line. 
G92 E0                                     ; zero the extruded length again 
G1 E-2 F500                                ; Retract a little 
G1 X120 F4000                              ; Quickly wipe away from the filament line`
G92 E0
G92 E0
G1 F2400 E-3
;LAYER_COUNT:142
;LAYER:0
M106 S76.5
M205 X10 Y10
G1 F600 Z0.375
G0 F6000 X80.586 Y70.904 Z0.375
M205 X8 Y8
;TYPE:SKIRT
G1 F600 Z0.3
G1 F2400 E0
G1 F1200 X80.991 Y70.467 E0.02973
G1 X81.108 Y70.35 E0.03798
G1 X81.694 Y69.82 E0.0774
G1 X82.33 Y69.353 E0.11677
G1 X83.01 Y68.952 E0.15615
G1 X83.728 Y68.622 E0.19557
G1 X84.475 Y68.367 E0.23495
G1 X85.244 Y68.188 E0.27434
G1 X86.028 Y68.088 E0.31378
G1 X86.623 Y68.065 E0.34348
G1 X119.869 Y68.065 E2.00213
G1 X120.658 Y68.105 E2.04155
G1 X121.438 Y68.224 E2.08091
G1 X122.203 Y68.422 E2.12033
G1 X123.097 Y68.764 E2.16809
G1 X123.174 Y68.799 E2.17231
G1 X123.875 Y69.162 E2.21169
G1 X124.536 Y69.594 E2.25109
G1 X125.15 Y70.09 E2.29047
G1 X125.749 Y70.688 E2.33269
G1 X136.155 Y82.272 E3.10956
G1 X136.518 Y82.7 E3.13756
G1 X136.989 Y83.334 E3.17696
G1 X137.394 Y84.012 E3.21637
G1 X137.728 Y84.727 E3.25574
G1 X137.989 Y85.473 E3.29517
G1 X138.172 Y86.241 E3.33456
G1 X138.277 Y87.023 E3.37392
G1 X138.304 Y87.667 E3.40608
G1 X138.306 Y98.288 E3.93596
G1 X138.266 Y99.076 E3.97533
G1 X138.147 Y99.857 E4.01474
G1 X137.949 Y100.621 E4.05412
G1 X137.675 Y101.362 E4.09353
G1 X137.328 Y102.071 E4.13291
G1 X136.91 Y102.741 E4.17231
G1 X136.427 Y103.366 E4.21172
G1 X136.021 Y103.804 E4.24151
G1 X135.904 Y103.921 E4.24977
G1 X135.318 Y104.451 E4.28919
G1 X134.682 Y104.918 E4.32855
G1 X134.54 Y105.002 E4.33678
G1 X134.84 Y105.189 E4.35442
G1 X135.465 Y105.672 E4.39383
G1 X135.902 Y106.078 E4.42359
G1 X136.019 Y106.195 E4.43184
G1 X136.549 Y106.781 E4.47126
G1 X137.016 Y107.417 E4.51063
G1 X137.417 Y108.097 E4.55001
G1 X137.747 Y108.815 E4.58944
G1 X138.002 Y109.562 E4.62881
G1 X138.181 Y110.331 E4.66821
G1 X138.281 Y111.115 E4.70764
G1 X138.304 Y111.709 E4.73729
G1 X138.305 Y122.33 E5.26718
G1 X138.265 Y123.119 E5.30659
G1 X138.146 Y123.9 E5.34601
G1 X137.948 Y124.664 E5.38538
G1 X137.674 Y125.405 E5.4248
G1 X137.326 Y126.114 E5.4642
G1 X136.909 Y126.784 E5.50357
G1 X136.521 Y127.295 E5.53558
G1 X136.156 Y127.727 E5.5638
G1 X125.748 Y139.312 E6.34077
G1 X125.191 Y139.872 E6.38017
G1 X124.581 Y140.373 E6.41956
G1 X123.923 Y140.809 E6.45894
G1 X123.174 Y141.2 E6.50109
G1 X123.097 Y141.235 E6.50531
G1 X122.362 Y141.525 E6.54473
G1 X121.602 Y141.739 E6.58412
G1 X120.824 Y141.875 E6.62352
G1 X119.869 Y141.934 E6.67126
G1 X86.623 Y141.935 E8.32991
G1 X85.835 Y141.895 E8.36927
G1 X85.054 Y141.776 E8.40869
G1 X84.289 Y141.578 E8.44811
G1 X83.549 Y141.304 E8.48748
G1 X82.84 Y140.956 E8.52688
G1 X82.169 Y140.539 E8.5663
G1 X81.545 Y140.055 E8.6057
G1 X81.108 Y139.65 E8.63542
G1 X80.991 Y139.533 E8.64368
G1 X80.461 Y138.947 E8.6831
G1 X79.994 Y138.311 E8.72246
G1 X79.593 Y137.631 E8.76185
G1 X79.263 Y136.913 E8.80127
G1 X79.008 Y136.166 E8.84065
G1 X78.829 Y135.397 E8.88004
G1 X78.729 Y134.613 E8.91947
G1 X78.706 Y134.018 E8.94918
G1 X78.706 Y128.421 E9.22841
G1 X78.313 Y128.401 E9.24805
G1 X77.533 Y128.282 E9.28741
G1 X76.768 Y128.084 E9.32683
G1 X76.028 Y127.81 E9.3662
G1 X75.319 Y127.462 E9.40561
G1 X74.51 Y126.946 E9.45348
G1 X73.078 Y125.903 E9.54186
G1 X72.464 Y125.406 E9.58127
G1 X71.903 Y124.85 E9.62068
G1 X71.402 Y124.24 E9.66006
G1 X70.965 Y123.583 E9.69943
G1 X70.596 Y122.884 E9.73886
G1 X70.3 Y122.152 E9.77825
G1 X70.14 Y121.631 E9.80544
G1 X69.576 Y119.543 E9.91335
G1 X69.113 Y118.341 E9.97761
G1 X68.867 Y117.591 E10.01699
G1 X68.697 Y116.82 E10.05638
G1 X68.607 Y116.035 E10.0958
G1 X68.605 Y115.064 E10.14424
G1 X68.724 Y113.102 E10.24231
G1 X68.753 Y111.319 E10.33127
G1 X68.806 Y110.531 E10.37068
G1 X68.938 Y109.752 E10.41009
G1 X68.98 Y109.598 E10.41806
G1 X69.003 Y109.037 E10.44607
G1 X69.114 Y108.255 E10.48547
G1 X69.133 Y107.959 E10.50027
G1 X69.166 Y107.17 E10.53967
G1 X69.244 Y106.572 E10.56976
G1 X69.606 Y104.451 E10.6771
G1 X69.714 Y103.929 E10.7037
G1 X70.254 Y101.698 E10.81822
G1 X70.844 Y99.032 E10.95444
G1 X71.311 Y96.811 E11.06767
G1 X71.399 Y96.436 E11.08689
G1 X72.006 Y94.123 E11.20619
G1 X71.919 Y93.801 E11.22283
G1 X71.79 Y93.022 E11.26223
G1 X71.741 Y92.233 E11.30167
G1 X71.773 Y91.444 E11.34106
G1 X71.883 Y90.662 E11.38046
G1 X72.126 Y89.727 E11.42866
G1 X72.674 Y88.047 E11.51682
G1 X72.956 Y87.31 E11.55619
G1 X73.312 Y86.605 E11.59559
G1 X73.737 Y85.939 E11.63501
G1 X74.227 Y85.32 E11.67439
G1 X74.778 Y84.754 E11.7138
G1 X75.497 Y84.161 E11.7603
G1 X76.929 Y83.118 E11.84868
G1 X77.59 Y82.686 E11.88808
G1 X78.291 Y82.323 E11.92746
G1 X78.706 Y82.159 E11.94973
G1 X78.706 Y75.982 E12.2579
G1 X78.746 Y75.193 E12.29731
G1 X78.865 Y74.413 E12.33668
G1 X79.063 Y73.648 E12.3761
G1 X79.337 Y72.908 E12.41547
G1 X79.685 Y72.199 E12.45487
G1 X80.103 Y71.528 E12.49431
G1 X80.586 Y70.904 E12.53368
M205 X10 Y10
G0 F6000 X80.981 Y71.059
M205 X8 Y8
G1 F1200 X81.39 Y70.632 E12.56318
G1 X81.962 Y70.118 E12.60154
G1 X82.584 Y69.665 E12.63993
G1 X83.249 Y69.279 E12.6783
G1 X83.951 Y68.964 E12.71668
G1 X84.682 Y68.724 E12.75507
G1 X85.433 Y68.561 E12.79341
G1 X86.198 Y68.477 E12.8318
G1 X86.623 Y68.465 E12.85301
G1 X119.869 Y68.465 E14.51166
G1 X120.637 Y68.505 E14.55003
G1 X121.397 Y68.624 E14.58841
G1 X122.14 Y68.822 E14.62677
G1 X122.931 Y69.128 E14.66909
G1 X123.008 Y69.163 E14.67331
G1 X123.691 Y69.518 E14.71171
G1 X124.333 Y69.941 E14.75007
G1 X124.928 Y70.428 E14.78843
G1 X125.451 Y70.955 E14.82547
G1 X135.857 Y82.539 E15.60234
G1 X136.209 Y82.955 E15.62952
G1 X136.667 Y83.573 E15.6679
G1 X137.059 Y84.235 E15.70628
G1 X137.38 Y84.934 E15.74466
G1 X137.627 Y85.662 E15.78301
G1 X137.797 Y86.412 E15.82138
G1 X137.888 Y87.176 E15.85976
G1 X137.904 Y87.667 E15.88427
G1 X137.906 Y98.288 E16.41416
G1 X137.866 Y99.056 E16.45252
G1 X137.747 Y99.816 E16.4909
G1 X137.549 Y100.559 E16.52926
G1 X137.276 Y101.278 E16.56763
G1 X136.929 Y101.964 E16.60599
G1 X136.513 Y102.611 E16.64436
G1 X136.032 Y103.211 E16.68273
G1 X135.622 Y103.639 E16.7123
G1 X135.05 Y104.153 E16.75066
G1 X134.428 Y104.606 E16.78905
G1 X133.763 Y104.992 E16.82742
G1 X134.063 Y105.171 E16.84484
G1 X134.71 Y105.587 E16.88322
G1 X135.31 Y106.068 E16.92159
G1 X135.737 Y106.477 E16.95108
G1 X136.251 Y107.049 E16.98945
G1 X136.704 Y107.671 E17.02784
G1 X137.09 Y108.336 E17.0662
G1 X137.405 Y109.038 E17.10459
G1 X137.645 Y109.769 E17.14297
G1 X137.808 Y110.52 E17.18131
G1 X137.892 Y111.285 E17.21971
G1 X137.904 Y111.709 E17.24087
G1 X137.905 Y122.33 E17.77075
G1 X137.865 Y123.098 E17.80912
G1 X137.746 Y123.858 E17.8475
G1 X137.548 Y124.602 E17.88591
G1 X137.274 Y125.32 E17.92425
G1 X136.927 Y126.007 E17.96265
G1 X136.511 Y126.654 E18.00103
G1 X136.062 Y127.224 E18.03723
G1 X135.859 Y127.459 E18.05272
G1 X125.451 Y139.044 E18.82969
G1 X124.908 Y139.589 E18.86807
G1 X124.311 Y140.075 E18.90648
G1 X123.667 Y140.495 E18.94484
G1 X123.008 Y140.836 E18.98186
G1 X122.931 Y140.871 E18.98608
G1 X122.215 Y141.152 E19.02445
G1 X121.474 Y141.358 E19.06282
G1 X120.716 Y141.485 E19.10116
G1 X119.869 Y141.534 E19.14349
G1 X86.623 Y141.535 E20.80214
G1 X85.855 Y141.495 E20.84051
G1 X85.095 Y141.376 E20.87889
G1 X84.352 Y141.178 E20.91725
G1 X83.633 Y140.904 E20.95564
G1 X82.947 Y140.557 E20.99399
G1 X82.3 Y140.141 E21.03237
G1 X81.7 Y139.66 E21.07073
G1 X81.273 Y139.251 E21.10023
G1 X80.759 Y138.679 E21.1386
G1 X80.306 Y138.057 E21.17699
G1 X79.92 Y137.392 E21.21535
G1 X79.605 Y136.69 E21.25373
G1 X79.365 Y135.959 E21.29212
G1 X79.202 Y135.208 E21.33046
G1 X79.118 Y134.443 E21.36886
G1 X79.106 Y134.018 E21.39007
G1 X79.106 Y128.041 E21.68826
G1 X78.334 Y128.001 E21.72683
G1 X77.574 Y127.882 E21.76521
G1 X76.831 Y127.684 E21.80357
G1 X76.112 Y127.41 E21.84196
G1 X75.426 Y127.063 E21.88031
G1 X74.745 Y126.623 E21.92076
G1 X73.313 Y125.58 E22.00914
G1 X72.716 Y125.095 E22.04752
G1 X72.172 Y124.551 E22.0859
G1 X71.688 Y123.954 E22.12424
G1 X71.268 Y123.309 E22.16264
G1 X70.917 Y122.625 E22.201
G1 X70.64 Y121.907 E22.23939
G1 X70.526 Y121.527 E22.25919
G1 X69.957 Y119.419 E22.36812
G1 X69.486 Y118.197 E22.43346
G1 X69.247 Y117.466 E22.47183
G1 X69.085 Y116.714 E22.5102
G1 X69.003 Y115.95 E22.54854
G1 X69.005 Y115.088 E22.59154
G1 X69.124 Y113.133 E22.68926
G1 X69.153 Y111.325 E22.77947
G1 X69.205 Y110.558 E22.81783
G1 X69.337 Y109.8 E22.85621
G1 X69.376 Y109.658 E22.86356
G1 X69.409 Y108.993 E22.89678
G1 X69.549 Y108.204 E22.93676
G1 X69.533 Y107.895 E22.95219
G1 X69.572 Y107.127 E22.99056
G1 X69.638 Y106.639 E23.01513
G1 X70 Y104.518 E23.12247
G1 X70.102 Y104.023 E23.14769
G1 X70.656 Y101.732 E23.26528
G1 X71.233 Y99.127 E23.39839
G1 X71.702 Y96.893 E23.51228
G1 X71.786 Y96.537 E23.53053
G1 X72.42 Y94.122 E23.65509
G1 X72.305 Y93.696 E23.67711
G1 X72.183 Y92.937 E23.71546
G1 X72.141 Y92.169 E23.75383
G1 X72.179 Y91.401 E23.7922
G1 X72.296 Y90.641 E23.83056
G1 X72.506 Y89.851 E23.87134
G1 X73.054 Y88.171 E23.9595
G1 X73.33 Y87.453 E23.99788
G1 X73.679 Y86.768 E24.03624
G1 X74.098 Y86.123 E24.07461
G1 X74.581 Y85.524 E24.113
G1 X75.124 Y84.979 E24.15138
G1 X75.732 Y84.484 E24.19049
G1 X77.164 Y83.441 E24.27888
G1 X77.809 Y83.022 E24.31725
G1 X78.493 Y82.671 E24.35561
G1 X79.106 Y82.433 E24.38841
G1 X79.106 Y75.982 E24.71026
G1 X79.146 Y75.214 E24.74862
G1 X79.265 Y74.454 E24.787
G1 X79.463 Y73.711 E24.82536
G1 X79.737 Y72.992 E24.86375
G1 X80.084 Y72.306 E24.90211
G1 X80.5 Y71.659 E24.94048
G1 X80.981 Y71.059 E24.97885
M205 X10 Y10
G0 F6000 X80.898 Y71.793
M205 X8 Y8
G1 F1200 X81.556 Y71.032 E25.02904
G1 X81.673 Y70.915 E25.03729
G1 X82.23 Y70.415 E25.07464
G1 X82.836 Y69.978 E25.11191
G1 X83.486 Y69.607 E25.14925
G1 X84.172 Y69.308 E25.18658
G1 X84.886 Y69.084 E25.22392
G1 X85.619 Y68.937 E25.26121
G1 X86.623 Y68.865 E25.31143
G1 X119.869 Y68.865 E26.97008
G1 X120.616 Y68.905 E27.0074
G1 X121.354 Y69.024 E27.0447
G1 X122.076 Y69.222 E27.08205
G1 X122.766 Y69.492 E27.11901
G1 X122.843 Y69.527 E27.12323
G1 X123.506 Y69.873 E27.16055
G1 X124.129 Y70.287 E27.19786
G1 X124.704 Y70.766 E27.2352
G1 X125.153 Y71.222 E27.26713
G1 X135.559 Y82.806 E28.044
G1 X135.901 Y83.21 E28.0704
G1 X136.346 Y83.811 E28.10771
G1 X136.724 Y84.457 E28.14505
G1 X137.031 Y85.139 E28.18237
G1 X137.264 Y85.85 E28.2197
G1 X137.419 Y86.581 E28.25698
G1 X137.504 Y87.667 E28.31132
G1 X137.506 Y98.288 E28.84121
G1 X137.466 Y99.035 E28.87853
G1 X137.347 Y99.773 E28.91582
G1 X137.149 Y100.495 E28.95317
G1 X136.876 Y101.191 E28.99047
G1 X136.53 Y101.854 E29.02778
G1 X136.115 Y102.477 E29.06513
G1 X135.456 Y103.239 E29.11539
G1 X135.339 Y103.356 E29.12365
G1 X134.782 Y103.856 E29.16099
G1 X134.176 Y104.293 E29.19826
G1 X133.526 Y104.664 E29.2356
G1 X132.84 Y104.963 E29.27294
G1 X132.721 Y105 E29.27915
G1 X133.29 Y105.223 E29.30964
G1 X133.953 Y105.569 E29.34695
G1 X134.575 Y105.984 E29.38426
G1 X135.337 Y106.643 E29.43452
G1 X135.454 Y106.76 E29.44277
G1 X135.954 Y107.317 E29.48012
G1 X136.391 Y107.923 E29.51739
G1 X136.762 Y108.573 E29.55473
G1 X137.061 Y109.259 E29.59207
G1 X137.285 Y109.973 E29.6294
G1 X137.432 Y110.706 E29.6667
G1 X137.504 Y111.709 E29.71686
G1 X137.505 Y122.33 E30.24675
G1 X137.465 Y123.077 E30.28407
G1 X137.346 Y123.816 E30.32141
G1 X137.148 Y124.537 E30.35872
G1 X136.875 Y125.234 E30.39606
G1 X136.529 Y125.897 E30.43337
G1 X135.904 Y126.786 E30.48759
G1 X135.561 Y127.192 E30.51411
G1 X125.153 Y138.777 E31.29108
G1 X124.624 Y139.306 E31.3284
G1 X124.042 Y139.776 E31.36572
G1 X123.413 Y140.18 E31.40302
G1 X122.843 Y140.472 E31.43497
G1 X122.766 Y140.507 E31.43919
G1 X122.069 Y140.779 E31.47652
G1 X121.347 Y140.976 E31.51386
G1 X120.609 Y141.095 E31.55115
G1 X119.869 Y141.134 E31.58812
G1 X86.623 Y141.135 E33.24677
G1 X85.876 Y141.095 E33.28409
G1 X85.138 Y140.976 E33.32139
G1 X84.416 Y140.778 E33.35874
G1 X83.72 Y140.505 E33.39604
G1 X83.057 Y140.158 E33.43337
G1 X82.434 Y139.744 E33.47069
G1 X81.673 Y139.085 E33.52091
G1 X81.556 Y138.968 E33.52917
G1 X81.056 Y138.411 E33.56651
G1 X80.619 Y137.805 E33.60378
G1 X80.248 Y137.155 E33.64112
G1 X79.949 Y136.469 E33.67846
G1 X79.725 Y135.755 E33.71579
G1 X79.578 Y135.022 E33.75309
G1 X79.506 Y134.018 E33.80331
G1 X79.506 Y127.641 E34.12146
G1 X79.102 Y127.641 E34.14161
G1 X78.355 Y127.601 E34.17893
G1 X77.617 Y127.482 E34.21623
G1 X76.895 Y127.284 E34.25358
G1 X76.199 Y127.011 E34.29088
G1 X75.536 Y126.664 E34.32821
G1 X74.981 Y126.299 E34.36135
G1 X73.549 Y125.256 E34.44974
G1 X72.969 Y124.784 E34.48704
G1 X72.442 Y124.253 E34.52437
G1 X71.975 Y123.668 E34.56171
G1 X71.573 Y123.037 E34.59904
G1 X71.241 Y122.367 E34.63634
G1 X70.912 Y121.422 E34.68627
G1 X70.339 Y119.299 E34.79597
G1 X69.859 Y118.054 E34.86254
G1 X69.628 Y117.342 E34.89989
G1 X69.474 Y116.61 E34.93721
G1 X69.399 Y115.866 E34.97451
G1 X69.404 Y115.112 E35.01213
G1 X69.524 Y113.141 E35.11065
G1 X69.553 Y111.332 E35.20091
G1 X69.605 Y110.586 E35.23822
G1 X69.737 Y109.849 E35.27557
G1 X69.771 Y109.699 E35.28325
G1 X69.816 Y108.952 E35.32058
G1 X69.951 Y108.219 E35.35777
G1 X69.933 Y107.833 E35.37704
G1 X69.979 Y107.086 E35.41438
G1 X70.033 Y106.706 E35.43353
G1 X70.395 Y104.585 E35.54088
G1 X70.491 Y104.117 E35.56471
G1 X71.051 Y101.804 E35.68344
G1 X71.613 Y99.263 E35.81328
G1 X72.094 Y96.975 E35.92992
G1 X72.173 Y96.639 E35.94714
G1 X72.814 Y94.194 E36.07325
G1 X72.829 Y94.104 E36.0778
G1 X72.692 Y93.593 E36.10419
G1 X72.577 Y92.853 E36.14155
G1 X72.541 Y92.106 E36.17887
G1 X72.585 Y91.359 E36.2162
G1 X72.709 Y90.622 E36.25348
G1 X72.886 Y89.975 E36.28695
G1 X73.434 Y88.295 E36.37511
G1 X73.704 Y87.597 E36.41245
G1 X74.046 Y86.932 E36.44976
G1 X74.458 Y86.308 E36.48706
G1 X74.934 Y85.731 E36.52438
G1 X75.469 Y85.208 E36.56171
G1 X75.968 Y84.808 E36.59361
G1 X77.4 Y83.765 E36.682
G1 X78.027 Y83.357 E36.71932
G1 X78.694 Y83.019 E36.75662
G1 X79.394 Y82.754 E36.79396
G1 X79.506 Y82.725 E36.79974
G1 X79.506 Y75.982 E37.13615
G1 X79.546 Y75.235 E37.17347
G1 X79.665 Y74.497 E37.21076
G1 X79.863 Y73.775 E37.24811
G1 X80.136 Y73.079 E37.28541
G1 X80.483 Y72.416 E37.32275
G1 X80.898 Y71.793 E37.36009
M205 X10 Y10
G0 F6000 X81.295 Y71.932
M205 X8 Y8
G1 F1200 X81.839 Y71.315 E37.40113
G1 X81.956 Y71.198 E37.40939
G1 X82.497 Y70.714 E37.4456
G1 X83.088 Y70.291 E37.48186
G1 X83.722 Y69.937 E37.51809
G1 X84.391 Y69.654 E37.55433
G1 X85.087 Y69.446 E37.59057
G1 X85.802 Y69.316 E37.62682
