;FLAVOR:Marlin
;TIME:7106
;Filament used: 4.98136m
;Layer height: 0.2
;MINX:83.494
;MINY:75.641
;MINZ:0.3
;MAXX:124.47
;MAXY:129.245
;MAXZ:76.775
;Generated with Cura_SteamEngine 4.13.1
M82 ;absolute extrusion mode
G21                                        ; metric values 
G90                                        ; absolute positioning 
M82                                        ; set extruder to absolute mode 
M107                                       ; start with the fan off 
M140 S60.0           ; Start heating the bed 
G4 S60                                     ; wait 1 minute 
M104 S220.0         ; start heating the hot end 
M190 S60.0           ; wait for bed 
M109 S220.0         ; wait for hotend 
M300 S1000 P500                            ; BEEP heating done 
G28 X0 Y10 Z0                              ; move X/Y to min endstops 
M420 S1                                    ; Enable leveling 
M420 Z2.0                                  ; Set leveling fading height to 2 mm 
G0 Z0.15                                   ; lift nozzle a bit 
G92 E0                                     ; zero the extruded length 
G1 X50 E25 F500                            ; Extrude 25mm of filament in a 5cm line. 
G92 E0                                     ; zero the extruded length again 
G1 E-2 F500                                ; Retract a little 
G1 X120 F4000                              ; Quickly wipe away from the filament line`
G92 E0
G92 E0
G1 F2400 E-3
;LAYER_COUNT:383
;LAYER:0
M106 S76.5
M205 X10 Y10
G1 F600 Z0.375
G0 F6000 X86.404 Y80.153 Z0.375
M205 X8 Y8
;TYPE:SKIRT
G1 F600 Z0.3
G1 F2400 E0
G1 F1200 X86.954 Y79.586 E0.03941
G1 X87.677 Y78.99 E0.08616
G1 X90.225 Y77.135 E0.2434
G1 X90.886 Y76.703 E0.28279
G1 X91.588 Y76.34 E0.32222
G1 X92.322 Y76.05 E0.36159
G1 X93.082 Y75.836 E0.40099
G1 X93.86 Y75.7 E0.44039
G1 X94.816 Y75.641 E0.48817
G1 X97.964 Y75.641 E0.64523
G1 X98.753 Y75.681 E0.68464
G1 X99.533 Y75.8 E0.72401
G1 X100.298 Y75.998 E0.76343
G1 X101.038 Y76.272 E0.8028
G1 X101.747 Y76.62 E0.8422
G1 X102.555 Y77.135 E0.89001
G1 X105.103 Y78.99 E1.04725
G1 X105.717 Y79.487 E1.08666
G1 X106.278 Y80.043 E1.12606
G1 X106.779 Y80.653 E1.16544
G1 X107.217 Y81.31 E1.20484
G1 X107.585 Y82.008 E1.2442
G1 X107.689 Y82.273 E1.25841
G1 X107.734 Y82.229 E1.26155
G1 X108.348 Y81.732 E1.30096
G1 X109.009 Y81.3 E1.34035
G1 X109.711 Y80.937 E1.37978
G1 X110.445 Y80.647 E1.41915
G1 X111.205 Y80.433 E1.45855
G1 X111.688 Y80.338 E1.4831
G1 X115.276 Y79.754 E1.66447
G1 X116.061 Y79.667 E1.70387
G1 X116.85 Y79.66 E1.74323
G1 X117.637 Y79.732 E1.78266
G1 X118.412 Y79.884 E1.82206
G1 X119.167 Y80.113 E1.86142
G1 X119.896 Y80.417 E1.90083
G1 X120.59 Y80.794 E1.94023
G1 X121.243 Y81.238 E1.97963
G1 X121.725 Y81.633 E2.01072
G1 X122.3 Y82.175 E2.05014
G1 X122.817 Y82.772 E2.08954
G1 X123.271 Y83.418 E2.12893
G1 X123.657 Y84.106 E2.16829
G1 X123.972 Y84.831 E2.20773
G1 X124.212 Y85.583 E2.24711
G1 X124.374 Y86.356 E2.28651
G1 X124.458 Y87.141 E2.3259
G1 X124.47 Y87.573 E2.34746
G1 X124.47 Y96.912 E2.81339
G1 X124.43 Y97.701 E2.8528
G1 X124.311 Y98.481 E2.89217
G1 X124.113 Y99.246 E2.93159
G1 X123.839 Y99.986 E2.97096
G1 X123.491 Y100.695 E3.01036
G1 X123.073 Y101.366 E3.0498
G1 X122.59 Y101.99 E3.08917
G1 X122.185 Y102.427 E3.11889
G1 X122.068 Y102.544 E3.12715
G1 X121.482 Y103.074 E3.16657
G1 X120.846 Y103.541 E3.20593
G1 X120.166 Y103.942 E3.24532
G1 X119.448 Y104.272 E3.28474
G1 X118.701 Y104.527 E3.32412
G1 X117.932 Y104.706 E3.36351
G1 X117.148 Y104.806 E3.40294
G1 X116.584 Y104.829 E3.43111
G1 X110.11 Y104.855 E3.7541
G1 X110.031 Y105.252 E3.77429
G1 X110.581 Y105.639 E3.80784
G1 X111.177 Y106.156 E3.84721
G1 X111.719 Y106.731 E3.88663
G1 X112.199 Y107.357 E3.92598
G1 X112.614 Y108.03 E3.96543
G1 X112.848 Y108.492 E3.99127
G1 X113.155 Y109.151 E4.02754
G1 X113.692 Y110.21 E4.08678
G1 X114.576 Y111.736 E4.17476
G1 X114.987 Y112.553 E4.22039
G1 X115.512 Y113.768 E4.28642
G1 X115.624 Y114.041 E4.30114
G1 X117.162 Y118.005 E4.51327
G1 X117.41 Y118.754 E4.55263
G1 X117.581 Y119.525 E4.59203
G1 X117.673 Y120.31 E4.63147
G1 X117.685 Y121.099 E4.67083
G1 X117.618 Y121.886 E4.71024
G1 X117.471 Y122.662 E4.74964
G1 X117.246 Y123.419 E4.78904
G1 X116.947 Y124.15 E4.82845
G1 X116.582 Y124.833 E4.86708
G1 X116.482 Y125 E4.87679
G1 X116.043 Y125.656 E4.91617
G1 X115.539 Y126.265 E4.95561
G1 X114.976 Y126.819 E4.99502
G1 X114.361 Y127.313 E5.03437
G1 X113.698 Y127.743 E5.0738
G1 X112.996 Y128.104 E5.11318
G1 X112.26 Y128.391 E5.15259
G1 X111.5 Y128.603 E5.19196
G1 X110.804 Y128.727 E5.22723
G1 X107.333 Y129.182 E5.40188
G1 X106.546 Y129.245 E5.44127
G1 X105.756 Y129.228 E5.48069
G1 X104.972 Y129.131 E5.5201
G1 X104.202 Y128.955 E5.55951
G1 X103.454 Y128.703 E5.59889
G1 X102.991 Y128.503 E5.62405
G1 X102.885 Y128.453 E5.6299
G1 X102.189 Y128.08 E5.66929
G1 X101.534 Y127.639 E5.70869
G1 X100.927 Y127.134 E5.74808
G1 X100.374 Y126.57 E5.78749
G1 X99.881 Y125.953 E5.82689
G1 X99.599 Y125.532 E5.85217
G1 X98.592 Y123.921 E5.94695
G1 X98.215 Y123.269 E5.98453
G1 X97.465 Y122 E6.05807
G1 X97.259 Y121.63 E6.07919
G1 X96.447 Y120.069 E6.16698
G1 X95.722 Y118.565 E6.25028
G1 X95.169 Y117.519 E6.30931
G1 X95.01 Y117.209 E6.32669
G1 X94.708 Y116.547 E6.36299
G1 X94.256 Y115.418 E6.42366
G1 X93.577 Y115.14 E6.46027
G1 X92.88 Y114.769 E6.49966
G1 X92.305 Y114.389 E6.53405
G1 X90.676 Y113.206 E6.63449
G1 X90.061 Y112.711 E6.67387
G1 X89.5 Y112.155 E6.71328
G1 X88.997 Y111.546 E6.75269
G1 X88.639 Y111.133 E6.77995
G1 X88.137 Y110.523 E6.81937
G1 X87.7 Y109.866 E6.85873
G1 X87.331 Y109.168 E6.89812
G1 X86.988 Y108.295 E6.94492
G1 X86.687 Y107.371 E6.9934
G1 X86.48 Y106.609 E7.0328
G1 X86.352 Y105.829 E7.07223
G1 X86.303 Y105.041 E7.11162
G1 X86.335 Y104.252 E7.15102
G1 X86.446 Y103.47 E7.19042
G1 X86.687 Y102.539 E7.2384
G1 X86.988 Y101.615 E7.28688
G1 X87.27 Y100.878 E7.32625
G1 X87.625 Y100.172 E7.36568
G1 X88.05 Y99.507 E7.40505
G1 X88.54 Y98.887 E7.44448
G1 X88.636 Y98.789 E7.45132
G1 X88.421 Y98.125 E7.48614
G1 X87.677 Y97.584 E7.53203
G1 X87.063 Y97.087 E7.57144
G1 X86.502 Y96.531 E7.61085
G1 X86.001 Y95.921 E7.65023
G1 X85.563 Y95.264 E7.68963
G1 X85.195 Y94.566 E7.72899
G1 X84.851 Y93.693 E7.77581
G1 X83.877 Y90.702 E7.93274
G1 X83.671 Y89.94 E7.97212
G1 X83.543 Y89.161 E8.01151
G1 X83.494 Y88.372 E8.05095
G1 X83.526 Y87.583 E8.09034
G1 X83.637 Y86.802 E8.1297
G1 X83.877 Y85.872 E8.17762
G1 X84.851 Y82.881 E8.33455
G1 X85.134 Y82.143 E8.37398
G1 X85.489 Y81.438 E8.41336
G1 X85.914 Y80.772 E8.45278
G1 X86.404 Y80.153 E8.49217
M205 X10 Y10
G0 F6000 X86.757 Y80.357
M205 X8 Y8
G1 F1200 X87.3 Y79.812 E8.53055
G1 X87.913 Y79.313 E8.56998
G1 X90.461 Y77.458 E8.72722
G1 X91.105 Y77.039 E8.76555
G1 X91.79 Y76.688 E8.80395
G1 X92.507 Y76.41 E8.84232
G1 X93.249 Y76.209 E8.88067
G1 X94.008 Y76.085 E8.91904
G1 X94.816 Y76.041 E8.95941
G1 X97.964 Y76.041 E9.11647
G1 X98.732 Y76.081 E9.15483
G1 X99.492 Y76.2 E9.19321
G1 X100.235 Y76.398 E9.23157
G1 X100.954 Y76.672 E9.26996
G1 X101.64 Y77.019 E9.30832
G1 X102.319 Y77.458 E9.34865
G1 X104.867 Y79.313 E9.50589
G1 X105.465 Y79.798 E9.54431
G1 X106.009 Y80.342 E9.58269
G1 X106.493 Y80.939 E9.62103
G1 X106.913 Y81.583 E9.65939
G1 X107.264 Y82.268 E9.69779
G1 X107.54 Y82.984 E9.73607
G1 X108.031 Y82.5 E9.77047
G1 X108.632 Y82.021 E9.80881
G1 X109.28 Y81.606 E9.8472
G1 X109.968 Y81.261 E9.8856
G1 X110.687 Y80.989 E9.92395
G1 X111.752 Y80.733 E9.9786
G1 X115.34 Y80.149 E10.15996
G1 X116.105 Y80.065 E10.19836
G1 X116.874 Y80.061 E10.23672
G1 X117.639 Y80.137 E10.27508
G1 X118.393 Y80.292 E10.31348
G1 X119.126 Y80.524 E10.35184
G1 X119.831 Y80.831 E10.3902
G1 X120.501 Y81.209 E10.42858
G1 X121.325 Y81.818 E10.4797
G1 X121.466 Y81.938 E10.48894
G1 X122.025 Y82.466 E10.5273
G1 X122.526 Y83.049 E10.56565
G1 X122.964 Y83.682 E10.60405
G1 X123.334 Y84.356 E10.64241
G1 X123.632 Y85.065 E10.68078
G1 X123.855 Y85.801 E10.71915
G1 X124 Y86.557 E10.75755
G1 X124.07 Y87.573 E10.80836
G1 X124.07 Y96.912 E11.27429
G1 X124.03 Y97.68 E11.31266
G1 X123.911 Y98.44 E11.35103
G1 X123.713 Y99.183 E11.3894
G1 X123.439 Y99.902 E11.42778
G1 X123.092 Y100.588 E11.46614
G1 X122.676 Y101.235 E11.50451
G1 X122.195 Y101.835 E11.54288
G1 X121.786 Y102.262 E11.57238
G1 X121.214 Y102.776 E11.61074
G1 X120.592 Y103.229 E11.64913
G1 X119.927 Y103.615 E11.68749
G1 X119.225 Y103.93 E11.72588
G1 X118.494 Y104.17 E11.76427
G1 X117.743 Y104.333 E11.80261
G1 X116.978 Y104.417 E11.841
G1 X116.582 Y104.429 E11.86077
G1 X109.761 Y104.456 E12.20107
G1 X109.679 Y105.025 E12.22975
G1 X109.621 Y105.46 E12.25165
G1 X109.721 Y105.523 E12.25754
G1 X110.35 Y105.966 E12.29593
G1 X110.929 Y106.472 E12.33429
G1 X111.453 Y107.036 E12.3727
G1 X111.915 Y107.651 E12.41107
G1 X112.311 Y108.31 E12.44943
G1 X112.485 Y108.66 E12.46893
G1 X112.787 Y109.309 E12.50464
G1 X113.35 Y110.419 E12.56674
G1 X114.229 Y111.936 E12.65421
G1 X114.62 Y112.712 E12.69756
G1 X115.145 Y113.927 E12.76359
G1 X115.251 Y114.185 E12.77751
G1 X116.789 Y118.149 E12.98964
G1 X117.029 Y118.88 E13.02802
G1 X117.193 Y119.631 E13.06637
G1 X117.277 Y120.396 E13.10477
G1 X117.282 Y121.165 E13.14313
G1 X117.207 Y121.931 E13.18153
G1 X117.053 Y122.684 E13.21988
G1 X116.821 Y123.418 E13.25828
G1 X116.515 Y124.123 E13.29663
G1 X116.239 Y124.628 E13.32534
G1 X116.139 Y124.795 E13.33505
G1 X115.71 Y125.433 E13.3734
G1 X115.217 Y126.024 E13.4118
G1 X114.666 Y126.56 E13.45015
G1 X114.061 Y127.036 E13.48856
G1 X113.411 Y127.447 E13.52693
G1 X112.722 Y127.788 E13.56528
G1 X112.001 Y128.055 E13.60364
G1 X111.256 Y128.246 E13.64201
G1 X110.752 Y128.33 E13.6675
G1 X107.281 Y128.785 E13.84215
G1 X106.514 Y128.845 E13.88053
G1 X105.745 Y128.826 E13.91891
G1 X104.982 Y128.726 E13.9573
G1 X104.234 Y128.548 E13.99566
G1 X103.162 Y128.141 E14.05287
G1 X103.056 Y128.091 E14.05872
G1 X102.378 Y127.727 E14.09711
G1 X101.742 Y127.295 E14.13547
G1 X101.154 Y126.799 E14.17384
G1 X100.621 Y126.245 E14.2122
G1 X99.938 Y125.32 E14.26956
G1 X98.931 Y123.709 E14.36435
G1 X98.56 Y123.068 E14.4013
G1 X97.809 Y121.797 E14.47495
G1 X97.614 Y121.445 E14.49502
G1 X96.802 Y119.884 E14.58281
G1 X96.068 Y118.361 E14.66716
G1 X95.525 Y117.336 E14.72503
G1 X95.366 Y117.026 E14.74241
G1 X95.08 Y116.398 E14.77684
G1 X94.558 Y115.094 E14.84691
G1 X94.384 Y115.041 E14.85599
G1 X93.675 Y114.744 E14.89434
G1 X93 Y114.374 E14.93274
G1 X92.54 Y114.066 E14.96036
G1 X90.911 Y112.883 E15.0608
G1 X90.313 Y112.399 E15.09918
G1 X89.768 Y111.856 E15.13756
G1 X89.283 Y111.259 E15.17594
G1 X88.908 Y110.834 E15.20421
G1 X88.423 Y110.237 E15.24259
G1 X88.003 Y109.593 E15.28095
G1 X87.652 Y108.908 E15.31935
G1 X87.368 Y108.171 E15.35875
G1 X87.067 Y107.247 E15.40723
G1 X86.867 Y106.504 E15.44562
G1 X86.745 Y105.745 E15.48398
G1 X86.703 Y104.977 E15.52235
G1 X86.741 Y104.209 E15.56071
G1 X86.858 Y103.448 E15.59912
G1 X87.067 Y102.663 E15.63965
G1 X87.368 Y101.739 E15.68813
G1 X87.644 Y101.021 E15.72651
G1 X87.993 Y100.336 E15.76487
G1 X88.411 Y99.69 E15.80325
G1 X88.894 Y99.091 E15.84164
G1 X89.095 Y98.888 E15.85589
G1 X88.868 Y98.241 E15.8901
G1 X88.781 Y97.893 E15.908
G1 X87.913 Y97.261 E15.96157
G1 X87.315 Y96.776 E15.99998
G1 X86.771 Y96.232 E16.03836
G1 X86.287 Y95.635 E16.0767
G1 X85.867 Y94.991 E16.11506
G1 X85.516 Y94.306 E16.15346
G1 X85.232 Y93.569 E16.19287
G1 X84.258 Y90.578 E16.3498
G1 X84.058 Y89.836 E16.38814
G1 X83.936 Y89.076 E16.42654
G1 X83.894 Y88.308 E16.46492
G1 X83.932 Y87.54 E16.50328
G1 X84.049 Y86.78 E16.54164
G1 X84.258 Y85.996 E16.58212
G1 X85.232 Y83.005 E16.73906
G1 X85.508 Y82.287 E16.77743
G1 X85.856 Y81.601 E16.81581
G1 X86.275 Y80.956 E16.85418
G1 X86.757 Y80.357 E16.89254
M205 X10 Y10
G0 F6000 X87.11 Y80.563
M205 X8 Y8
G1 F1200 X87.645 Y80.04 E16.92987
G1 X88.148 Y79.637 E16.96202
G1 X90.696 Y77.782 E17.11926
G1 X91.323 Y77.375 E17.15656
G1 X91.991 Y77.036 E17.19393
G1 X92.69 Y76.772 E17.23121
G1 X93.414 Y76.583 E17.26854
G1 X94.154 Y76.472 E17.30587
G1 X94.816 Y76.441 E17.33893
G1 X97.964 Y76.441 E17.49599
G1 X98.711 Y76.481 E17.53331
G1 X99.449 Y76.6 E17.5706
G1 X100.171 Y76.798 E17.60795
G1 X100.867 Y77.071 E17.64525
G1 X101.53 Y77.418 E17.68259
G1 X102.084 Y77.782 E17.71566
G1 X104.632 Y79.637 E17.8729
G1 X105.212 Y80.109 E17.9102
G1 X105.739 Y80.64 E17.94753
G1 X106.206 Y81.224 E17.98483
G1 X106.608 Y81.855 E18.02216
G1 X106.94 Y82.525 E18.05947
G1 X107.168 Y83.129 E18.09168
G1 X107.383 Y83.789 E18.12631
G1 X107.792 Y83.295 E18.1583
G1 X108.327 Y82.772 E18.19563
G1 X108.916 Y82.31 E18.23298
G1 X109.55 Y81.913 E18.2703
G1 X110.223 Y81.586 E18.30762
G1 X110.926 Y81.333 E18.3449
G1 X111.816 Y81.128 E18.39046
G1 X115.404 Y80.544 E18.57183
G1 X116.148 Y80.463 E18.60916
G1 X116.896 Y80.463 E18.64648
G1 X117.64 Y80.542 E18.68381
G1 X118.371 Y80.7 E18.72112
G1 X119.081 Y80.935 E18.75843
G1 X119.762 Y81.245 E18.79576
G1 X120.406 Y81.625 E18.83307
G1 X121.066 Y82.122 E18.87429
G1 X121.207 Y82.242 E18.88352
G1 X121.75 Y82.757 E18.92086
G1 X122.235 Y83.326 E18.95816
G1 X122.656 Y83.944 E18.99547
G1 X123.009 Y84.604 E19.03281
G1 X123.29 Y85.297 E19.07012
G1 X123.495 Y86.017 E19.10747
G1 X123.622 Y86.754 E19.14478
G1 X123.67 Y87.573 E19.18571
G1 X123.67 Y96.912 E19.65163
G1 X123.63 Y97.659 E19.68895
G1 X123.511 Y98.397 E19.72625
G1 X123.313 Y99.119 E19.7636
G1 X123.04 Y99.815 E19.8009
G1 X122.693 Y100.478 E19.83823
G1 X122.278 Y101.101 E19.87558
G1 X121.62 Y101.862 E19.92577
G1 X121.503 Y101.979 E19.93402
G1 X120.946 Y102.479 E19.97137
G1 X120.34 Y102.916 E20.00864
G1 X119.69 Y103.287 E20.04598
G1 X119.004 Y103.586 E20.08331
G1 X118.29 Y103.81 E20.12065
G1 X117.557 Y103.957 E20.15795
G1 X116.581 Y104.029 E20.20677
G1 X109.395 Y104.057 E20.56528
G1 X109.383 Y104.309 E20.57787
G1 X109.266 Y105.048 E20.6152
G1 X109.107 Y105.636 E20.64559
G1 X109.508 Y105.861 E20.66853
G1 X110.119 Y106.293 E20.70586
G1 X110.68 Y106.788 E20.74319
G1 X111.185 Y107.34 E20.78051
G1 X111.629 Y107.942 E20.81783
G1 X112.123 Y108.829 E20.86848
G1 X112.432 Y109.492 E20.90498
G1 X113.001 Y110.615 E20.96779
G1 X113.883 Y112.137 E21.05555
G1 X114.253 Y112.87 E21.09651
G1 X114.778 Y114.085 E21.16254
G1 X114.878 Y114.33 E21.17575
G1 X116.416 Y118.294 E21.38788
G1 X116.649 Y119.005 E21.4252
G1 X116.805 Y119.737 E21.46254
G1 X116.881 Y120.481 E21.49985
G1 X116.878 Y121.229 E21.53717
G1 X116.796 Y121.972 E21.57447
G1 X116.634 Y122.703 E21.61182
G1 X116.395 Y123.411 E21.6491
G1 X116.082 Y124.091 E21.68645
G1 X115.796 Y124.589 E21.7151
G1 X115.378 Y125.21 E21.75245
G1 X114.896 Y125.782 E21.78976
G1 X114.356 Y126.299 E21.82706
G1 X113.763 Y126.756 E21.86441
G1 X113.126 Y127.147 E21.9017
G1 X112.45 Y127.468 E21.93904
G1 X111.744 Y127.715 E21.97635
G1 X110.7 Y127.934 E22.02957
G1 X107.229 Y128.389 E22.20422
G1 X106.483 Y128.446 E22.24155
G1 X105.735 Y128.424 E22.27888
G1 X104.994 Y128.321 E22.31621
G1 X104.268 Y128.141 E22.35352
G1 X103.333 Y127.779 E22.40354
G1 X103.227 Y127.729 E22.40939
G1 X102.568 Y127.374 E22.44674
G1 X101.951 Y126.951 E22.48406
G1 X101.383 Y126.465 E22.52135
G1 X100.87 Y125.92 E22.55869
G1 X100.277 Y125.108 E22.60886
G1 X99.27 Y123.497 E22.70364
G1 X98.895 Y122.845 E22.74117
G1 X98.154 Y121.593 E22.81375
G1 X97.969 Y121.26 E22.83275
G1 X97.157 Y119.699 E22.92054
G1 X96.44 Y118.21 E23.00299
G1 X95.88 Y117.154 E23.06262
G1 X95.721 Y116.844 E23.08
G1 X95.451 Y116.249 E23.1126
G1 X94.858 Y114.767 E23.19224
G1 X94.461 Y114.644 E23.21297
G1 X93.775 Y114.348 E23.25025
G1 X93.123 Y113.979 E23.28763
G1 X92.775 Y113.742 E23.30863
G1 X91.146 Y112.559 E23.40907
G1 X90.565 Y112.088 E23.44639
G1 X90.037 Y111.557 E23.48375
G1 X89.57 Y110.973 E23.52105
