;FLAVOR:Marlin
;TIME:1380
;Filament used: 1.06895m
;Layer height: 0.2
;MINX:80.574
;MINY:89.885
;MINZ:0.3
;MAXX:129.426
;MAXY:120.115
;MAXZ:6.775
;Generated with Cura_SteamEngine 4.13.1
M82 ;absolute extrusion mode
G21                                        ; metric values 
G90                                        ; absolute positioning 
M82                                        ; set extruder to absolute mode 
M107                                       ; start with the fan off 
M140 S60.0           ; Start heating the bed 
G4 S60                                     ; wait 1 minute 
M104 S220.0         ; start heating the hot end 
M190 S60.0           ; wait for bed 
M109 S220.0         ; wait for hotend 
M300 S1000 P500                            ; BEEP heating done 
G28 X0 Y10 Z0                              ; move X/Y to min endstops 
M420 S1                                    ; Enable leveling 
M420 Z2.0                                  ; Set leveling fading height to 2 mm 
G0 Z0.15                                   ; lift nozzle a bit 
G92 E0                                     ; zero the extruded length 
G1 X50 E25 F500                            ; Extrude 25mm of filament in a 5cm line. 
G92 E0                                     ; zero the extruded length again 
G1 E-2 F500                                ; Retract a little 
G1 X120 F4000                              ; Quickly wipe away from the filament line`
G92 E0
G92 E0
G1 F2400 E-3
;LAYER_COUNT:33
;LAYER:0
M106 S76.5
M205 X10 Y10
G1 F600 Z0.375
G0 F6000 X82.976 Y92.17 Z0.375
M205 X8 Y8
;TYPE:SKIRT
G1 F600 Z0.3
G1 F2400 E0
G1 F1200 X83.562 Y91.64 E0.03942
G1 X84.198 Y91.173 E0.07878
G1 X84.878 Y90.772 E0.11817
G1 X85.596 Y90.442 E0.15759
G1 X86.343 Y90.187 E0.19697
G1 X87.112 Y90.008 E0.23636
G1 X87.896 Y89.908 E0.27579
G1 X88.491 Y89.885 E0.3055
G1 X121.509 Y89.885 E1.95278
G1 X122.298 Y89.925 E1.99219
G1 X123.078 Y90.044 E2.03155
G1 X123.843 Y90.242 E2.07098
G1 X124.583 Y90.516 E2.11035
G1 X125.292 Y90.864 E2.14975
G1 X125.963 Y91.282 E2.18919
G1 X126.587 Y91.765 E2.22856
G1 X127.024 Y92.17 E2.25828
G1 X127.141 Y92.287 E2.26654
G1 X127.671 Y92.873 E2.30596
G1 X128.138 Y93.509 E2.34532
G1 X128.539 Y94.189 E2.38471
G1 X128.869 Y94.907 E2.42413
G1 X129.124 Y95.654 E2.46351
G1 X129.303 Y96.423 E2.5029
G1 X129.403 Y97.207 E2.54233
G1 X129.426 Y97.802 E2.57204
G1 X129.426 Y112.198 E3.29026
G1 X129.386 Y112.987 E3.32967
G1 X129.267 Y113.767 E3.36904
G1 X129.069 Y114.532 E3.40846
G1 X128.795 Y115.272 E3.44783
G1 X128.447 Y115.981 E3.48723
G1 X128.029 Y116.652 E3.52667
G1 X127.546 Y117.276 E3.56604
G1 X127.141 Y117.713 E3.59577
G1 X127.024 Y117.83 E3.60402
G1 X126.438 Y118.36 E3.64344
G1 X125.802 Y118.827 E3.68281
G1 X125.122 Y119.228 E3.72219
G1 X124.404 Y119.558 E3.76162
G1 X123.657 Y119.813 E3.801
G1 X122.888 Y119.992 E3.84039
G1 X122.104 Y120.092 E3.87982
G1 X121.509 Y120.115 E3.90952
G1 X88.491 Y120.115 E5.5568
G1 X87.702 Y120.075 E5.59621
G1 X86.922 Y119.956 E5.63558
G1 X86.157 Y119.758 E5.675
G1 X85.417 Y119.484 E5.71437
G1 X84.708 Y119.136 E5.75377
G1 X84.037 Y118.718 E5.79321
G1 X83.413 Y118.235 E5.83258
G1 X82.976 Y117.83 E5.86231
G1 X82.859 Y117.713 E5.87056
G1 X82.329 Y117.127 E5.90998
G1 X81.862 Y116.491 E5.94935
G1 X81.461 Y115.811 E5.98873
G1 X81.131 Y115.093 E6.02815
G1 X80.876 Y114.346 E6.06753
G1 X80.697 Y113.577 E6.10693
G1 X80.597 Y112.793 E6.14636
G1 X80.574 Y112.198 E6.17606
G1 X80.574 Y97.802 E6.89428
G1 X80.614 Y97.013 E6.9337
G1 X80.733 Y96.233 E6.97306
G1 X80.931 Y95.468 E7.01248
G1 X81.205 Y94.728 E7.05185
G1 X81.553 Y94.019 E7.09126
G1 X81.971 Y93.348 E7.1307
G1 X82.454 Y92.724 E7.17006
G1 X82.859 Y92.287 E7.19979
G1 X82.976 Y92.17 E7.20804
M205 X10 Y10
G0 F6000 X83.258 Y92.452
M205 X8 Y8
G1 F1200 X83.83 Y91.938 E7.24641
G1 X84.452 Y91.485 E7.2848
G1 X85.117 Y91.099 E7.32316
G1 X85.819 Y90.784 E7.36155
G1 X86.55 Y90.544 E7.39993
G1 X87.301 Y90.381 E7.43827
G1 X88.066 Y90.297 E7.47667
G1 X88.491 Y90.285 E7.49788
G1 X121.509 Y90.285 E9.14516
G1 X122.277 Y90.325 E9.18352
G1 X123.037 Y90.444 E9.2219
G1 X123.78 Y90.642 E9.26026
G1 X124.499 Y90.916 E9.29865
G1 X125.185 Y91.263 E9.33701
G1 X125.832 Y91.679 E9.37538
G1 X126.432 Y92.16 E9.41375
G1 X126.859 Y92.569 E9.44325
G1 X127.373 Y93.141 E9.48161
G1 X127.826 Y93.763 E9.52
G1 X128.212 Y94.428 E9.55836
G1 X128.527 Y95.13 E9.59675
G1 X128.767 Y95.861 E9.63513
G1 X128.93 Y96.612 E9.67347
G1 X129.014 Y97.377 E9.71187
G1 X129.026 Y97.802 E9.73308
G1 X129.026 Y112.198 E10.4513
G1 X128.986 Y112.966 E10.48967
G1 X128.867 Y113.726 E10.52805
G1 X128.669 Y114.469 E10.56641
G1 X128.395 Y115.188 E10.6048
G1 X128.048 Y115.874 E10.64315
G1 X127.632 Y116.521 E10.68153
G1 X127.151 Y117.121 E10.71989
G1 X126.742 Y117.548 E10.74939
G1 X126.17 Y118.062 E10.78776
G1 X125.548 Y118.515 E10.82615
G1 X124.883 Y118.901 E10.86451
G1 X124.181 Y119.216 E10.90289
G1 X123.45 Y119.456 E10.94128
G1 X122.699 Y119.619 E10.97962
G1 X121.934 Y119.703 E11.01801
G1 X121.509 Y119.715 E11.03923
G1 X88.491 Y119.715 E12.6865
G1 X87.723 Y119.675 E12.72487
G1 X86.963 Y119.556 E12.76325
G1 X86.22 Y119.358 E12.80161
G1 X85.501 Y119.084 E12.84
G1 X84.815 Y118.737 E12.87835
G1 X84.168 Y118.321 E12.91673
G1 X83.568 Y117.84 E12.95509
G1 X83.141 Y117.431 E12.98459
G1 X82.627 Y116.859 E13.02296
G1 X82.174 Y116.237 E13.06135
G1 X81.788 Y115.572 E13.09971
G1 X81.473 Y114.87 E13.13809
G1 X81.233 Y114.139 E13.17648
G1 X81.07 Y113.388 E13.21482
G1 X80.986 Y112.623 E13.25321
G1 X80.974 Y112.198 E13.27443
G1 X80.974 Y97.802 E13.99265
G1 X81.014 Y97.034 E14.03101
G1 X81.133 Y96.274 E14.06939
G1 X81.331 Y95.531 E14.10775
G1 X81.605 Y94.812 E14.14614
G1 X81.952 Y94.126 E14.1845
G1 X82.368 Y93.479 E14.22287
G1 X82.849 Y92.879 E14.26124
G1 X83.258 Y92.452 E14.29074
M205 X10 Y10
G0 F6000 X83.541 Y92.735
M205 X8 Y8
G1 F1200 X84.098 Y92.235 E14.32808
G1 X84.704 Y91.798 E14.36535
G1 X85.354 Y91.427 E14.40269
G1 X86.04 Y91.128 E14.44003
G1 X86.754 Y90.904 E14.47736
G1 X87.487 Y90.757 E14.51466
G1 X88.491 Y90.685 E14.56488
G1 X121.509 Y90.685 E16.21215
G1 X122.256 Y90.725 E16.24947
G1 X122.994 Y90.844 E16.28677
G1 X123.716 Y91.042 E16.32412
G1 X124.412 Y91.315 E16.36142
G1 X125.075 Y91.662 E16.39875
G1 X125.698 Y92.077 E16.4361
G1 X126.459 Y92.735 E16.48629
G1 X126.576 Y92.852 E16.49454
G1 X127.076 Y93.409 E16.53188
G1 X127.513 Y94.015 E16.56916
G1 X127.884 Y94.665 E16.6065
G1 X128.183 Y95.351 E16.64383
G1 X128.407 Y96.065 E16.68117
G1 X128.554 Y96.798 E16.71846
G1 X128.626 Y97.802 E16.76868
G1 X128.626 Y112.198 E17.4869
G1 X128.586 Y112.945 E17.52422
G1 X128.467 Y113.683 E17.56152
G1 X128.269 Y114.405 E17.59887
G1 X127.996 Y115.101 E17.63617
G1 X127.649 Y115.764 E17.6735
G1 X127.234 Y116.387 E17.71085
G1 X126.576 Y117.148 E17.76104
G1 X126.459 Y117.265 E17.76929
G1 X125.902 Y117.765 E17.80664
G1 X125.296 Y118.202 E17.84391
G1 X124.646 Y118.573 E17.88125
G1 X123.96 Y118.872 E17.91858
G1 X123.246 Y119.096 E17.95592
G1 X122.513 Y119.243 E17.99321
G1 X121.509 Y119.315 E18.04343
G1 X88.491 Y119.315 E19.69071
G1 X87.744 Y119.275 E19.72803
G1 X87.006 Y119.156 E19.76532
G1 X86.284 Y118.958 E19.80267
G1 X85.588 Y118.685 E19.83997
G1 X84.925 Y118.338 E19.87731
G1 X84.302 Y117.923 E19.91465
G1 X83.541 Y117.265 E19.96484
G1 X83.424 Y117.148 E19.9731
G1 X82.924 Y116.591 E20.01044
G1 X82.487 Y115.985 E20.04772
G1 X82.116 Y115.335 E20.08506
G1 X81.817 Y114.649 E20.12239
G1 X81.593 Y113.935 E20.15972
G1 X81.446 Y113.202 E20.19702
G1 X81.374 Y112.198 E20.24724
G1 X81.374 Y97.802 E20.96546
G1 X81.414 Y97.055 E21.00278
G1 X81.533 Y96.317 E21.04007
G1 X81.731 Y95.595 E21.07742
G1 X82.004 Y94.899 E21.11472
G1 X82.351 Y94.236 E21.15206
G1 X82.766 Y93.613 E21.1894
G1 X83.424 Y92.852 E21.23959
G1 X83.541 Y92.735 E21.24785
M205 X10 Y10
G0 F6000 X83.824 Y93.018
M205 X8 Y8
G1 F1200 X84.365 Y92.534 E21.28407
G1 X84.956 Y92.111 E21.32032
G1 X85.59 Y91.757 E21.35655
G1 X86.259 Y91.474 E21.39279
G1 X86.955 Y91.266 E21.42903
G1 X87.67 Y91.136 E21.46529
G1 X88.491 Y91.085 E21.50633
G1 X121.509 Y91.085 E23.1536
G1 X122.234 Y91.125 E23.18983
G1 X122.951 Y91.244 E23.22609
G1 X123.65 Y91.442 E23.26233
G1 X124.323 Y91.715 E23.29857
G1 X124.962 Y92.06 E23.3348
G1 X125.559 Y92.474 E23.37104
G1 X126.176 Y93.018 E23.41208
G1 X126.293 Y93.135 E23.42034
G1 X126.777 Y93.676 E23.45655
G1 X127.2 Y94.267 E23.49281
G1 X127.554 Y94.901 E23.52904
G1 X127.837 Y95.57 E23.56528
G1 X128.045 Y96.266 E23.60152
G1 X128.175 Y96.981 E23.63777
G1 X128.226 Y97.802 E23.67881
G1 X128.226 Y112.198 E24.39703
G1 X128.186 Y112.923 E24.43326
G1 X128.067 Y113.64 E24.46952
G1 X127.869 Y114.339 E24.50576
G1 X127.596 Y115.012 E24.542
G1 X127.251 Y115.651 E24.57823
G1 X126.837 Y116.248 E24.61447
G1 X126.293 Y116.865 E24.65551
G1 X126.176 Y116.982 E24.66377
G1 X125.635 Y117.466 E24.69998
G1 X125.044 Y117.889 E24.73624
G1 X124.41 Y118.243 E24.77247
G1 X123.741 Y118.526 E24.80871
G1 X123.045 Y118.734 E24.84495
G1 X122.33 Y118.864 E24.8812
G1 X121.509 Y118.915 E24.92224
G1 X88.491 Y118.915 E26.56952
G1 X87.766 Y118.875 E26.60574
G1 X87.049 Y118.756 E26.642
G1 X86.35 Y118.558 E26.67825
G1 X85.677 Y118.285 E26.71448
G1 X85.038 Y117.94 E26.75071
G1 X84.441 Y117.526 E26.78696
G1 X83.824 Y116.982 E26.828
G1 X83.707 Y116.865 E26.83625
G1 X83.223 Y116.324 E26.87247
G1 X82.8 Y115.733 E26.90873
G1 X82.446 Y115.099 E26.94495
G1 X82.163 Y114.43 E26.98119
G1 X81.955 Y113.734 E27.01743
G1 X81.825 Y113.019 E27.05369
G1 X81.774 Y112.198 E27.09473
G1 X81.774 Y97.802 E27.81295
G1 X81.814 Y97.077 E27.84917
G1 X81.933 Y96.36 E27.88543
G1 X82.131 Y95.661 E27.92168
G1 X82.404 Y94.988 E27.95791
G1 X82.749 Y94.349 E27.99414
G1 X83.163 Y93.752 E28.03039
G1 X83.707 Y93.135 E28.07143
G1 X83.824 Y93.018 E28.07968
M205 X10 Y10
G0 F6000 X84.107 Y93.301
M205 X8 Y8
G1 F1200 X84.632 Y92.832 E28.1148
G1 X85.207 Y92.426 E28.14992
G1 X85.825 Y92.088 E28.18506
G1 X86.476 Y91.821 E28.22017
G1 X87.154 Y91.631 E28.2553
G1 X87.849 Y91.518 E28.29042
G1 X88.491 Y91.485 E28.3225
G1 X121.509 Y91.485 E29.96977
G1 X122.212 Y91.525 E30.0049
G1 X122.906 Y91.644 E30.04003
G1 X123.581 Y91.842 E30.07512
G1 X124.23 Y92.114 E30.11023
G1 X124.844 Y92.459 E30.14537
G1 X125.415 Y92.87 E30.18047
G1 X125.893 Y93.301 E30.21258
G1 X126.01 Y93.418 E30.22083
G1 X126.479 Y93.943 E30.25595
G1 X126.885 Y94.518 E30.29107
G1 X127.223 Y95.136 E30.32621
G1 X127.49 Y95.787 E30.36132
G1 X127.68 Y96.465 E30.39645
G1 X127.793 Y97.16 E30.43158
G1 X127.826 Y97.802 E30.46365
G1 X127.826 Y112.198 E31.18187
G1 X127.786 Y112.901 E31.217
G1 X127.667 Y113.595 E31.25213
G1 X127.469 Y114.27 E31.28722
G1 X127.197 Y114.919 E31.32233
G1 X126.852 Y115.533 E31.35747
G1 X126.441 Y116.104 E31.39256
G1 X126.01 Y116.582 E31.42467
G1 X125.893 Y116.699 E31.43293
G1 X125.368 Y117.168 E31.46805
G1 X124.793 Y117.574 E31.50317
G1 X124.175 Y117.912 E31.53831
G1 X123.524 Y118.179 E31.57342
G1 X122.846 Y118.369 E31.60854
G1 X122.151 Y118.482 E31.64367
G1 X121.509 Y118.515 E31.67574
G1 X88.491 Y118.515 E33.32302
G1 X87.788 Y118.475 E33.35815
G1 X87.094 Y118.356 E33.39328
G1 X86.419 Y118.158 E33.42837
G1 X85.77 Y117.886 E33.46348
G1 X85.156 Y117.541 E33.49862
G1 X84.585 Y117.13 E33.53372
G1 X84.107 Y116.699 E33.56583
G1 X83.99 Y116.582 E33.57408
G1 X83.521 Y116.057 E33.6092
G1 X83.115 Y115.482 E33.64432
G1 X82.777 Y114.864 E33.67946
G1 X82.51 Y114.213 E33.71457
G1 X82.32 Y113.535 E33.7497
G1 X82.207 Y112.84 E33.78482
G1 X82.174 Y112.198 E33.8169
G1 X82.174 Y97.802 E34.53512
G1 X82.214 Y97.099 E34.57025
G1 X82.333 Y96.405 E34.60537
G1 X82.531 Y95.73 E34.64047
G1 X82.803 Y95.081 E34.67558
G1 X83.148 Y94.467 E34.71071
G1 X83.559 Y93.896 E34.74581
G1 X83.99 Y93.418 E34.77792
G1 X84.107 Y93.301 E34.78618
M205 X10 Y10
G0 F6000 X84.39 Y93.584
M205 X8 Y8
G1 F1200 X84.899 Y93.131 E34.82017
G1 X85.457 Y92.742 E34.85411
G1 X86.057 Y92.42 E34.88808
G1 X86.691 Y92.171 E34.92206
G1 X87.35 Y91.998 E34.95606
G1 X88.024 Y91.904 E34.99001
G1 X88.491 Y91.885 E35.01332
G1 X121.509 Y91.885 E36.6606
G1 X122.189 Y91.925 E36.69458
G1 X122.859 Y92.044 E36.72853
G1 X123.511 Y92.241 E36.76251
G1 X124.135 Y92.513 E36.79647
G1 X124.723 Y92.857 E36.83046
G1 X125.267 Y93.267 E36.86445
G1 X125.727 Y93.701 E36.896
G1 X126.18 Y94.21 E36.92999
G1 X126.569 Y94.768 E36.96393
G1 X126.891 Y95.368 E36.9979
G1 X127.14 Y96.002 E37.03188
G1 X127.313 Y96.661 E37.06588
G1 X127.407 Y97.335 E37.09983
G1 X127.426 Y97.802 E37.12314
G1 X127.426 Y112.198 E37.84136
G1 X127.386 Y112.878 E37.87535
G1 X127.267 Y113.548 E37.9093
G1 X127.07 Y114.2 E37.94328
G1 X126.798 Y114.824 E37.97724
G1 X126.454 Y115.412 E38.01123
G1 X126.044 Y115.956 E38.04521
G1 X125.61 Y116.416 E38.07676
G1 X125.101 Y116.869 E38.11076
G1 X124.543 Y117.258 E38.14469
G1 X123.943 Y117.58 E38.17867
G1 X123.309 Y117.829 E38.21265
G1 X122.65 Y118.002 E38.24664
G1 X121.976 Y118.096 E38.28059
G1 X121.509 Y118.115 E38.30391
G1 X88.491 Y118.115 E39.95118
G1 X87.811 Y118.075 E39.98517
G1 X87.141 Y117.956 E40.01912
G1 X86.489 Y117.759 E40.0531
G1 X85.865 Y117.487 E40.08706
G1 X85.277 Y117.143 E40.12105
G1 X84.733 Y116.733 E40.15503
G1 X84.273 Y116.299 E40.18658
G1 X83.82 Y115.79 E40.22058
G1 X83.431 Y115.232 E40.25451
G1 X83.109 Y114.632 E40.28849
G1 X82.86 Y113.998 E40.32247
G1 X82.687 Y113.339 E40.35646
G1 X82.593 Y112.665 E40.39041
G1 X82.574 Y112.198 E40.41373
G1 X82.574 Y97.802 E41.13195
G1 X82.614 Y97.122 E41.16593
G1 X82.733 Y96.452 E41.19988
G1 X82.93 Y95.8 E41.23386
G1 X83.202 Y95.176 E41.26782
G1 X83.546 Y94.588 E41.30181
G1 X83.956 Y94.044 E41.3358
G1 X84.39 Y93.584 E41.36735
M205 X10 Y10
G0 F6000 X84.673 Y93.867
M205 X8 Y8
G1 F1200 X85.165 Y93.431 E41.40014
G1 X85.706 Y93.059 E41.4329
G1 X86.288 Y92.755 E41.46566
G1 X86.903 Y92.524 E41.49843
G1 X87.542 Y92.369 E41.53124
G1 X88.491 Y92.285 E41.57877
G1 X121.509 Y92.285 E43.22604
G1 X122.165 Y92.325 E43.25883
G1 X122.811 Y92.444 E43.2916
G1 X123.438 Y92.641 E43.32439
G1 X124.036 Y92.913 E43.35717
G1 X124.597 Y93.255 E43.38995
G1 X125.327 Y93.867 E43.43747
G1 X125.444 Y93.984 E43.44573
G1 X125.88 Y94.476 E43.47853
G1 X126.252 Y95.017 E43.51128
G1 X126.556 Y95.599 E43.54404
G1 X126.787 Y96.214 E43.57681
G1 X126.942 Y96.853 E43.60962
G1 X127.026 Y97.802 E43.65715
G1 X127.026 Y112.198 E44.37537
G1 X126.986 Y112.854 E44.40816
G1 X126.867 Y113.5 E44.44093
G1 X126.67 Y114.127 E44.47372
G1 X126.398 Y114.725 E44.50649
G1 X126.056 Y115.286 E44.53927
G1 X125.444 Y116.016 E44.5868
G1 X125.327 Y116.133 E44.59505
G1 X124.835 Y116.569 E44.62785
G1 X124.294 Y116.941 E44.66061
G1 X123.712 Y117.245 E44.69336
G1 X123.097 Y117.476 E44.72614
G1 X122.458 Y117.631 E44.75894
G1 X121.509 Y117.715 E44.80648
G1 X88.491 Y117.715 E46.45375
G1 X87.835 Y117.675 E46.48654
G1 X87.189 Y117.556 E46.51931
G1 X86.562 Y117.359 E46.5521
G1 X85.964 Y117.087 E46.58487
G1 X85.403 Y116.745 E46.61765
G1 X84.673 Y116.133 E46.66518
G1 X84.556 Y116.016 E46.67343
G1 X84.12 Y115.524 E46.70623
G1 X83.748 Y114.983 E46.73899
G1 X83.444 Y114.401 E46.77175
G1 X83.213 Y113.786 E46.80452
G1 X83.058 Y113.147 E46.83733
G1 X82.974 Y112.198 E46.88486
G1 X82.974 Y97.802 E47.60308
G1 X83.014 Y97.146 E47.63586
G1 X83.133 Y96.5 E47.66864
G1 X83.33 Y95.873 E47.70142
G1 X83.602 Y95.275 E47.7342
G1 X83.944 Y94.714 E47.76698
G1 X84.556 Y93.984 E47.8145
G1 X84.673 Y93.867 E47.82276
M205 X10 Y10
G0 F6000 X84.955 Y94.149
M205 X8 Y8
G1 F1200 X85.43 Y93.732 E47.85429
G1 X85.953 Y93.377 E47.88583
G1 X86.517 Y93.091 E47.91738
G1 X87.112 Y92.879 E47.94889
G1 X87.73 Y92.743 E47.98046
G1 X88.491 Y92.685 E48.01854
G1 X121.509 Y92.685 E49.66581
G1 X122.14 Y92.725 E49.69736
G1 X122.761 Y92.844 E49.7289
