;FLAVOR:Marlin
;TIME:5312
;Filament used: 4.02864m
;Layer height: 0.2
;MINX:51.14
;MINY:72.701
;MINZ:0.3
;MAXX:160.335
;MAXY:137.299
;MAXZ:20.975
;Generated with Cura_SteamEngine 4.13.1
M82 ;absolute extrusion mode
G21                                        ; metric values 
G90                                        ; absolute positioning 
M82                                        ; set extruder to absolute mode 
M107                                       ; start with the fan off 
M140 S60.0           ; Start heating the bed 
G4 S60                                     ; wait 1 minute 
M104 S220.0         ; start heating the hot end 
M190 S60.0           ; wait for bed 
M109 S220.0         ; wait for hotend 
M300 S1000 P500                            ; BEEP heating done 
G28 X0 Y10 Z0                              ; move X/Y to min endstops 
M420 S1                                    ; Enable leveling 
M420 Z2.0                                  ; Set leveling fading height to 2 mm 
G0 Z0.15                                   ; lift nozzle a bit 
G92 E0                                     ; zero the extruded length 
G1 X50 E25 F500                            ; Extrude 25mm of filament in a 5cm line. 
G92 E0                                     ; zero the extruded length again 
G1 E-2 F500                                ; Retract a little 
G1 X120 F4000                              ; Quickly wipe away from the filament line`
G92 E0
G92 E0
G1 F2400 E-3
;LAYER_COUNT:104
;LAYER:0
M106 S76.5
M205 X10 Y10
G1 F600 Z0.375
G0 F6000 X58.928 Y79.644 Z0.375
M205 X8 Y8
;TYPE:SKIRT
G1 F600 Z0.3
G1 F2400 E0
G1 F1200 X59.564 Y79.177 E0.03937
G1 X60.244 Y78.776 E0.07875
G1 X60.962 Y78.446 E0.11817
G1 X61.709 Y78.191 E0.15755
G1 X62.478 Y78.012 E0.19694
G1 X63.262 Y77.912 E0.23638
G1 X63.857 Y77.889 E0.26608
G1 X136.258 Y77.889 E3.87818
G1 X136.386 Y77.544 E3.89654
G1 X136.734 Y76.835 E3.93594
G1 X137.152 Y76.164 E3.97539
G1 X137.635 Y75.54 E4.01475
G1 X138.04 Y75.103 E4.04448
G1 X138.157 Y74.986 E4.05273
G1 X138.743 Y74.456 E4.09215
G1 X139.379 Y73.989 E4.13152
G1 X140.059 Y73.588 E4.1709
G1 X140.777 Y73.258 E4.21033
G1 X141.524 Y73.003 E4.24971
G1 X142.293 Y72.824 E4.2891
G1 X143.077 Y72.724 E4.32853
G1 X143.672 Y72.701 E4.35824
G1 X145.386 Y72.701 E4.44375
G1 X146.175 Y72.741 E4.48316
G1 X146.955 Y72.86 E4.52253
G1 X148.052 Y73.171 E4.57941
G1 X148.118 Y73.195 E4.58292
G1 X148.845 Y73.502 E4.62229
G1 X149.538 Y73.881 E4.66169
G1 X150.414 Y74.506 E4.71538
G1 X156.203 Y79.279 E5.0897
G1 X156.529 Y79.494 E5.10919
G1 X157.141 Y79.994 E5.14861
G1 X157.699 Y80.553 E5.18802
G1 X158.198 Y81.165 E5.22741
G1 X158.632 Y81.825 E5.26682
G1 X158.997 Y82.525 E5.30621
G1 X159.289 Y83.259 E5.34562
G1 X159.511 Y84.038 E5.38603
G1 X160.141 Y86.793 E5.52703
G1 X160.278 Y87.571 E5.56644
G1 X160.335 Y88.359 E5.60586
G1 X160.313 Y89.148 E5.64523
G1 X160.211 Y89.931 E5.68463
G1 X160.03 Y90.7 E5.72404
G1 X159.772 Y91.446 E5.76342
G1 X159.44 Y92.163 E5.80284
G1 X159.038 Y92.842 E5.84221
G1 X158.624 Y93.41 E5.87728
G1 X158.503 Y93.561 E5.88693
G1 X157.978 Y94.151 E5.92633
G1 X157.397 Y94.685 E5.9657
G1 X156.765 Y95.158 E6.00508
G1 X156.088 Y95.565 E6.04449
G1 X155.373 Y95.901 E6.08391
G1 X154.628 Y96.163 E6.12331
G1 X153.86 Y96.348 E6.16272
G1 X153.078 Y96.455 E6.2021
G1 X152.416 Y96.483 E6.23515
G1 X98.106 Y96.483 E8.94469
G1 X97.489 Y96.877 E8.98121
G1 X96.784 Y97.232 E9.02059
G1 X95.777 Y97.597 E9.07403
G1 X81.469 Y101.696 E9.81658
G1 X81.66 Y101.928 E9.83157
G1 X82.097 Y102.585 E9.87093
G1 X82.466 Y103.283 E9.91032
G1 X82.81 Y104.157 E9.95718
G1 X83.214 Y105.398 E10.0223
G1 X83.42 Y106.161 E10.06173
G1 X83.548 Y106.94 E10.10111
G1 X83.597 Y107.728 E10.1405
G1 X83.565 Y108.517 E10.1799
G1 X83.454 Y109.299 E10.2193
G1 X83.214 Y110.228 E10.26717
G1 X82.81 Y111.469 E10.33228
G1 X82.528 Y112.206 E10.37165
G1 X82.172 Y112.911 E10.41105
G1 X81.748 Y113.577 E10.45044
G1 X81.258 Y114.196 E10.48983
G1 X80.708 Y114.763 E10.52924
G1 X80.337 Y115.069 E10.55323
G1 X80.352 Y115.161 E10.55788
G1 X80.401 Y115.949 E10.59727
G1 X80.369 Y116.738 E10.63667
G1 X80.258 Y117.52 E10.67607
G1 X80.017 Y118.451 E10.72405
G1 X79.716 Y119.375 E10.77254
G1 X79.434 Y120.112 E10.8119
G1 X79.079 Y120.818 E10.85133
G1 X78.654 Y121.483 E10.8907
G1 X78.182 Y122.08 E10.92867
G1 X78.182 Y129.382 E11.29297
G1 X78.142 Y130.171 E11.33238
G1 X78.023 Y130.951 E11.37175
G1 X77.825 Y131.716 E11.41117
G1 X77.551 Y132.456 E11.45054
G1 X77.203 Y133.165 E11.48994
G1 X76.785 Y133.836 E11.52938
G1 X76.302 Y134.46 E11.56875
G1 X75.897 Y134.897 E11.59848
G1 X75.78 Y135.014 E11.60673
G1 X75.194 Y135.544 E11.64615
G1 X74.558 Y136.011 E11.68552
G1 X73.878 Y136.412 E11.7249
G1 X73.16 Y136.742 E11.76433
G1 X72.413 Y136.997 E11.8037
G1 X71.644 Y137.176 E11.8431
G1 X70.86 Y137.276 E11.88253
G1 X70.265 Y137.299 E11.91223
G1 X63.857 Y137.299 E12.23193
G1 X63.068 Y137.259 E12.27134
G1 X62.288 Y137.14 E12.31071
G1 X61.523 Y136.942 E12.35013
G1 X60.783 Y136.668 E12.3895
G1 X60.074 Y136.32 E12.4289
G1 X59.403 Y135.902 E12.46834
G1 X58.779 Y135.419 E12.50771
G1 X58.342 Y135.014 E12.53744
G1 X58.225 Y134.897 E12.54569
G1 X57.695 Y134.311 E12.58511
G1 X57.228 Y133.675 E12.62448
G1 X56.827 Y132.995 E12.66386
G1 X56.497 Y132.277 E12.70329
G1 X56.242 Y131.53 E12.74267
G1 X56.063 Y130.761 E12.78206
G1 X55.963 Y129.977 E12.82149
G1 X55.94 Y129.382 E12.85119
G1 X55.94 Y126.952 E12.97243
G1 X55.884 Y126.916 E12.97575
G1 X54.774 Y126.108 E13.04425
G1 X54.159 Y125.612 E13.08366
G1 X53.599 Y125.056 E13.12303
G1 X53.097 Y124.446 E13.16245
G1 X52.66 Y123.788 E13.20185
G1 X52.291 Y123.09 E13.24124
G1 X51.947 Y122.216 E13.2881
G1 X51.523 Y120.913 E13.35647
G1 X51.317 Y120.15 E13.3959
G1 X51.189 Y119.371 E13.43528
G1 X51.14 Y118.583 E13.47467
G1 X51.172 Y117.794 E13.51407
G1 X51.283 Y117.012 E13.55347
G1 X51.58 Y115.915 E13.61017
G1 X52.102 Y114.428 E13.6888
G1 X52.401 Y113.698 E13.72815
G1 X52.773 Y113.001 E13.76757
G1 X53.212 Y112.345 E13.80695
G1 X53.716 Y111.737 E13.84635
G1 X54.279 Y111.183 E13.88576
G1 X54.895 Y110.689 E13.92515
G1 X55.578 Y110.248 E13.96571
G1 X55.94 Y110.04 E13.98654
G1 X55.94 Y85.806 E15.19558
G1 X55.98 Y85.017 E15.23499
G1 X56.099 Y84.237 E15.27436
G1 X56.297 Y83.472 E15.31378
G1 X56.571 Y82.732 E15.35315
G1 X56.919 Y82.023 E15.39255
G1 X57.337 Y81.352 E15.43199
G1 X57.82 Y80.728 E15.47136
G1 X58.225 Y80.291 E15.50109
G1 X58.342 Y80.174 E15.50934
G1 X58.928 Y79.644 E15.54876
M205 X10 Y10
G0 F6000 X59.196 Y79.942
M205 X8 Y8
G1 F1200 X59.818 Y79.489 E15.58715
G1 X60.483 Y79.103 E15.62551
G1 X61.185 Y78.788 E15.6639
G1 X61.916 Y78.548 E15.70228
G1 X62.667 Y78.385 E15.74062
G1 X63.432 Y78.301 E15.77902
G1 X63.857 Y78.289 E15.80023
G1 X136.534 Y78.289 E19.4261
G1 X136.786 Y77.628 E19.46139
G1 X137.133 Y76.942 E19.49975
G1 X137.549 Y76.295 E19.53812
G1 X138.03 Y75.695 E19.57649
G1 X138.439 Y75.268 E19.60599
G1 X139.011 Y74.754 E19.64435
G1 X139.633 Y74.301 E19.68274
G1 X140.298 Y73.915 E19.7211
G1 X141 Y73.6 E19.75949
G1 X141.731 Y73.36 E19.79788
G1 X142.482 Y73.197 E19.83622
G1 X143.247 Y73.113 E19.87461
G1 X143.672 Y73.101 E19.89582
G1 X145.386 Y73.101 E19.98134
G1 X146.154 Y73.141 E20.0197
G1 X146.914 Y73.26 E20.05808
G1 X147.915 Y73.547 E20.11003
G1 X147.981 Y73.571 E20.11354
G1 X148.689 Y73.871 E20.1519
G1 X149.362 Y74.243 E20.19026
G1 X150.159 Y74.815 E20.23921
G1 X155.961 Y79.598 E20.61435
G1 X156.325 Y79.84 E20.63615
G1 X156.917 Y80.331 E20.67453
G1 X157.455 Y80.88 E20.71288
G1 X157.933 Y81.483 E20.75126
G1 X158.347 Y82.131 E20.78963
G1 X158.69 Y82.82 E20.82803
G1 X158.961 Y83.54 E20.86641
G1 X159.121 Y84.127 E20.89676
G1 X159.751 Y86.882 E21.03776
G1 X159.883 Y87.64 E21.07614
G1 X159.936 Y88.407 E21.1145
G1 X159.909 Y89.176 E21.15289
G1 X159.802 Y89.938 E21.19128
G1 X159.617 Y90.684 E21.22962
G1 X159.355 Y91.408 E21.26804
G1 X159.02 Y92.1 E21.30639
G1 X158.615 Y92.754 E21.34477
G1 X158.312 Y93.159 E21.37001
G1 X158.191 Y93.31 E21.37966
G1 X157.679 Y93.885 E21.41807
G1 X157.111 Y94.403 E21.45642
G1 X156.492 Y94.859 E21.49478
G1 X155.829 Y95.249 E21.53316
G1 X155.129 Y95.568 E21.57153
G1 X154.399 Y95.812 E21.60993
G1 X153.649 Y95.98 E21.64828
G1 X152.885 Y96.068 E21.68665
G1 X152.416 Y96.083 E21.71006
G1 X97.973 Y96.083 E24.42623
G1 X97.873 Y96.161 E24.43256
G1 X97.221 Y96.569 E24.47093
G1 X96.53 Y96.906 E24.50929
G1 X95.667 Y97.213 E24.55498
G1 X80.757 Y101.485 E25.32878
G1 X80.889 Y101.617 E25.33809
G1 X81.374 Y102.214 E25.37647
G1 X81.794 Y102.858 E25.41482
G1 X82.145 Y103.543 E25.45322
G1 X82.43 Y104.281 E25.49269
G1 X82.834 Y105.522 E25.5578
G1 X83.033 Y106.265 E25.59618
G1 X83.155 Y107.025 E25.63458
G1 X83.197 Y107.793 E25.67295
G1 X83.159 Y108.561 E25.71132
G1 X83.042 Y109.321 E25.74968
G1 X82.834 Y110.104 E25.7901
G1 X82.43 Y111.345 E25.85521
G1 X82.154 Y112.063 E25.89359
G1 X81.805 Y112.748 E25.93194
G1 X81.387 Y113.394 E25.97033
G1 X80.904 Y113.993 E26.00872
G1 X80.362 Y114.538 E26.04707
G1 X79.905 Y114.909 E26.07643
G1 X79.959 Y115.245 E26.09341
G1 X80.001 Y116.013 E26.13178
G1 X79.963 Y116.781 E26.17015
G1 X79.846 Y117.542 E26.20856
G1 X79.637 Y118.327 E26.24909
G1 X79.336 Y119.251 E26.29757
G1 X79.06 Y119.969 E26.33595
G1 X78.711 Y120.654 E26.3743
G1 X78.293 Y121.3 E26.41269
G1 X77.81 Y121.899 E26.45108
G1 X77.782 Y121.927 E26.45305
G1 X77.782 Y129.382 E26.82499
G1 X77.742 Y130.15 E26.86335
G1 X77.623 Y130.91 E26.90173
G1 X77.425 Y131.653 E26.94009
G1 X77.151 Y132.372 E26.97848
G1 X76.804 Y133.058 E27.01683
G1 X76.388 Y133.705 E27.05521
G1 X75.907 Y134.305 E27.09358
G1 X75.498 Y134.732 E27.12307
G1 X74.926 Y135.246 E27.16144
G1 X74.304 Y135.699 E27.19983
G1 X73.639 Y136.085 E27.23819
G1 X72.937 Y136.4 E27.27658
G1 X72.206 Y136.64 E27.31496
G1 X71.455 Y136.803 E27.3533
G1 X70.69 Y136.887 E27.3917
G1 X70.265 Y136.899 E27.41291
G1 X63.857 Y136.899 E27.73261
G1 X63.089 Y136.859 E27.77097
G1 X62.329 Y136.74 E27.80935
G1 X61.586 Y136.542 E27.84772
G1 X60.867 Y136.268 E27.8861
G1 X60.181 Y135.921 E27.92446
G1 X59.534 Y135.505 E27.96283
G1 X58.934 Y135.024 E28.0012
G1 X58.507 Y134.615 E28.0307
G1 X57.993 Y134.043 E28.06906
G1 X57.54 Y133.421 E28.10745
G1 X57.154 Y132.756 E28.14581
G1 X56.839 Y132.054 E28.1842
G1 X56.599 Y131.323 E28.22259
G1 X56.436 Y130.572 E28.26093
G1 X56.352 Y129.807 E28.29932
G1 X56.34 Y129.382 E28.32053
G1 X56.34 Y126.736 E28.45254
G1 X56.119 Y126.593 E28.46567
G1 X55.009 Y125.785 E28.53417
G1 X54.411 Y125.3 E28.57258
G1 X53.868 Y124.757 E28.6109
G1 X53.383 Y124.159 E28.64931
G1 X52.963 Y123.515 E28.68767
G1 X52.612 Y122.83 E28.72607
G1 X52.327 Y122.092 E28.76554
G1 X51.903 Y120.789 E28.8339
G1 X51.704 Y120.046 E28.87227
G1 X51.582 Y119.287 E28.91063
G1 X51.54 Y118.519 E28.949
G1 X51.578 Y117.75 E28.98741
G1 X51.695 Y116.99 E29.02577
G1 X51.958 Y116.048 E29.07457
G1 X52.48 Y114.561 E29.15319
G1 X52.772 Y113.849 E29.19159
G1 X53.136 Y113.172 E29.22993
G1 X53.569 Y112.536 E29.26832
G1 X54.065 Y111.949 E29.30666
G1 X54.62 Y111.416 E29.34505
G1 X55.227 Y110.944 E29.38341
G1 X55.777 Y110.595 E29.41591
G1 X56.34 Y110.272 E29.44829
G1 X56.34 Y85.806 E30.66891
G1 X56.38 Y85.038 E30.70727
G1 X56.499 Y84.278 E30.74565
G1 X56.697 Y83.535 E30.78401
G1 X56.971 Y82.816 E30.8224
G1 X57.318 Y82.13 E30.86076
G1 X57.734 Y81.483 E30.89913
G1 X58.215 Y80.883 E30.9375
G1 X58.624 Y80.456 E30.967
G1 X59.196 Y79.942 E31.00536
M205 X10 Y10
G0 F6000 X59.464 Y80.239
M205 X8 Y8
G1 F1200 X60.07 Y79.802 E31.04264
G1 X60.72 Y79.431 E31.07998
G1 X61.406 Y79.132 E31.11731
G1 X62.12 Y78.908 E31.15464
G1 X62.853 Y78.761 E31.19194
G1 X63.857 Y78.689 E31.24216
G1 X136.836 Y78.689 E34.8831
G1 X136.912 Y78.411 E34.89748
G1 X137.185 Y77.715 E34.93477
G1 X137.532 Y77.052 E34.97211
G1 X137.947 Y76.429 E35.00945
G1 X138.605 Y75.668 E35.05964
G1 X138.722 Y75.551 E35.0679
G1 X139.279 Y75.051 E35.10524
G1 X139.885 Y74.614 E35.14252
G1 X140.535 Y74.243 E35.17986
G1 X141.221 Y73.944 E35.21719
G1 X141.935 Y73.72 E35.25452
G1 X142.668 Y73.573 E35.29182
G1 X143.672 Y73.501 E35.34204
G1 X145.386 Y73.501 E35.42755
G1 X146.133 Y73.541 E35.46487
G1 X146.871 Y73.66 E35.50217
G1 X147.778 Y73.922 E35.54927
G1 X147.844 Y73.946 E35.55277
G1 X148.533 Y74.239 E35.59013
G1 X149.186 Y74.604 E35.62745
G1 X149.905 Y75.124 E35.67172
G1 X155.717 Y79.916 E36.04753
G1 X156.119 Y80.186 E36.07169
G1 X156.691 Y80.667 E36.10897
G1 X157.209 Y81.207 E36.14631
G1 X157.667 Y81.799 E36.18365
G1 X158.058 Y82.436 E36.22094
G1 X158.38 Y83.112 E36.25829
G1 X158.627 Y83.818 E36.29561
G1 X158.731 Y84.217 E36.31618
G1 X159.361 Y86.972 E36.45718
G1 X159.488 Y87.709 E36.49449
G1 X159.537 Y88.455 E36.53179
G1 X159.505 Y89.203 E36.56914
G1 X159.393 Y89.942 E36.60643
G1 X159.204 Y90.666 E36.64376
G1 X158.938 Y91.365 E36.68107
G1 X158.599 Y92.032 E36.7184
G1 X158 Y92.909 E36.77138
G1 X157.879 Y93.06 E36.78104
G1 X157.38 Y93.618 E36.81838
G1 X156.825 Y94.12 E36.85572
G1 X156.22 Y94.559 E36.89301
G1 X155.571 Y94.932 E36.93036
G1 X154.886 Y95.233 E36.96769
G1 X154.173 Y95.459 E37.005
G1 X153.44 Y95.608 E37.04232
G1 X152.416 Y95.683 E37.09354
G1 X97.834 Y95.683 E39.81665
G1 X97.593 Y95.868 E39.83181
G1 X96.955 Y96.258 E39.86912
G1 X96.279 Y96.578 E39.90643
G1 X95.557 Y96.828 E39.94455
G1 X79.979 Y101.291 E40.753
G1 X80.093 Y101.384 E40.76034
G1 X80.619 Y101.915 E40.79763
G1 X81.086 Y102.5 E40.83498
G1 X81.489 Y103.13 E40.87229
G1 X81.821 Y103.801 E40.90964
G1 X82.049 Y104.405 E40.94185
G1 X82.453 Y105.646 E41.00696
G1 X82.646 Y106.369 E41.04429
G1 X82.761 Y107.108 E41.08161
G1 X82.797 Y107.855 E41.11892
G1 X82.752 Y108.602 E41.15625
G1 X82.628 Y109.34 E41.19359
G1 X82.453 Y109.98 E41.22669
G1 X82.049 Y111.221 E41.2918
G1 X81.78 Y111.919 E41.32912
G1 X81.438 Y112.584 E41.36643
G1 X81.027 Y113.209 E41.40375
G1 X80.551 Y113.786 E41.44107
G1 X80.017 Y114.31 E41.47839
G1 X79.512 Y114.714 E41.51066
G1 X79.474 Y114.742 E41.51301
G1 X79.565 Y115.329 E41.54265
G1 X79.601 Y116.076 E41.57996
G1 X79.557 Y116.823 E41.61729
G1 X79.433 Y117.56 E41.65458
G1 X79.257 Y118.203 E41.68784
G1 X78.956 Y119.127 E41.73632
G1 X78.686 Y119.825 E41.77366
G1 X78.344 Y120.49 E41.81096
G1 X77.933 Y121.115 E41.84828
G1 X77.457 Y121.692 E41.8856
G1 X77.382 Y121.765 E41.89082
G1 X77.382 Y129.382 E42.27084
G1 X77.342 Y130.129 E42.30816
G1 X77.223 Y130.867 E42.34545
G1 X77.025 Y131.589 E42.3828
G1 X76.752 Y132.285 E42.4201
G1 X76.405 Y132.948 E42.45744
G1 X75.99 Y133.571 E42.49478
G1 X75.332 Y134.332 E42.54497
G1 X75.215 Y134.449 E42.55323
G1 X74.658 Y134.949 E42.59057
G1 X74.052 Y135.386 E42.62785
G1 X73.402 Y135.757 E42.66518
G1 X72.716 Y136.056 E42.70252
G1 X72.002 Y136.28 E42.73985
G1 X71.269 Y136.427 E42.77715
G1 X70.265 Y136.499 E42.82737
G1 X63.857 Y136.499 E43.14706
G1 X63.11 Y136.459 E43.18439
G1 X62.372 Y136.34 E43.22168
G1 X61.65 Y136.142 E43.25903
G1 X60.954 Y135.869 E43.29633
G1 X60.291 Y135.522 E43.33366
G1 X59.668 Y135.107 E43.37101
G1 X58.907 Y134.449 E43.4212
G1 X58.79 Y134.332 E43.42946
G1 X58.29 Y133.775 E43.4668
G1 X57.853 Y133.169 E43.50407
G1 X57.482 Y132.519 E43.54141
G1 X57.183 Y131.833 E43.57875
G1 X56.959 Y131.119 E43.61608
G1 X56.812 Y130.386 E43.65338
G1 X56.74 Y129.382 E43.7036
G1 X56.74 Y126.523 E43.84623
G1 X56.354 Y126.269 E43.86929
G1 X55.244 Y125.461 E43.93778
G1 X54.664 Y124.989 E43.97509
G1 X54.137 Y124.458 E44.01241
G1 X53.67 Y123.874 E44.04972
G1 X53.268 Y123.243 E44.08705
G1 X52.936 Y122.573 E44.12435
G1 X52.708 Y121.968 E44.15661
G1 X52.284 Y120.665 E44.22497
G1 X52.09 Y119.942 E44.26231
G1 X51.976 Y119.203 E44.29962
G1 X51.94 Y118.456 E44.33693
G1 X51.985 Y117.709 E44.37427
G1 X52.109 Y116.971 E44.4116
G1 X52.335 Y116.18 E44.45264
