;FLAVOR:Marlin
;TIME:5313
;Filament used: 4.029m
;Layer height: 0.2
;MINX:49.669
;MINY:72.701
;MINZ:0.3
;MAXX:159.087
;MAXY:137.299
;MAXZ:20.975
;Generated with Cura_SteamEngine 4.13.1
M82 ;absolute extrusion mode
G21                                        ; metric values 
G90                                        ; absolute positioning 
M82                                        ; set extruder to absolute mode 
M107                                       ; start with the fan off 
M140 S60.0           ; Start heating the bed 
G4 S60                                     ; wait 1 minute 
M104 S220.0         ; start heating the hot end 
M190 S60.0           ; wait for bed 
M109 S220.0         ; wait for hotend 
M300 S1000 P500                            ; BEEP heating done 
G28 X0 Y10 Z0                              ; move X/Y to min endstops 
M420 S1                                    ; Enable leveling 
M420 Z2.0                                  ; Set leveling fading height to 2 mm 
G0 Z0.15                                   ; lift nozzle a bit 
G92 E0                                     ; zero the extruded length 
G1 X50 E25 F500                            ; Extrude 25mm of filament in a 5cm line. 
G92 E0                                     ; zero the extruded length again 
G1 E-2 F500                                ; Retract a little 
G1 X120 F4000                              ; Quickly wipe away from the filament line`
G92 E0
G92 E0
G1 F2400 E-3
;LAYER_COUNT:104
;LAYER:0
M106 S76.5
M205 X10 Y10
G1 F600 Z0.375
G0 F6000 X59.585 Y74.507 Z0.375
M205 X8 Y8
;TYPE:SKIRT
G1 F600 Z0.3
G1 F2400 E0
G1 F1200 X60.219 Y74.036 E0.0394
G1 X60.897 Y73.632 E0.07878
G1 X61.881 Y73.195 E0.13249
G1 X61.947 Y73.171 E0.136
G1 X62.702 Y72.939 E0.1754
G1 X63.477 Y72.784 E0.21483
G1 X64.613 Y72.701 E0.27166
G1 X66.328 Y72.701 E0.35722
G1 X67.117 Y72.741 E0.39664
G1 X67.897 Y72.86 E0.436
G1 X68.662 Y73.058 E0.47542
G1 X69.402 Y73.332 E0.51479
G1 X70.111 Y73.68 E0.5542
G1 X70.782 Y74.098 E0.59364
G1 X71.406 Y74.581 E0.633
G1 X71.843 Y74.986 E0.66273
G1 X71.96 Y75.103 E0.67098
G1 X72.49 Y75.689 E0.7104
G1 X72.957 Y76.325 E0.74977
G1 X73.358 Y77.005 E0.78915
G1 X73.688 Y77.723 E0.82858
G1 X73.745 Y77.889 E0.83733
G1 X146.144 Y77.889 E4.44934
G1 X146.933 Y77.929 E4.48875
G1 X147.713 Y78.048 E4.52811
G1 X148.478 Y78.246 E4.56754
G1 X149.218 Y78.52 E4.60691
G1 X149.927 Y78.868 E4.64631
G1 X150.598 Y79.286 E4.68575
G1 X151.222 Y79.769 E4.72512
G1 X151.659 Y80.174 E4.75484
G1 X151.776 Y80.291 E4.7631
G1 X152.306 Y80.877 E4.80252
G1 X152.773 Y81.513 E4.84188
G1 X153.174 Y82.193 E4.88127
G1 X153.504 Y82.911 E4.92069
G1 X153.759 Y83.658 E4.96007
G1 X153.938 Y84.427 E4.99946
G1 X154.038 Y85.211 E5.03889
G1 X154.061 Y85.806 E5.0686
G1 X154.06 Y109.972 E6.27425
G1 X154.721 Y110.36 E6.31248
G1 X155.381 Y110.794 E6.35189
G1 X155.993 Y111.292 E6.39126
G1 X156.552 Y111.85 E6.43066
G1 X157.052 Y112.462 E6.47009
G1 X157.487 Y113.121 E6.50948
G1 X157.854 Y113.82 E6.54887
G1 X158.121 Y114.476 E6.58421
G1 X158.643 Y115.947 E6.66208
G1 X158.869 Y116.704 E6.70149
G1 X159.017 Y117.48 E6.74091
G1 X159.087 Y118.266 E6.78028
G1 X159.076 Y119.056 E6.81969
G1 X158.986 Y119.84 E6.85906
G1 X158.709 Y120.97 E6.91711
G1 X158.285 Y122.273 E6.98547
G1 X158.003 Y123.01 E7.02484
G1 X157.648 Y123.715 E7.06422
G1 X157.223 Y124.381 E7.10363
G1 X156.733 Y125.001 E7.14306
G1 X156.184 Y125.567 E7.1824
G1 X155.458 Y126.165 E7.22933
G1 X154.348 Y126.973 E7.29782
G1 X154.06 Y127.161 E7.31498
G1 X154.06 Y129.382 E7.42579
G1 X154.02 Y130.171 E7.4652
G1 X153.901 Y130.951 E7.50457
G1 X153.703 Y131.716 E7.54399
G1 X153.429 Y132.456 E7.58336
G1 X153.081 Y133.165 E7.62276
G1 X152.663 Y133.836 E7.6622
G1 X152.18 Y134.46 E7.70157
G1 X151.775 Y134.897 E7.73129
G1 X151.658 Y135.014 E7.73955
G1 X151.072 Y135.544 E7.77897
G1 X150.436 Y136.011 E7.81833
G1 X149.756 Y136.412 E7.85772
G1 X149.038 Y136.742 E7.89714
G1 X148.291 Y136.997 E7.93652
G1 X147.522 Y137.176 E7.97591
G1 X146.738 Y137.276 E8.01534
G1 X146.143 Y137.299 E8.04505
G1 X139.735 Y137.299 E8.36475
G1 X138.946 Y137.259 E8.40416
G1 X138.166 Y137.14 E8.44353
G1 X137.401 Y136.942 E8.48295
G1 X136.661 Y136.668 E8.52232
G1 X135.952 Y136.32 E8.56172
G1 X135.281 Y135.902 E8.60116
G1 X134.657 Y135.419 E8.64053
G1 X134.22 Y135.014 E8.67025
G1 X134.103 Y134.897 E8.67851
G1 X133.573 Y134.311 E8.71793
G1 X133.106 Y133.675 E8.75729
G1 X132.705 Y132.995 E8.79668
G1 X132.375 Y132.277 E8.8361
G1 X132.12 Y131.53 E8.87548
G1 X131.941 Y130.761 E8.91487
G1 X131.841 Y129.977 E8.9543
G1 X131.818 Y129.382 E8.98401
G1 X131.818 Y122.499 E9.32741
G1 X131.273 Y122.003 E9.36417
G1 X130.745 Y121.415 E9.4036
G1 X130.28 Y120.777 E9.44298
G1 X129.882 Y120.096 E9.48234
G1 X129.554 Y119.377 E9.52176
G1 X129.387 Y118.914 E9.54632
G1 X129.087 Y117.99 E9.59479
G1 X128.882 Y117.227 E9.6342
G1 X128.754 Y116.448 E9.67359
G1 X128.706 Y115.66 E9.71298
G1 X128.738 Y114.871 E9.75237
G1 X128.81 Y114.371 E9.77757
G1 X128.34 Y113.8 E9.81447
G1 X127.903 Y113.143 E9.85384
G1 X127.534 Y112.445 E9.89323
G1 X127.19 Y111.571 E9.94009
G1 X126.786 Y110.33 E10.0052
G1 X126.58 Y109.567 E10.04463
G1 X126.452 Y108.788 E10.08401
G1 X126.403 Y108 E10.1234
G1 X126.435 Y107.211 E10.1628
G1 X126.546 Y106.429 E10.2022
G1 X126.786 Y105.5 E10.25007
G1 X127.19 Y104.259 E10.31518
G1 X127.472 Y103.522 E10.35455
G1 X127.828 Y102.817 E10.39396
G1 X128.252 Y102.151 E10.43335
G1 X128.597 Y101.715 E10.46108
G1 X114.223 Y97.597 E11.20705
G1 X113.476 Y97.342 E11.24643
G1 X112.758 Y97.012 E11.28586
G1 X112.078 Y96.611 E11.32524
G1 X111.903 Y96.483 E11.33606
G1 X57.584 Y96.483 E14.04605
G1 X56.795 Y96.443 E14.08546
G1 X56.015 Y96.324 E14.12482
G1 X55.25 Y96.126 E14.16425
G1 X54.51 Y95.852 E14.20362
G1 X53.801 Y95.504 E14.24302
G1 X53.13 Y95.086 E14.28246
G1 X52.506 Y94.603 E14.32183
G1 X51.933 Y94.06 E14.36121
G1 X51.477 Y93.536 E14.39587
G1 X51.357 Y93.385 E14.40549
G1 X50.898 Y92.743 E14.44486
G1 X50.506 Y92.057 E14.48428
G1 X50.185 Y91.335 E14.5237
G1 X49.939 Y90.585 E14.56308
G1 X49.77 Y89.814 E14.60246
G1 X49.68 Y89.029 E14.64188
G1 X49.669 Y88.24 E14.68125
G1 X49.739 Y87.453 E14.72067
G1 X49.859 Y86.799 E14.75384
G1 X50.449 Y84.212 E14.88622
G1 X50.502 Y83.987 E14.89775
G1 X50.722 Y83.228 E14.93718
G1 X51.017 Y82.496 E14.97655
G1 X51.385 Y81.797 E15.01596
G1 X51.821 Y81.139 E15.05534
G1 X52.322 Y80.528 E15.09476
G1 X52.882 Y79.972 E15.13413
G1 X53.496 Y79.475 E15.17354
G1 X53.808 Y79.27 E15.19217
G1 X59.585 Y74.507 E15.56571
M205 X10 Y10
G0 F6000 X59.839 Y74.816
M205 X8 Y8
G1 F1200 X60.457 Y74.358 E15.60409
G1 X61.12 Y73.967 E15.64249
G1 X62.018 Y73.571 E15.69145
G1 X62.084 Y73.547 E15.69496
G1 X62.82 Y73.322 E15.73335
G1 X63.575 Y73.174 E15.77174
G1 X64.613 Y73.101 E15.82365
G1 X66.328 Y73.101 E15.90921
G1 X67.096 Y73.141 E15.94758
G1 X67.856 Y73.26 E15.98596
G1 X68.599 Y73.458 E16.02432
G1 X69.318 Y73.732 E16.06271
G1 X70.004 Y74.079 E16.10106
G1 X70.651 Y74.495 E16.13944
G1 X71.251 Y74.976 E16.1778
G1 X71.678 Y75.385 E16.2073
G1 X72.192 Y75.957 E16.24567
G1 X72.645 Y76.579 E16.28406
G1 X73.031 Y77.244 E16.32242
G1 X73.346 Y77.946 E16.36081
G1 X73.459 Y78.289 E16.37882
G1 X146.144 Y78.289 E20.00509
G1 X146.912 Y78.329 E20.04346
G1 X147.672 Y78.448 E20.08184
G1 X148.415 Y78.646 E20.1202
G1 X149.134 Y78.92 E20.15859
G1 X149.82 Y79.267 E20.19694
G1 X150.467 Y79.683 E20.23532
G1 X151.067 Y80.164 E20.27368
G1 X151.494 Y80.573 E20.30318
G1 X152.008 Y81.145 E20.34155
G1 X152.461 Y81.767 E20.37994
G1 X152.847 Y82.432 E20.4183
G1 X153.162 Y83.134 E20.45669
G1 X153.402 Y83.865 E20.49507
G1 X153.565 Y84.616 E20.53341
G1 X153.649 Y85.381 E20.57181
G1 X153.661 Y85.806 E20.59302
G1 X153.66 Y110.2 E21.81004
G1 X154.519 Y110.705 E21.85975
G1 X155.161 Y111.128 E21.89811
G1 X155.755 Y111.616 E21.93646
G1 X156.296 Y112.163 E21.97484
G1 X156.777 Y112.763 E22.01321
G1 X157.193 Y113.41 E22.05159
G1 X157.54 Y114.097 E22.08998
G1 X157.744 Y114.61 E22.11753
G1 X158.266 Y116.081 E22.1954
G1 X158.485 Y116.818 E22.23376
G1 X158.627 Y117.575 E22.27218
G1 X158.689 Y118.341 E22.31052
G1 X158.671 Y119.11 E22.3489
G1 X158.574 Y119.873 E22.38727
G1 X158.329 Y120.846 E22.43733
G1 X157.905 Y122.149 E22.50569
G1 X157.629 Y122.867 E22.54407
G1 X157.28 Y123.552 E22.58242
G1 X156.862 Y124.198 E22.62081
G1 X156.38 Y124.797 E22.65917
G1 X155.837 Y125.342 E22.69755
G1 X155.223 Y125.842 E22.73706
G1 X154.113 Y126.65 E22.80555
G1 X153.66 Y126.945 E22.83252
G1 X153.66 Y129.382 E22.95411
G1 X153.62 Y130.15 E22.99247
G1 X153.501 Y130.91 E23.03085
G1 X153.303 Y131.653 E23.06921
G1 X153.029 Y132.372 E23.1076
G1 X152.682 Y133.058 E23.14595
G1 X152.266 Y133.705 E23.18433
G1 X151.785 Y134.305 E23.2227
G1 X151.376 Y134.732 E23.25219
G1 X150.804 Y135.246 E23.29056
G1 X150.182 Y135.699 E23.32895
G1 X149.517 Y136.085 E23.36731
G1 X148.815 Y136.4 E23.4057
G1 X148.084 Y136.64 E23.44408
G1 X147.333 Y136.803 E23.48242
G1 X146.568 Y136.887 E23.52082
G1 X146.143 Y136.899 E23.54203
G1 X139.735 Y136.899 E23.86173
G1 X138.967 Y136.859 E23.90009
G1 X138.207 Y136.74 E23.93847
G1 X137.464 Y136.542 E23.97684
G1 X136.745 Y136.268 E24.01522
G1 X136.059 Y135.921 E24.05358
G1 X135.412 Y135.505 E24.09195
G1 X134.812 Y135.024 E24.13032
G1 X134.385 Y134.615 E24.15982
G1 X133.871 Y134.043 E24.19818
G1 X133.418 Y133.421 E24.23657
G1 X133.032 Y132.756 E24.27493
G1 X132.717 Y132.054 E24.31332
G1 X132.477 Y131.323 E24.35171
G1 X132.314 Y130.572 E24.39005
G1 X132.23 Y129.807 E24.42844
G1 X132.218 Y129.382 E24.44965
G1 X132.218 Y122.302 E24.80288
G1 X132.08 Y122.199 E24.81147
G1 X131.515 Y121.678 E24.84981
G1 X131.006 Y121.101 E24.8882
G1 X130.561 Y120.474 E24.92655
G1 X130.182 Y119.804 E24.96496
G1 X129.768 Y118.79 E25.0196
G1 X129.468 Y117.866 E25.06807
G1 X129.268 Y117.123 E25.10646
G1 X129.148 Y116.364 E25.14479
G1 X129.106 Y115.596 E25.18317
G1 X129.144 Y114.827 E25.22158
G1 X129.236 Y114.236 E25.25142
G1 X129.111 Y114.111 E25.26024
G1 X128.626 Y113.514 E25.29861
G1 X128.206 Y112.87 E25.33697
G1 X127.855 Y112.185 E25.37537
G1 X127.57 Y111.447 E25.41484
G1 X127.166 Y110.206 E25.47995
G1 X126.967 Y109.463 E25.51833
G1 X126.845 Y108.703 E25.55673
G1 X126.803 Y107.935 E25.5951
G1 X126.841 Y107.167 E25.63346
G1 X126.958 Y106.407 E25.67183
G1 X127.166 Y105.624 E25.71225
G1 X127.57 Y104.383 E25.77736
G1 X127.846 Y103.665 E25.81574
G1 X128.195 Y102.98 E25.85409
G1 X128.613 Y102.334 E25.89248
G1 X129.096 Y101.735 E25.93087
G1 X129.322 Y101.507 E25.94688
G1 X114.333 Y97.213 E26.72477
G1 X113.606 Y96.963 E26.76312
G1 X112.908 Y96.639 E26.80152
G1 X112.248 Y96.244 E26.83989
G1 X112.033 Y96.083 E26.85329
G1 X57.584 Y96.083 E29.56976
G1 X56.816 Y96.043 E29.60813
G1 X56.056 Y95.924 E29.64651
G1 X55.313 Y95.726 E29.68487
G1 X54.594 Y95.452 E29.72326
G1 X53.908 Y95.105 E29.76161
G1 X53.261 Y94.689 E29.79999
G1 X52.661 Y94.208 E29.83835
G1 X52.114 Y93.667 E29.87673
G1 X51.671 Y93.136 E29.91124
G1 X51.224 Y92.51 E29.94961
G1 X50.845 Y91.841 E29.98797
G1 X50.537 Y91.136 E30.02635
G1 X50.304 Y90.403 E30.06473
G1 X50.149 Y89.649 E30.10313
G1 X50.072 Y88.884 E30.14149
G1 X50.076 Y88.115 E30.17986
G1 X50.159 Y87.35 E30.21825
G1 X50.249 Y86.888 E30.24173
G1 X50.838 Y84.303 E30.374
G1 X50.891 Y84.078 E30.38553
G1 X51.106 Y83.34 E30.42388
G1 X51.397 Y82.628 E30.46226
G1 X51.76 Y81.949 E30.50067
G1 X52.191 Y81.313 E30.539
G1 X52.686 Y80.724 E30.57738
G1 X53.239 Y80.19 E30.61574
G1 X53.845 Y79.716 E30.65412
G1 X54.057 Y79.583 E30.6666
G1 X59.839 Y74.816 E31.04047
M205 X10 Y10
G0 F6000 X60.094 Y75.124
M205 X8 Y8
G1 F1200 X60.696 Y74.68 E31.07779
G1 X61.341 Y74.302 E31.11509
G1 X62.155 Y73.946 E31.15941
G1 X62.221 Y73.922 E31.16291
G1 X62.936 Y73.705 E31.20019
G1 X63.671 Y73.565 E31.23752
G1 X64.613 Y73.501 E31.28463
G1 X66.328 Y73.501 E31.37019
G1 X67.075 Y73.541 E31.40751
G1 X67.813 Y73.66 E31.4448
G1 X68.535 Y73.858 E31.48215
G1 X69.231 Y74.131 E31.51945
G1 X69.894 Y74.478 E31.55679
G1 X70.517 Y74.893 E31.59413
G1 X71.278 Y75.551 E31.64432
G1 X71.395 Y75.668 E31.65258
G1 X71.895 Y76.225 E31.68992
G1 X72.332 Y76.831 E31.7272
G1 X72.703 Y77.481 E31.76453
G1 X73.002 Y78.167 E31.80187
G1 X73.166 Y78.689 E31.82917
G1 X146.144 Y78.689 E35.47005
G1 X146.891 Y78.729 E35.50738
G1 X147.629 Y78.848 E35.54467
G1 X148.351 Y79.046 E35.58202
G1 X149.047 Y79.319 E35.61932
G1 X149.71 Y79.666 E35.65665
G1 X150.333 Y80.081 E35.694
G1 X151.094 Y80.739 E35.74419
G1 X151.211 Y80.856 E35.75245
G1 X151.711 Y81.413 E35.78979
G1 X152.148 Y82.019 E35.82706
G1 X152.519 Y82.669 E35.8644
G1 X152.818 Y83.355 E35.90174
G1 X153.042 Y84.069 E35.93907
G1 X153.189 Y84.802 E35.97637
G1 X153.261 Y85.806 E36.02659
G1 X153.26 Y110.43 E37.25508
G1 X154.316 Y111.05 E37.31618
G1 X154.94 Y111.462 E37.35348
G1 X155.516 Y111.94 E37.39082
G1 X156.038 Y112.475 E37.42811
G1 X156.5 Y113.064 E37.46546
G1 X156.896 Y113.698 E37.50275
G1 X157.223 Y114.371 E37.54008
G1 X157.367 Y114.744 E37.56003
G1 X157.889 Y116.215 E37.6379
G1 X158.101 Y116.932 E37.67521
G1 X158.235 Y117.668 E37.71253
G1 X158.291 Y118.414 E37.74985
G1 X158.266 Y119.162 E37.78719
G1 X158.161 Y119.903 E37.82453
G1 X157.948 Y120.722 E37.86675
G1 X157.524 Y122.025 E37.93511
G1 X157.255 Y122.723 E37.97243
G1 X156.913 Y123.388 E38.00974
G1 X156.502 Y124.013 E38.04706
G1 X156.027 Y124.591 E38.08438
G1 X155.492 Y125.114 E38.12171
G1 X154.988 Y125.518 E38.15393
G1 X153.878 Y126.326 E38.22243
G1 X153.26 Y126.728 E38.25921
G1 X153.26 Y129.382 E38.39162
G1 X153.22 Y130.129 E38.42894
G1 X153.101 Y130.867 E38.46624
G1 X152.903 Y131.589 E38.50359
G1 X152.63 Y132.285 E38.54089
G1 X152.283 Y132.948 E38.57822
G1 X151.868 Y133.571 E38.61557
G1 X151.21 Y134.332 E38.66576
G1 X151.093 Y134.449 E38.67401
G1 X150.536 Y134.949 E38.71135
G1 X149.93 Y135.386 E38.74863
G1 X149.28 Y135.757 E38.78597
G1 X148.594 Y136.056 E38.8233
G1 X147.88 Y136.28 E38.86064
G1 X147.147 Y136.427 E38.89793
G1 X146.143 Y136.499 E38.94815
G1 X139.735 Y136.499 E39.26785
G1 X138.988 Y136.459 E39.30517
G1 X138.25 Y136.34 E39.34246
G1 X137.528 Y136.142 E39.37981
G1 X136.832 Y135.869 E39.41711
G1 X136.169 Y135.522 E39.45445
G1 X135.546 Y135.107 E39.49179
G1 X134.785 Y134.449 E39.54198
G1 X134.668 Y134.332 E39.55024
G1 X134.168 Y133.775 E39.58758
G1 X133.731 Y133.169 E39.62486
G1 X133.36 Y132.519 E39.6622
G1 X133.061 Y131.833 E39.69953
G1 X132.837 Y131.119 E39.73686
G1 X132.69 Y130.386 E39.77416
G1 X132.618 Y129.382 E39.82438
G1 X132.618 Y122.101 E40.18763
G1 X132.304 Y121.865 E40.20723
G1 X131.758 Y121.354 E40.24454
G1 X131.269 Y120.788 E40.28185
G1 X130.844 Y120.173 E40.31915
G1 X130.486 Y119.515 E40.35652
G1 X130.148 Y118.667 E40.40206
G1 X129.848 Y117.743 E40.45053
G1 X129.655 Y117.02 E40.48787
G1 X129.541 Y116.281 E40.52517
G1 X129.506 Y115.533 E40.56253
G1 X129.551 Y114.787 E40.59981
G1 X129.667 Y114.102 E40.63448
G1 X129.381 Y113.813 E40.65476
G1 X128.914 Y113.228 E40.69211
G1 X128.511 Y112.598 E40.72942
G1 X128.179 Y111.927 E40.76677
G1 X127.951 Y111.323 E40.79898
G1 X127.547 Y110.082 E40.86409
G1 X127.354 Y109.359 E40.90142
G1 X127.239 Y108.62 E40.93873
G1 X127.203 Y107.873 E40.97605
G1 X127.248 Y107.126 E41.01338
G1 X127.372 Y106.388 E41.05072
G1 X127.547 Y105.748 E41.08382
G1 X127.951 Y104.507 E41.14893
G1 X128.22 Y103.809 E41.18625
G1 X128.562 Y103.144 E41.22356
G1 X128.973 Y102.519 E41.26088
G1 X129.449 Y101.942 E41.29819
G1 X129.983 Y101.418 E41.33552
G1 X130.11 Y101.316 E41.34365
G1 X114.443 Y96.828 E42.15671
G1 X113.736 Y96.584 E42.19403
G1 X113.059 Y96.266 E42.23134
G1 X112.42 Y95.877 E42.26867
G1 X112.166 Y95.683 E42.28461
G1 X57.584 Y95.683 E45.00772
G1 X56.837 Y95.643 E45.04504
G1 X56.099 Y95.524 E45.08234
