;FLAVOR:Marlin
;TIME:9161
;Filament used: 7.47912m
;Layer height: 0.2
;MINX:64.692
;MINY:80.831
;MINZ:0.3
;MAXX:145.308
;MAXY:129.169
;MAXZ:73.975
;Generated with Cura_SteamEngine 4.13.1
M82 ;absolute extrusion mode
G21                                        ; metric values 
G90                                        ; absolute positioning 
M82                                        ; set extruder to absolute mode 
M107                                       ; start with the fan off 
M140 S60.0           ; Start heating the bed 
G4 S60                                     ; wait 1 minute 
M104 S220.0         ; start heating the hot end 
M190 S60.0           ; wait for bed 
M109 S220.0         ; wait for hotend 
M300 S1000 P500                            ; BEEP heating done 
G28 X0 Y10 Z0                              ; move X/Y to min endstops 
M420 S1                                    ; Enable leveling 
M420 Z2.0                                  ; Set leveling fading height to 2 mm 
G0 Z0.15                                   ; lift nozzle a bit 
G92 E0                                     ; zero the extruded length 
G1 X50 E25 F500                            ; Extrude 25mm of filament in a 5cm line. 
G92 E0                                     ; zero the extruded length again 
G1 E-2 F500                                ; Retract a little 
G1 X120 F4000                              ; Quickly wipe away from the filament line`
G92 E0
G92 E0
G1 F2400 E-3
;LAYER_COUNT:369
;LAYER:0
M106 S76.5
M205 X10 Y10
G1 F600 Z0.375
G0 F6000 X74.96 Y83.116 Z0.375
M205 X8 Y8
;TYPE:SKIRT
G1 F600 Z0.3
G1 F2400 E0
G1 F1200 X75.546 Y82.586 E0.03942
G1 X76.182 Y82.119 E0.07878
G1 X76.862 Y81.718 E0.11817
G1 X77.58 Y81.388 E0.15759
G1 X78.327 Y81.133 E0.19697
G1 X79.096 Y80.954 E0.23636
G1 X79.88 Y80.854 E0.27579
G1 X80.475 Y80.831 E0.3055
G1 X129.525 Y80.831 E2.75262
G1 X130.314 Y80.871 E2.79203
G1 X131.094 Y80.99 E2.83139
G1 X131.859 Y81.188 E2.87082
G1 X132.599 Y81.462 E2.91019
G1 X133.308 Y81.81 E2.94959
G1 X133.979 Y82.228 E2.98903
G1 X134.603 Y82.711 E3.0284
G1 X135.04 Y83.116 E3.05812
G1 X135.157 Y83.233 E3.06638
G1 X135.687 Y83.819 E3.1058
G1 X136.154 Y84.455 E3.14516
G1 X136.555 Y85.135 E3.18455
G1 X136.885 Y85.853 E3.22397
G1 X137.14 Y86.6 E3.26335
G1 X137.319 Y87.369 E3.30274
G1 X137.419 Y88.153 E3.34217
G1 X137.442 Y88.748 E3.37188
G1 X137.442 Y94.69 E3.66833
G1 X137.985 Y94.708 E3.69543
G1 X138.768 Y94.812 E3.73484
G1 X139.536 Y94.996 E3.77424
G1 X140.281 Y95.256 E3.81361
G1 X140.997 Y95.59 E3.85302
G1 X141.912 Y96.16 E3.90681
G1 X142.078 Y96.28 E3.91703
G1 X142.693 Y96.774 E3.95638
G1 X143.256 Y97.328 E3.99579
G1 X143.76 Y97.937 E4.03523
G1 X144.199 Y98.593 E4.07461
G1 X144.57 Y99.29 E4.114
G1 X144.869 Y100.021 E4.1534
G1 X145.092 Y100.778 E4.19277
G1 X145.237 Y101.554 E4.23216
G1 X145.308 Y102.601 E4.28451
G1 X145.308 Y115.375 E4.92181
G1 X145.268 Y116.164 E4.96122
G1 X145.149 Y116.944 E5.00059
G1 X144.951 Y117.709 E5.04001
G1 X144.677 Y118.449 E5.07938
G1 X144.329 Y119.158 E5.11878
G1 X143.911 Y119.829 E5.15822
G1 X143.428 Y120.453 E5.19759
G1 X142.885 Y121.026 E5.23698
G1 X142.078 Y121.696 E5.28931
G1 X141.912 Y121.816 E5.29952
G1 X141.249 Y122.246 E5.33895
G1 X140.546 Y122.606 E5.37835
G1 X139.811 Y122.894 E5.41774
G1 X139.05 Y123.106 E5.45715
G1 X138.272 Y123.239 E5.49653
G1 X137.484 Y123.294 E5.53594
G1 X137.163 Y123.283 E5.55196
G1 X137.085 Y123.586 E5.56757
G1 X136.811 Y124.326 E5.60694
G1 X136.463 Y125.035 E5.64634
G1 X136.045 Y125.706 E5.68578
G1 X135.562 Y126.33 E5.72515
G1 X135.157 Y126.767 E5.75487
G1 X135.04 Y126.884 E5.76313
G1 X134.454 Y127.414 E5.80255
G1 X133.818 Y127.881 E5.84191
G1 X133.138 Y128.282 E5.8813
G1 X132.42 Y128.612 E5.92072
G1 X131.673 Y128.867 E5.9601
G1 X130.904 Y129.046 E5.99949
G1 X130.12 Y129.146 E6.03892
G1 X129.525 Y129.169 E6.06863
G1 X80.475 Y129.169 E8.51575
G1 X79.686 Y129.129 E8.55516
G1 X78.906 Y129.01 E8.59452
G1 X78.141 Y128.812 E8.63395
G1 X77.401 Y128.538 E8.67332
G1 X76.692 Y128.19 E8.71272
G1 X76.021 Y127.772 E8.75216
G1 X75.397 Y127.289 E8.79153
G1 X74.96 Y126.884 E8.82125
G1 X74.843 Y126.767 E8.82951
G1 X74.313 Y126.181 E8.86893
G1 X73.846 Y125.545 E8.90829
G1 X73.445 Y124.865 E8.94768
G1 X73.115 Y124.147 E8.9871
G1 X72.86 Y123.4 E9.02648
G1 X72.804 Y123.294 E9.03246
G1 X72.015 Y123.268 E9.07185
G1 X71.232 Y123.164 E9.11125
G1 X70.464 Y122.98 E9.15065
G1 X69.719 Y122.72 E9.19002
G1 X69.003 Y122.386 E9.22944
G1 X68.088 Y121.816 E9.28322
G1 X67.922 Y121.696 E9.29344
G1 X67.307 Y121.202 E9.33279
G1 X66.744 Y120.648 E9.3722
G1 X66.24 Y120.039 E9.41164
G1 X65.801 Y119.383 E9.45102
G1 X65.43 Y118.686 E9.49041
G1 X65.131 Y117.955 E9.52981
G1 X64.908 Y117.198 E9.56919
G1 X64.763 Y116.422 E9.60857
G1 X64.692 Y115.375 E9.66093
G1 X64.692 Y102.601 E10.29822
G1 X64.732 Y101.812 E10.33764
G1 X64.851 Y101.032 E10.377
G1 X65.049 Y100.267 E10.41643
G1 X65.323 Y99.527 E10.45579
G1 X65.671 Y98.818 E10.4952
G1 X66.089 Y98.147 E10.53464
G1 X66.572 Y97.523 E10.57401
G1 X67.115 Y96.95 E10.61339
G1 X67.922 Y96.28 E10.66572
G1 X68.088 Y96.16 E10.67594
G1 X68.751 Y95.73 E10.71536
G1 X69.454 Y95.37 E10.75477
G1 X70.189 Y95.082 E10.79415
G1 X70.95 Y94.87 E10.83356
G1 X71.728 Y94.737 E10.87294
G1 X72.516 Y94.682 E10.91235
G1 X72.558 Y94.683 E10.91445
G1 X72.558 Y88.748 E11.21054
G1 X72.598 Y87.959 E11.24996
G1 X72.717 Y87.179 E11.28932
G1 X72.915 Y86.414 E11.32875
G1 X73.189 Y85.674 E11.36811
G1 X73.537 Y84.965 E11.40752
G1 X73.955 Y84.294 E11.44696
G1 X74.438 Y83.67 E11.48633
G1 X74.843 Y83.233 E11.51605
G1 X74.96 Y83.116 E11.52431
M205 X10 Y10
G0 F6000 X75.242 Y83.398
M205 X8 Y8
G1 F1200 X75.814 Y82.884 E11.56267
G1 X76.436 Y82.431 E11.60106
G1 X77.101 Y82.045 E11.63942
G1 X77.803 Y81.73 E11.67781
G1 X78.534 Y81.49 E11.7162
G1 X79.285 Y81.327 E11.75454
G1 X80.05 Y81.243 E11.79293
G1 X80.475 Y81.231 E11.81414
G1 X129.525 Y81.231 E14.26126
G1 X130.293 Y81.271 E14.29962
G1 X131.053 Y81.39 E14.338
G1 X131.796 Y81.588 E14.37637
G1 X132.515 Y81.862 E14.41475
G1 X133.201 Y82.209 E14.45311
G1 X133.848 Y82.625 E14.49148
G1 X134.448 Y83.106 E14.52985
G1 X134.875 Y83.515 E14.55935
G1 X135.389 Y84.087 E14.59771
G1 X135.842 Y84.709 E14.6361
G1 X136.228 Y85.374 E14.67446
G1 X136.543 Y86.076 E14.71285
G1 X136.783 Y86.807 E14.75124
G1 X136.946 Y87.558 E14.78958
G1 X137.03 Y88.323 E14.82797
G1 X137.042 Y88.748 E14.84918
G1 X137.042 Y95.095 E15.16584
G1 X137.263 Y95.081 E15.17688
G1 X138.032 Y95.113 E15.21528
G1 X138.793 Y95.225 E15.25366
G1 X139.538 Y95.414 E15.292
G1 X140.26 Y95.681 E15.33041
G1 X140.95 Y96.02 E15.36876
G1 X141.677 Y96.484 E15.41179
G1 X141.843 Y96.604 E15.42201
G1 X142.442 Y97.086 E15.46037
G1 X142.988 Y97.628 E15.49875
G1 X143.475 Y98.224 E15.53715
G1 X143.897 Y98.867 E15.57552
G1 X144.25 Y99.55 E15.61388
G1 X144.53 Y100.267 E15.65228
G1 X144.735 Y101.008 E15.69064
G1 X144.861 Y101.767 E15.72902
G1 X144.908 Y102.601 E15.7707
G1 X144.908 Y115.375 E16.40799
G1 X144.868 Y116.143 E16.44636
G1 X144.749 Y116.903 E16.48474
G1 X144.551 Y117.646 E16.5231
G1 X144.277 Y118.365 E16.56149
G1 X143.93 Y119.051 E16.59984
G1 X143.514 Y119.698 E16.63822
G1 X143.033 Y120.298 E16.67658
G1 X142.492 Y120.845 E16.71497
G1 X141.843 Y121.372 E16.75668
G1 X141.677 Y121.492 E16.76689
G1 X141.031 Y121.91 E16.80528
G1 X140.346 Y122.258 E16.84361
G1 X139.627 Y122.533 E16.88202
G1 X138.884 Y122.732 E16.92039
G1 X138.125 Y122.853 E16.95874
G1 X137.357 Y122.895 E16.99711
G1 X136.859 Y122.87 E17.02199
G1 X136.685 Y123.523 E17.0557
G1 X136.411 Y124.242 E17.09409
G1 X136.064 Y124.928 E17.13245
G1 X135.648 Y125.575 E17.17082
G1 X135.167 Y126.175 E17.20919
G1 X134.758 Y126.602 E17.23869
G1 X134.186 Y127.116 E17.27705
G1 X133.564 Y127.569 E17.31544
G1 X132.899 Y127.955 E17.3538
G1 X132.197 Y128.27 E17.39219
G1 X131.466 Y128.51 E17.43057
G1 X130.715 Y128.673 E17.46891
G1 X129.95 Y128.757 E17.50731
G1 X129.525 Y128.769 E17.52852
G1 X80.475 Y128.769 E19.97564
G1 X79.707 Y128.729 E20.014
G1 X78.947 Y128.61 E20.05238
G1 X78.204 Y128.412 E20.09074
G1 X77.485 Y128.138 E20.12913
G1 X76.799 Y127.791 E20.16749
G1 X76.152 Y127.375 E20.20586
G1 X75.552 Y126.894 E20.24423
G1 X75.125 Y126.485 E20.27373
G1 X74.611 Y125.913 E20.31209
G1 X74.158 Y125.291 E20.35048
G1 X73.772 Y124.626 E20.38884
G1 X73.457 Y123.924 E20.42723
G1 X73.217 Y123.193 E20.46561
G1 X73.147 Y122.869 E20.48215
G1 X72.737 Y122.895 E20.50265
G1 X71.968 Y122.863 E20.54105
G1 X71.207 Y122.751 E20.57942
G1 X70.462 Y122.562 E20.61777
G1 X69.74 Y122.295 E20.65617
G1 X69.05 Y121.956 E20.69453
G1 X68.323 Y121.492 E20.73756
G1 X68.157 Y121.372 E20.74777
G1 X67.558 Y120.89 E20.78613
G1 X67.012 Y120.348 E20.82451
G1 X66.525 Y119.752 E20.86291
G1 X66.103 Y119.109 E20.90128
G1 X65.75 Y118.426 E20.93964
G1 X65.47 Y117.709 E20.97804
G1 X65.265 Y116.968 E21.0164
G1 X65.139 Y116.209 E21.05479
G1 X65.092 Y115.375 E21.09646
G1 X65.092 Y102.601 E21.73376
G1 X65.132 Y101.833 E21.77213
G1 X65.251 Y101.073 E21.8105
G1 X65.449 Y100.33 E21.84887
G1 X65.723 Y99.611 E21.88725
G1 X66.07 Y98.925 E21.92561
G1 X66.486 Y98.278 E21.96398
G1 X66.967 Y97.678 E22.00235
G1 X67.508 Y97.131 E22.04073
G1 X68.157 Y96.604 E22.08244
G1 X68.323 Y96.484 E22.09266
G1 X68.969 Y96.066 E22.13105
G1 X69.654 Y95.718 E22.16938
G1 X70.373 Y95.443 E22.20778
G1 X71.116 Y95.244 E22.24616
G1 X71.875 Y95.123 E22.2845
G1 X72.643 Y95.081 E22.32288
G1 X72.958 Y95.097 E22.33861
G1 X72.958 Y88.748 E22.65537
G1 X72.998 Y87.98 E22.69373
G1 X73.117 Y87.22 E22.73211
G1 X73.315 Y86.477 E22.77047
G1 X73.589 Y85.758 E22.80886
G1 X73.936 Y85.072 E22.84722
G1 X74.352 Y84.425 E22.88559
G1 X74.833 Y83.825 E22.92396
G1 X75.242 Y83.398 E22.95346
M205 X10 Y10
G0 F6000 X75.525 Y83.681
M205 X8 Y8
G1 F1200 X76.082 Y83.181 E22.9908
G1 X76.688 Y82.744 E23.02807
G1 X77.338 Y82.373 E23.06541
G1 X78.024 Y82.074 E23.10275
G1 X78.738 Y81.85 E23.14008
G1 X79.471 Y81.703 E23.17738
G1 X80.475 Y81.631 E23.2276
G1 X129.525 Y81.631 E25.67471
G1 X130.272 Y81.671 E25.71203
G1 X131.01 Y81.79 E25.74933
G1 X131.732 Y81.988 E25.78668
G1 X132.428 Y82.261 E25.82398
G1 X133.091 Y82.608 E25.86131
G1 X133.714 Y83.023 E25.89866
G1 X134.475 Y83.681 E25.94885
G1 X134.592 Y83.798 E25.9571
G1 X135.092 Y84.355 E25.99444
G1 X135.529 Y84.961 E26.03172
G1 X135.9 Y85.611 E26.06906
G1 X136.199 Y86.297 E26.10639
G1 X136.423 Y87.011 E26.14373
G1 X136.57 Y87.744 E26.18102
G1 X136.642 Y88.748 E26.23124
G1 X136.642 Y95.519 E26.56905
G1 X137.329 Y95.481 E26.60338
G1 X138.076 Y95.52 E26.64069
G1 X138.815 Y95.638 E26.67803
G1 X139.537 Y95.834 E26.71535
G1 X140.233 Y96.106 E26.75264
G1 X140.897 Y96.451 E26.78997
G1 X141.443 Y96.808 E26.82251
G1 X141.609 Y96.928 E26.83273
G1 X142.191 Y97.398 E26.87005
G1 X142.719 Y97.928 E26.90738
G1 X143.188 Y98.51 E26.94467
G1 X143.592 Y99.14 E26.98201
G1 X143.927 Y99.809 E27.01933
G1 X144.188 Y100.51 E27.05665
G1 X144.373 Y101.235 E27.09398
G1 X144.48 Y101.975 E27.13128
G1 X144.508 Y102.601 E27.16255
G1 X144.508 Y115.375 E27.79984
G1 X144.468 Y116.122 E27.83717
G1 X144.349 Y116.86 E27.87446
G1 X144.151 Y117.582 E27.91181
G1 X143.878 Y118.278 E27.94911
G1 X143.531 Y118.941 E27.98644
G1 X143.116 Y119.564 E28.02379
G1 X142.637 Y120.138 E28.06109
G1 X142.1 Y120.659 E28.09842
G1 X141.609 Y121.048 E28.12967
G1 X141.443 Y121.168 E28.13989
G1 X140.814 Y121.573 E28.17721
G1 X140.146 Y121.909 E28.21452
G1 X139.445 Y122.172 E28.25187
G1 X138.721 Y122.358 E28.28916
G1 X137.98 Y122.466 E28.32652
G1 X137.233 Y122.494 E28.36382
G1 X136.53 Y122.446 E28.39897
G1 X136.483 Y122.737 E28.41368
G1 X136.285 Y123.459 E28.45103
G1 X136.012 Y124.155 E28.48833
G1 X135.665 Y124.818 E28.52566
G1 X135.25 Y125.441 E28.56301
G1 X134.592 Y126.202 E28.6132
G1 X134.475 Y126.319 E28.62145
G1 X133.918 Y126.819 E28.6588
G1 X133.312 Y127.256 E28.69607
G1 X132.662 Y127.627 E28.73341
G1 X131.976 Y127.926 E28.77074
G1 X131.262 Y128.15 E28.80808
G1 X130.529 Y128.297 E28.84537
G1 X129.525 Y128.369 E28.89559
G1 X80.475 Y128.369 E31.34271
G1 X79.728 Y128.329 E31.38003
G1 X78.99 Y128.21 E31.41732
G1 X78.268 Y128.012 E31.45467
G1 X77.572 Y127.739 E31.49197
G1 X76.909 Y127.392 E31.52931
G1 X76.286 Y126.977 E31.56665
G1 X75.525 Y126.319 E31.61684
G1 X75.408 Y126.202 E31.6251
G1 X74.908 Y125.645 E31.66244
G1 X74.471 Y125.039 E31.69972
G1 X74.1 Y124.389 E31.73706
G1 X73.801 Y123.703 E31.77439
G1 X73.577 Y122.989 E31.81172
G1 X73.468 Y122.446 E31.83935
G1 X73.418 Y122.454 E31.84188
G1 X72.671 Y122.495 E31.8792
G1 X71.924 Y122.456 E31.91652
G1 X71.185 Y122.338 E31.95386
G1 X70.463 Y122.142 E31.99118
G1 X69.767 Y121.87 E32.02846
G1 X69.103 Y121.525 E32.0658
G1 X68.557 Y121.168 E32.09834
G1 X68.391 Y121.048 E32.10856
G1 X67.809 Y120.578 E32.14588
G1 X67.281 Y120.048 E32.18321
G1 X66.812 Y119.466 E32.2205
G1 X66.408 Y118.836 E32.25784
G1 X66.073 Y118.167 E32.29516
G1 X65.812 Y117.466 E32.33248
G1 X65.627 Y116.741 E32.36981
G1 X65.52 Y116.001 E32.40711
G1 X65.492 Y115.375 E32.43838
G1 X65.492 Y102.601 E33.07567
G1 X65.532 Y101.854 E33.11299
G1 X65.651 Y101.116 E33.15029
G1 X65.849 Y100.394 E33.18764
G1 X66.122 Y99.698 E33.22494
G1 X66.469 Y99.035 E33.26227
G1 X66.884 Y98.412 E33.29962
G1 X67.363 Y97.838 E33.33692
G1 X67.9 Y97.317 E33.37425
G1 X68.391 Y96.928 E33.4055
G1 X68.557 Y96.808 E33.41572
G1 X69.186 Y96.403 E33.45304
G1 X69.854 Y96.067 E33.49034
G1 X70.555 Y95.804 E33.5277
G1 X71.279 Y95.618 E33.56499
G1 X72.02 Y95.51 E33.60235
G1 X72.767 Y95.482 E33.63965
G1 X73.358 Y95.522 E33.6692
G1 X73.358 Y88.748 E34.00715
G1 X73.398 Y88.001 E34.04448
G1 X73.517 Y87.263 E34.08177
G1 X73.715 Y86.541 E34.11912
G1 X73.988 Y85.845 E34.15642
G1 X74.335 Y85.182 E34.19375
G1 X74.75 Y84.559 E34.2311
G1 X75.408 Y83.798 E34.28129
G1 X75.525 Y83.681 E34.28955
M205 X10 Y10
G0 F6000 X75.808 Y83.964
M205 X8 Y8
G1 F1200 X76.349 Y83.48 E34.32576
G1 X76.94 Y83.057 E34.36202
G1 X77.574 Y82.703 E34.39825
G1 X78.243 Y82.42 E34.43449
G1 X78.939 Y82.212 E34.47073
G1 X79.654 Y82.082 E34.50698
G1 X80.475 Y82.031 E34.54802
G1 X129.525 Y82.031 E36.99514
G1 X130.25 Y82.071 E37.03136
G1 X130.967 Y82.19 E37.06762
G1 X131.666 Y82.388 E37.10387
G1 X132.339 Y82.661 E37.1401
G1 X132.978 Y83.006 E37.17633
G1 X133.575 Y83.42 E37.21258
G1 X134.192 Y83.964 E37.25362
G1 X134.309 Y84.081 E37.26187
G1 X134.793 Y84.622 E37.29809
G1 X135.216 Y85.213 E37.33435
G1 X135.57 Y85.847 E37.37057
G1 X135.853 Y86.516 E37.40681
G1 X136.061 Y87.212 E37.44305
G1 X136.191 Y87.927 E37.47931
G1 X136.242 Y88.748 E37.52035
G1 X136.242 Y95.983 E37.8813
G1 X136.667 Y95.916 E37.90277
G1 X137.393 Y95.881 E37.93903
G1 X138.118 Y95.927 E37.97527
G1 X138.833 Y96.052 E38.01149
G1 X139.531 Y96.255 E38.04775
G1 X140.202 Y96.533 E38.08399
G1 X140.838 Y96.883 E38.12021
G1 X141.375 Y97.252 E38.15271
G1 X141.939 Y97.71 E38.18896
G1 X142.45 Y98.226 E38.22519
G1 X142.9 Y98.796 E38.26142
G1 X143.286 Y99.411 E38.29765
G1 X143.602 Y100.065 E38.33389
G1 X143.843 Y100.75 E38.37011
G1 X144.008 Y101.458 E38.40638
G1 X144.094 Y102.179 E38.44261
G1 X144.108 Y102.601 E38.46367
G1 X144.108 Y115.375 E39.10097
G1 X144.068 Y116.1 E39.1372
G1 X143.949 Y116.817 E39.17346
G1 X143.751 Y117.516 E39.2097
G1 X143.478 Y118.189 E39.24594
G1 X143.133 Y118.828 E39.28217
G1 X142.719 Y119.425 E39.31841
G1 X142.243 Y119.973 E39.35462
G1 X141.709 Y120.466 E39.39088
G1 X141.209 Y120.844 E39.42215
G1 X140.597 Y121.236 E39.45841
G1 X139.947 Y121.559 E39.49463
G1 X139.265 Y121.809 E39.53086
G1 X138.559 Y121.982 E39.56713
G1 X137.839 Y122.076 E39.60335
G1 X137.113 Y122.091 E39.63958
G1 X136.389 Y122.026 E39.67585
G1 X136.2 Y121.988 E39.68547
G1 X136.083 Y122.694 E39.72117
G1 X135.885 Y123.393 E39.75741
