;FLAVOR:Marlin
;TIME:2042
;Filament used: 1.38011m
;Layer height: 0.2
;MINX:84.535
;MINY:89.813
;MINZ:0.3
;MAXX:120.172
;MAXY:120.187
;MAXZ:30.775
;Generated with Cura_SteamEngine 4.13.1
M82 ;absolute extrusion mode
G21                                        ; metric values 
G90                                        ; absolute positioning 
M82                                        ; set extruder to absolute mode 
M107                                       ; start with the fan off 
M140 S60.0           ; Start heating the bed 
G4 S60                                     ; wait 1 minute 
M104 S220.0         ; start heating the hot end 
M190 S60.0           ; wait for bed 
M109 S220.0         ; wait for hotend 
M300 S1000 P500                            ; BEEP heating done 
G28 X0 Y10 Z0                              ; move X/Y to min endstops 
M420 S1                                    ; Enable leveling 
M420 Z2.0                                  ; Set leveling fading height to 2 mm 
G0 Z0.15                                   ; lift nozzle a bit 
G92 E0                                     ; zero the extruded length 
G1 X50 E25 F500                            ; Extrude 25mm of filament in a 5cm line. 
G92 E0                                     ; zero the extruded length again 
G1 E-2 F500                                ; Retract a little 
G1 X120 F4000                              ; Quickly wipe away from the filament line`
G92 E0
G92 E0
G1 F2400 E-3
;LAYER_COUNT:153
;LAYER:0
M106 S76.5
M205 X10 Y10
G1 F600 Z0.375
G0 F6000 X92.113 Y92.215 Z0.375
M205 X8 Y8
;TYPE:SKIRT
G1 F600 Z0.3
G1 F2400 E0
G1 F1200 X92.23 Y92.098 E0.00825
G1 X92.816 Y91.568 E0.04767
G1 X93.452 Y91.101 E0.08704
G1 X94.132 Y90.7 E0.12642
G1 X94.85 Y90.37 E0.16585
G1 X95.597 Y90.115 E0.20523
G1 X96.366 Y89.936 E0.24462
G1 X97.15 Y89.836 E0.28405
G1 X97.746 Y89.813 E0.31381
G1 X112.256 Y89.815 E1.03771
G1 X113.045 Y89.855 E1.07713
G1 X113.825 Y89.975 E1.1165
G1 X114.59 Y90.173 E1.15592
G1 X115.33 Y90.447 E1.19529
G1 X116.039 Y90.795 E1.23469
G1 X116.71 Y91.212 E1.27411
G1 X117.334 Y91.695 E1.31348
G1 X117.77 Y92.1 E1.34317
G1 X117.887 Y92.217 E1.35142
G1 X118.417 Y92.803 E1.39084
G1 X118.884 Y93.439 E1.43021
G1 X119.285 Y94.119 E1.46959
G1 X119.615 Y94.837 E1.50901
G1 X119.87 Y95.584 E1.54839
G1 X120.049 Y96.353 E1.58778
G1 X120.149 Y97.137 E1.62722
G1 X120.172 Y97.736 E1.65712
G1 X120.165 Y112.274 E2.38243
G1 X120.125 Y113.062 E2.42179
G1 X120.005 Y113.843 E2.46121
G1 X119.807 Y114.607 E2.50059
G1 X119.532 Y115.348 E2.54002
G1 X119.184 Y116.057 E2.57942
G1 X118.766 Y116.727 E2.61882
G1 X118.283 Y117.351 E2.65819
G1 X117.88 Y117.785 E2.68774
G1 X117.763 Y117.902 E2.69599
G1 X117.177 Y118.432 E2.73541
G1 X116.541 Y118.899 E2.77478
G1 X115.861 Y119.3 E2.81416
G1 X115.143 Y119.63 E2.85358
G1 X114.396 Y119.885 E2.89296
G1 X113.627 Y120.064 E2.93235
G1 X112.843 Y120.164 E2.97179
G1 X112.248 Y120.187 E3.00149
G1 X97.745 Y120.187 E3.72505
G1 X96.956 Y120.147 E3.76446
G1 X96.176 Y120.028 E3.80383
G1 X95.411 Y119.83 E3.84325
G1 X94.671 Y119.556 E3.88262
G1 X93.962 Y119.208 E3.92202
G1 X93.291 Y118.79 E3.96146
G1 X92.667 Y118.307 E4.00083
G1 X92.23 Y117.902 E4.03056
G1 X92.113 Y117.785 E4.03881
G1 X91.583 Y117.199 E4.07823
G1 X91.116 Y116.563 E4.1176
G1 X90.715 Y115.883 E4.15698
G1 X90.385 Y115.165 E4.19641
G1 X90.13 Y114.418 E4.23579
G1 X89.951 Y113.649 E4.27518
G1 X89.929 Y113.489 E4.28323
G1 X89.122 Y112.974 E4.331
G1 X88.126 Y112.249 E4.39246
G1 X87.512 Y111.753 E4.43184
G1 X86.951 Y111.197 E4.47124
G1 X86.449 Y110.587 E4.51065
G1 X86.012 Y109.929 E4.55006
G1 X85.643 Y109.231 E4.58945
G1 X85.299 Y108.358 E4.63627
G1 X84.918 Y107.188 E4.69765
G1 X84.712 Y106.426 E4.73704
G1 X84.584 Y105.647 E4.77642
G1 X84.535 Y104.858 E4.81586
G1 X84.567 Y104.069 E4.85526
G1 X84.678 Y103.288 E4.89461
G1 X84.918 Y102.358 E4.94253
G1 X85.299 Y101.188 E5.00392
G1 X85.582 Y100.45 E5.04335
G1 X85.937 Y99.745 E5.08273
G1 X86.362 Y99.079 E5.12215
G1 X86.852 Y98.46 E5.16153
G1 X87.402 Y97.893 E5.20094
G1 X88.126 Y97.297 E5.24773
G1 X89.122 Y96.572 E5.30919
G1 X89.783 Y96.14 E5.34859
G1 X90.025 Y96.015 E5.36217
G1 X90.185 Y95.396 E5.39407
G1 X90.459 Y94.656 E5.43344
G1 X90.807 Y93.947 E5.47284
G1 X91.225 Y93.276 E5.51228
G1 X91.708 Y92.652 E5.55165
G1 X92.113 Y92.215 E5.58138
M205 X10 Y10
G0 F6000 X92.512 Y92.38
M205 X8 Y8
G1 F1200 X93.084 Y91.866 E5.61974
G1 X93.706 Y91.413 E5.65813
G1 X94.371 Y91.027 E5.69649
G1 X95.073 Y90.712 E5.73488
G1 X95.804 Y90.472 E5.77327
G1 X96.555 Y90.309 E5.81161
G1 X97.32 Y90.225 E5.85
G1 X97.746 Y90.213 E5.87126
G1 X112.256 Y90.215 E6.59517
G1 X113.024 Y90.255 E6.63354
G1 X113.784 Y90.375 E6.67192
G1 X114.527 Y90.572 E6.71027
G1 X115.246 Y90.846 E6.74866
G1 X115.932 Y91.193 E6.78701
G1 X116.579 Y91.61 E6.82542
G1 X117.179 Y92.091 E6.86378
G1 X117.605 Y92.499 E6.89321
G1 X118.119 Y93.071 E6.93158
G1 X118.572 Y93.693 E6.96997
G1 X118.958 Y94.358 E7.00833
G1 X119.273 Y95.06 E7.04671
G1 X119.513 Y95.791 E7.0851
G1 X119.676 Y96.542 E7.12344
G1 X119.76 Y97.307 E7.16183
G1 X119.772 Y97.736 E7.18325
G1 X119.765 Y112.274 E7.90855
G1 X119.725 Y113.042 E7.94692
G1 X119.605 Y113.801 E7.98525
G1 X119.407 Y114.545 E8.02366
G1 X119.133 Y115.263 E8.06201
G1 X118.785 Y115.95 E8.10043
G1 X118.369 Y116.596 E8.13876
G1 X117.887 Y117.196 E8.17716
G1 X117.481 Y117.62 E8.20644
G1 X116.909 Y118.134 E8.24481
G1 X116.287 Y118.587 E8.2832
G1 X115.622 Y118.973 E8.32156
G1 X114.92 Y119.288 E8.35995
G1 X114.189 Y119.528 E8.39833
G1 X113.438 Y119.691 E8.43667
G1 X112.673 Y119.775 E8.47507
G1 X112.248 Y119.787 E8.49628
G1 X97.745 Y119.787 E9.21984
G1 X96.977 Y119.747 E9.25821
G1 X96.217 Y119.628 E9.29658
G1 X95.474 Y119.43 E9.33495
G1 X94.755 Y119.156 E9.37333
G1 X94.069 Y118.809 E9.41169
G1 X93.422 Y118.393 E9.45006
G1 X92.822 Y117.912 E9.48843
G1 X92.395 Y117.503 E9.51793
G1 X91.881 Y116.931 E9.55629
G1 X91.428 Y116.309 E9.59468
G1 X91.042 Y115.644 E9.63304
G1 X90.727 Y114.942 E9.67143
G1 X90.487 Y114.211 E9.70982
G1 X90.324 Y113.46 E9.74816
G1 X90.298 Y113.222 E9.7601
G1 X90.036 Y113.09 E9.77474
G1 X89.357 Y112.651 E9.81508
G1 X88.361 Y111.926 E9.87654
G1 X87.764 Y111.441 E9.91491
G1 X87.22 Y110.898 E9.95326
G1 X86.735 Y110.3 E9.99167
G1 X86.315 Y109.656 E10.03003
G1 X85.964 Y108.972 E10.06839
G1 X85.68 Y108.234 E10.10784
G1 X85.299 Y107.064 E10.16923
G1 X85.099 Y106.322 E10.20756
G1 X84.977 Y105.562 E10.24597
G1 X84.935 Y104.794 E10.28434
G1 X84.973 Y104.026 E10.3227
G1 X85.09 Y103.266 E10.36107
G1 X85.299 Y102.482 E10.40155
G1 X85.68 Y101.312 E10.46293
G1 X85.956 Y100.594 E10.50131
G1 X86.304 Y99.908 E10.53969
G1 X86.723 Y99.263 E10.57806
G1 X87.205 Y98.664 E10.61642
G1 X87.748 Y98.119 E10.6548
G1 X88.361 Y97.62 E10.69423
G1 X89.357 Y96.895 E10.7557
G1 X90.002 Y96.475 E10.7941
G1 X90.374 Y96.285 E10.81494
G1 X90.387 Y96.202 E10.81913
G1 X90.585 Y95.459 E10.85749
G1 X90.859 Y94.74 E10.89588
G1 X91.206 Y94.054 E10.93423
G1 X91.622 Y93.407 E10.97261
G1 X92.103 Y92.807 E11.01097
G1 X92.512 Y92.38 E11.04047
M205 X10 Y10
G0 F6000 X92.678 Y92.78
M205 X8 Y8
G1 F1200 X92.795 Y92.663 E11.04873
G1 X93.352 Y92.163 E11.08607
G1 X93.958 Y91.726 E11.12334
G1 X94.608 Y91.355 E11.16068
G1 X95.294 Y91.056 E11.19802
G1 X96.008 Y90.832 E11.23535
G1 X96.741 Y90.685 E11.27265
G1 X97.746 Y90.613 E11.32291
G1 X112.256 Y90.615 E12.04682
G1 X113.003 Y90.655 E12.08414
G1 X113.741 Y90.775 E12.12145
G1 X114.463 Y90.972 E12.15878
G1 X115.159 Y91.246 E12.1961
G1 X115.822 Y91.592 E12.23341
G1 X116.445 Y92.007 E12.27076
G1 X117.205 Y92.665 E12.32091
G1 X117.322 Y92.782 E12.32917
G1 X117.822 Y93.339 E12.36651
G1 X118.259 Y93.945 E12.40378
G1 X118.63 Y94.595 E12.44112
G1 X118.929 Y95.281 E12.47846
G1 X119.153 Y95.995 E12.51579
G1 X119.3 Y96.728 E12.55309
G1 X119.372 Y97.735 E12.60345
G1 X119.365 Y112.273 E13.32876
G1 X119.325 Y113.02 E13.36608
G1 X119.205 Y113.759 E13.40343
G1 X119.007 Y114.48 E13.44073
G1 X118.733 Y115.176 E13.47805
G1 X118.387 Y115.839 E13.51536
G1 X117.971 Y116.462 E13.55274
G1 X117.315 Y117.22 E13.60275
G1 X117.198 Y117.337 E13.611
G1 X116.641 Y117.837 E13.64835
G1 X116.035 Y118.274 E13.68562
G1 X115.385 Y118.645 E13.72296
G1 X114.699 Y118.944 E13.76029
G1 X113.985 Y119.168 E13.79763
G1 X113.252 Y119.315 E13.83493
G1 X112.248 Y119.387 E13.88514
G1 X97.745 Y119.387 E14.6087
G1 X96.998 Y119.347 E14.64602
G1 X96.26 Y119.228 E14.68332
G1 X95.538 Y119.03 E14.72067
G1 X94.842 Y118.757 E14.75797
G1 X94.179 Y118.41 E14.7953
G1 X93.556 Y117.995 E14.83265
G1 X92.795 Y117.337 E14.88284
G1 X92.678 Y117.22 E14.89109
G1 X92.178 Y116.663 E14.92844
G1 X91.741 Y116.057 E14.96571
G1 X91.37 Y115.407 E15.00305
G1 X91.071 Y114.721 E15.04038
G1 X90.847 Y114.007 E15.07772
G1 X90.7 Y113.274 E15.11501
G1 X90.678 Y112.97 E15.13022
G1 X90.146 Y112.691 E15.16019
G1 X89.592 Y112.327 E15.19326
G1 X88.596 Y111.602 E15.25472
G1 X88.016 Y111.131 E15.292
G1 X87.489 Y110.599 E15.32936
G1 X87.022 Y110.015 E15.36666
G1 X86.62 Y109.384 E15.40399
G1 X86.288 Y108.714 E15.4413
G1 X86.06 Y108.11 E15.47351
G1 X85.679 Y106.94 E15.53489
G1 X85.486 Y106.218 E15.57218
G1 X85.371 Y105.479 E15.60949
G1 X85.335 Y104.731 E15.64685
G1 X85.38 Y103.985 E15.68414
G1 X85.503 Y103.247 E15.72147
G1 X85.679 Y102.606 E15.75463
G1 X86.06 Y101.436 E15.81602
G1 X86.329 Y100.738 E15.85334
G1 X86.672 Y100.072 E15.89071
G1 X87.083 Y99.448 E15.92799
G1 X87.558 Y98.87 E15.96531
G1 X88.093 Y98.347 E16.00264
G1 X88.596 Y97.944 E16.0348
G1 X89.592 Y97.219 E16.09626
G1 X90.22 Y96.811 E16.13362
G1 X90.738 Y96.548 E16.1626
G1 X90.787 Y96.245 E16.17792
G1 X90.985 Y95.523 E16.21527
G1 X91.258 Y94.827 E16.25257
G1 X91.605 Y94.164 E16.2899
G1 X92.02 Y93.541 E16.32725
G1 X92.678 Y92.78 E16.37744
M205 X10 Y10
G0 F6000 X92.961 Y93.063
M205 X8 Y8
G1 F1200 X93.078 Y92.946 E16.38569
G1 X93.619 Y92.462 E16.42191
G1 X94.21 Y92.039 E16.45817
G1 X94.844 Y91.685 E16.49439
G1 X95.513 Y91.402 E16.53063
G1 X96.209 Y91.194 E16.56687
G1 X96.924 Y91.064 E16.60313
G1 X97.746 Y91.013 E16.64422
G1 X112.256 Y91.015 E17.36813
G1 X112.981 Y91.055 E17.40435
G1 X113.698 Y91.175 E17.44062
G1 X114.397 Y91.372 E17.47685
G1 X115.07 Y91.645 E17.51309
G1 X115.709 Y91.991 E17.54934
G1 X116.306 Y92.404 E17.58556
G1 X116.922 Y92.948 E17.62656
G1 X117.039 Y93.065 E17.63481
G1 X117.523 Y93.606 E17.67103
G1 X117.946 Y94.197 E17.70729
G1 X118.3 Y94.831 E17.74351
G1 X118.583 Y95.5 E17.77975
G1 X118.791 Y96.196 E17.81599
G1 X118.921 Y96.911 E17.85225
G1 X118.972 Y97.735 E17.89344
G1 X118.965 Y112.273 E18.61874
G1 X118.925 Y112.998 E18.65497
G1 X118.805 Y113.715 E18.69124
G1 X118.607 Y114.414 E18.72748
G1 X118.334 Y115.087 E18.76372
G1 X117.988 Y115.726 E18.79997
G1 X117.574 Y116.323 E18.83621
G1 X117.032 Y116.937 E18.87707
G1 X116.915 Y117.054 E18.88533
G1 X116.374 Y117.538 E18.92154
G1 X115.783 Y117.961 E18.9578
G1 X115.149 Y118.315 E18.99403
G1 X114.48 Y118.598 E19.03027
G1 X113.784 Y118.806 E19.06651
G1 X113.069 Y118.936 E19.10277
G1 X112.248 Y118.987 E19.14381
G1 X97.745 Y118.987 E19.86736
G1 X97.02 Y118.947 E19.90359
G1 X96.303 Y118.828 E19.93985
G1 X95.604 Y118.63 E19.9761
G1 X94.931 Y118.357 E20.01233
G1 X94.292 Y118.012 E20.04856
G1 X93.695 Y117.598 E20.0848
G1 X93.078 Y117.054 E20.12584
G1 X92.961 Y116.937 E20.1341
G1 X92.477 Y116.396 E20.17031
G1 X92.054 Y115.805 E20.20657
G1 X91.7 Y115.171 E20.2428
G1 X91.417 Y114.502 E20.27904
G1 X91.209 Y113.806 E20.31528
G1 X91.079 Y113.091 E20.35154
G1 X91.055 Y112.702 E20.37098
G1 X90.898 Y112.638 E20.37944
G1 X90.259 Y112.293 E20.41567
G1 X89.828 Y112.004 E20.44156
G1 X88.832 Y111.279 E20.50302
G1 X88.269 Y110.82 E20.53926
G1 X87.76 Y110.302 E20.57549
G1 X87.311 Y109.731 E20.61173
G1 X86.928 Y109.114 E20.64796
G1 X86.614 Y108.459 E20.6842
G1 X86.44 Y107.987 E20.7093
G1 X86.059 Y106.817 E20.77069
G1 X85.873 Y106.115 E20.80692
G1 X85.765 Y105.396 E20.84319
G1 X85.736 Y104.671 E20.87939
G1 X85.787 Y103.946 E20.91565
G1 X85.918 Y103.231 E20.95192
G1 X86.059 Y102.729 E20.97793
G1 X86.44 Y101.559 E21.03932
G1 X86.703 Y100.882 E21.07555
G1 X87.038 Y100.238 E21.11177
G1 X87.443 Y99.634 E21.14805
G1 X87.911 Y99.079 E21.18427
G1 X88.437 Y98.578 E21.22051
G1 X88.832 Y98.267 E21.24559
G1 X89.828 Y97.542 E21.30705
G1 X90.438 Y97.147 E21.34331
G1 X91.087 Y96.822 E21.37952
G1 X91.099 Y96.818 E21.38015
G1 X91.187 Y96.288 E21.40696
G1 X91.385 Y95.589 E21.4432
G1 X91.658 Y94.916 E21.47943
G1 X92.003 Y94.277 E21.51566
G1 X92.417 Y93.68 E21.55191
G1 X92.961 Y93.063 E21.59295
M205 X10 Y10
G0 F6000 X93.244 Y93.346
M205 X8 Y8
G1 F1200 X93.361 Y93.229 E21.6012
G1 X93.886 Y92.76 E21.63632
G1 X94.461 Y92.354 E21.67144
G1 X95.079 Y92.016 E21.70658
G1 X95.73 Y91.749 E21.74169
G1 X96.408 Y91.559 E21.77682
G1 X97.103 Y91.446 E21.81195
G1 X97.746 Y91.413 E21.84407
G1 X112.256 Y91.415 E22.56797
G1 X112.959 Y91.455 E22.6031
G1 X113.652 Y91.575 E22.63819
G1 X114.328 Y91.772 E22.67332
G1 X114.977 Y92.045 E22.70845
G1 X115.591 Y92.389 E22.74356
G1 X116.162 Y92.801 E22.77869
G1 X116.639 Y93.231 E22.81073
G1 X116.756 Y93.348 E22.81898
G1 X117.225 Y93.873 E22.85411
G1 X117.631 Y94.448 E22.88922
G1 X117.969 Y95.066 E22.92436
G1 X118.236 Y95.717 E22.95947
G1 X118.426 Y96.395 E22.9946
G1 X118.539 Y97.09 E23.02973
G1 X118.572 Y97.735 E23.06195
G1 X118.565 Y112.273 E23.78725
G1 X118.525 Y112.976 E23.82238
G1 X118.405 Y113.67 E23.85752
G1 X118.207 Y114.345 E23.89261
G1 X117.934 Y114.994 E23.92774
G1 X117.59 Y115.608 E23.96285
G1 X117.178 Y116.179 E23.99798
G1 X116.749 Y116.654 E24.02991
G1 X116.632 Y116.771 E24.03817
G1 X116.107 Y117.24 E24.07329
G1 X115.532 Y117.646 E24.10841
G1 X114.914 Y117.984 E24.14355
G1 X114.263 Y118.251 E24.17865
G1 X113.585 Y118.441 E24.21378
G1 X112.89 Y118.554 E24.24891
G1 X112.248 Y118.587 E24.28098
G1 X97.745 Y118.587 E25.00454
G1 X97.042 Y118.547 E25.03967
G1 X96.348 Y118.428 E25.0748
G1 X95.673 Y118.23 E25.10989
G1 X95.024 Y117.958 E25.145
G1 X94.41 Y117.613 E25.18014
G1 X93.839 Y117.202 E25.21524
G1 X93.361 Y116.771 E25.24735
G1 X93.244 Y116.654 E25.2556
G1 X92.775 Y116.129 E25.29073
G1 X92.369 Y115.554 E25.32584
G1 X92.031 Y114.936 E25.36099
G1 X91.764 Y114.285 E25.39609
G1 X91.574 Y113.607 E25.43122
G1 X91.461 Y112.912 E25.46635
G1 X91.436 Y112.425 E25.49068
G1 X90.991 Y112.239 E25.51474
G1 X90.377 Y111.894 E25.54987
G1 X90.063 Y111.681 E25.5688
G1 X89.067 Y110.956 E25.63027
G1 X88.523 Y110.51 E25.66536
G1 X88.032 Y110.005 E25.7005
G1 X87.602 Y109.448 E25.73561
G1 X87.237 Y108.845 E25.77077
G1 X86.944 Y108.205 E25.80589
G1 X86.821 Y107.863 E25.82402
G1 X86.44 Y106.693 E25.88541
G1 X86.26 Y106.012 E25.92055
G1 X86.159 Y105.315 E25.95569
G1 X86.137 Y104.612 E25.99078
G1 X86.195 Y103.91 E26.02592
G1 X86.333 Y103.22 E26.06103
G1 X86.44 Y102.853 E26.0801
G1 X86.821 Y101.683 E26.14149
G1 X87.076 Y101.027 E26.1766
G1 X87.405 Y100.405 E26.21171
G1 X87.802 Y99.823 E26.24686
G1 X88.262 Y99.29 E26.28198
G1 X88.779 Y98.813 E26.31707
G1 X89.067 Y98.59 E26.33525
G1 X90.063 Y97.865 E26.39671
G1 X90.655 Y97.484 E26.43183
G1 X91.286 Y97.172 E26.46695
G1 X91.463 Y97.108 E26.47634
G1 X91.468 Y97.027 E26.48039
G1 X91.587 Y96.333 E26.51552
G1 X91.785 Y95.658 E26.55061
G1 X92.057 Y95.009 E26.58572
G1 X92.402 Y94.395 E26.62086
G1 X92.813 Y93.824 E26.65596
G1 X93.244 Y93.346 E26.68807
M205 X10 Y10
G0 F6000 X93.644 Y93.512
M205 X8 Y8
G1 F1200 X94.153 Y93.059 E26.72206
G1 X94.711 Y92.67 E26.756
G1 X95.311 Y92.348 E26.78997
G1 X95.945 Y92.099 E26.82395
G1 X96.604 Y91.926 E26.85794
G1 X97.278 Y91.832 E26.8919
G1 X97.746 Y91.813 E26.91526
G1 X112.256 Y91.815 E27.63917
G1 X112.936 Y91.855 E27.67315
G1 X113.606 Y91.974 E27.7071
G1 X114.258 Y92.172 E27.7411
