;FLAVOR:Marlin
;TIME:2034
;Filament used: 1.38019m
;Layer height: 0.2
;MINX:89.828
;MINY:89.813
;MINZ:0.3
;MAXX:125.465
;MAXY:120.187
;MAXZ:30.775
;Generated with Cura_SteamEngine 4.13.1
M82 ;absolute extrusion mode
G21                                        ; metric values 
G90                                        ; absolute positioning 
M82                                        ; set extruder to absolute mode 
M107                                       ; start with the fan off 
M140 S60.0           ; Start heating the bed 
G4 S60                                     ; wait 1 minute 
M104 S220.0         ; start heating the hot end 
M190 S60.0           ; wait for bed 
M109 S220.0         ; wait for hotend 
M300 S1000 P500                            ; BEEP heating done 
G28 X0 Y10 Z0                              ; move X/Y to min endstops 
M420 S1                                    ; Enable leveling 
M420 Z2.0                                  ; Set leveling fading height to 2 mm 
G0 Z0.15                                   ; lift nozzle a bit 
G92 E0                                     ; zero the extruded length 
G1 X50 E25 F500                            ; Extrude 25mm of filament in a 5cm line. 
G92 E0                                     ; zero the extruded length again 
G1 E-2 F500                                ; Retract a little 
G1 X120 F4000                              ; Quickly wipe away from the filament line`
G92 E0
G92 E0
G1 F2400 E-3
;LAYER_COUNT:153
;LAYER:0
M106 S76.5
M205 X10 Y10
G1 F600 Z0.375
G0 F6000 X92.113 Y92.217 Z0.375
M205 X8 Y8
;TYPE:SKIRT
G1 F600 Z0.3
G1 F2400 E0
G1 F1200 X92.23 Y92.1 E0.00825
G1 X92.816 Y91.57 E0.04767
G1 X93.452 Y91.103 E0.08704
G1 X94.132 Y90.702 E0.12642
G1 X94.85 Y90.372 E0.16585
G1 X95.597 Y90.117 E0.20523
G1 X96.366 Y89.938 E0.24462
G1 X97.15 Y89.838 E0.28405
G1 X97.744 Y89.815 E0.31371
G1 X112.254 Y89.813 E1.03761
G1 X113.043 Y89.853 E1.07703
G1 X113.823 Y89.972 E1.11639
G1 X114.588 Y90.17 E1.15582
G1 X115.328 Y90.444 E1.19518
G1 X116.037 Y90.791 E1.23457
G1 X116.708 Y91.209 E1.27401
G1 X117.333 Y91.692 E1.31341
G1 X117.77 Y92.098 E1.34317
G1 X117.887 Y92.215 E1.35143
G1 X118.417 Y92.801 E1.39085
G1 X118.884 Y93.437 E1.43021
G1 X119.285 Y94.117 E1.4696
G1 X119.615 Y94.835 E1.50902
G1 X119.87 Y95.582 E1.5484
G1 X120.042 Y96.32 E1.58621
G1 X120.071 Y96.334 E1.58781
G1 X120.878 Y96.849 E1.63557
G1 X121.874 Y97.574 E1.69703
G1 X122.488 Y98.07 E1.73641
G1 X123.049 Y98.626 E1.77582
G1 X123.551 Y99.236 E1.81523
G1 X123.988 Y99.894 E1.85464
G1 X124.357 Y100.592 E1.89403
G1 X124.701 Y101.465 E1.94084
G1 X125.082 Y102.635 E2.00223
G1 X125.288 Y103.397 E2.04161
G1 X125.416 Y104.176 E2.081
G1 X125.465 Y104.965 E2.12044
G1 X125.433 Y105.754 E2.15983
G1 X125.322 Y106.535 E2.19919
G1 X125.082 Y107.465 E2.24711
G1 X124.701 Y108.635 E2.3085
G1 X124.418 Y109.373 E2.34793
G1 X124.063 Y110.078 E2.38731
G1 X123.638 Y110.744 E2.42673
G1 X123.148 Y111.363 E2.46611
G1 X122.598 Y111.93 E2.50552
G1 X121.874 Y112.526 E2.55231
G1 X120.878 Y113.251 E2.61377
G1 X120.217 Y113.683 E2.65316
G1 X120.013 Y113.839 E2.66598
G1 X119.815 Y114.604 E2.7054
G1 X119.541 Y115.344 E2.74477
G1 X119.193 Y116.053 E2.78417
G1 X118.775 Y116.724 E2.82361
G1 X118.292 Y117.348 E2.86298
G1 X117.887 Y117.785 E2.89271
G1 X117.77 Y117.902 E2.90096
G1 X117.184 Y118.432 E2.94038
G1 X116.548 Y118.899 E2.97975
G1 X115.868 Y119.3 E3.01913
G1 X115.15 Y119.63 E3.05855
G1 X114.403 Y119.885 E3.09793
G1 X113.634 Y120.064 E3.13732
G1 X112.85 Y120.164 E3.17676
G1 X112.255 Y120.187 E3.20646
G1 X97.752 Y120.187 E3.93002
G1 X96.963 Y120.147 E3.96943
G1 X96.183 Y120.028 E4.0088
G1 X95.418 Y119.83 E4.04822
G1 X94.678 Y119.556 E4.08759
G1 X93.969 Y119.208 E4.12699
G1 X93.298 Y118.79 E4.16643
G1 X92.674 Y118.307 E4.2058
G1 X92.237 Y117.902 E4.23553
G1 X92.12 Y117.785 E4.24378
G1 X91.59 Y117.199 E4.2832
G1 X91.123 Y116.563 E4.32257
G1 X90.722 Y115.883 E4.36195
G1 X90.392 Y115.165 E4.40138
G1 X90.137 Y114.418 E4.44075
G1 X89.958 Y113.649 E4.48015
G1 X89.858 Y112.865 E4.51958
G1 X89.835 Y112.274 E4.54908
G1 X89.828 Y97.736 E5.27439
G1 X89.868 Y96.947 E5.3138
G1 X89.987 Y96.166 E5.35322
G1 X90.184 Y95.402 E5.39258
G1 X90.458 Y94.661 E5.43199
G1 X90.805 Y93.952 E5.47138
G1 X91.222 Y93.281 E5.51079
G1 X91.705 Y92.657 E5.55016
G1 X92.113 Y92.217 E5.58009
M205 X10 Y10
G0 F6000 X92.512 Y92.382
M205 X8 Y8
G1 F1200 X93.084 Y91.868 E5.61846
G1 X93.706 Y91.415 E5.65685
G1 X94.371 Y91.029 E5.69521
G1 X95.073 Y90.714 E5.7336
G1 X95.804 Y90.474 E5.77198
G1 X96.555 Y90.311 E5.81032
G1 X97.32 Y90.227 E5.84872
G1 X97.744 Y90.215 E5.86988
G1 X112.254 Y90.213 E6.59379
G1 X113.022 Y90.253 E6.63215
G1 X113.782 Y90.372 E6.67053
G1 X114.525 Y90.57 E6.7089
G1 X115.244 Y90.844 E6.74728
G1 X115.931 Y91.19 E6.78566
G1 X116.577 Y91.607 E6.82402
G1 X117.178 Y92.088 E6.86242
G1 X117.605 Y92.497 E6.89192
G1 X118.119 Y93.069 E6.93029
G1 X118.572 Y93.691 E6.96868
G1 X118.958 Y94.356 E7.00704
G1 X119.273 Y95.058 E7.04543
G1 X119.513 Y95.789 E7.08381
G1 X119.676 Y96.54 E7.12215
G1 X119.964 Y96.733 E7.13945
G1 X120.643 Y97.172 E7.17979
G1 X121.639 Y97.897 E7.24125
G1 X122.236 Y98.382 E7.27962
G1 X122.78 Y98.925 E7.31797
G1 X123.265 Y99.523 E7.35638
G1 X123.685 Y100.167 E7.39474
G1 X124.036 Y100.851 E7.4331
G1 X124.32 Y101.589 E7.47255
G1 X124.701 Y102.759 E7.53394
G1 X124.901 Y103.501 E7.57228
G1 X125.023 Y104.261 E7.61068
G1 X125.065 Y105.029 E7.64905
G1 X125.027 Y105.797 E7.68741
G1 X124.91 Y106.557 E7.72578
G1 X124.701 Y107.341 E7.76626
G1 X124.32 Y108.511 E7.82764
G1 X124.044 Y109.229 E7.86602
G1 X123.696 Y109.915 E7.9044
G1 X123.277 Y110.56 E7.94277
G1 X122.795 Y111.159 E7.98113
G1 X122.252 Y111.704 E8.01951
G1 X121.639 Y112.203 E8.05895
G1 X120.643 Y112.928 E8.12041
G1 X119.998 Y113.348 E8.15881
G1 X119.656 Y113.523 E8.17797
G1 X119.613 Y113.798 E8.19186
G1 X119.415 Y114.541 E8.23022
G1 X119.141 Y115.26 E8.26861
G1 X118.794 Y115.946 E8.30696
G1 X118.378 Y116.593 E8.34534
G1 X117.897 Y117.193 E8.3837
G1 X117.488 Y117.62 E8.4132
G1 X116.916 Y118.134 E8.45157
G1 X116.294 Y118.587 E8.48996
G1 X115.629 Y118.973 E8.52832
G1 X114.927 Y119.288 E8.56671
G1 X114.196 Y119.528 E8.60509
G1 X113.445 Y119.691 E8.64343
G1 X112.68 Y119.775 E8.68183
G1 X112.255 Y119.787 E8.70304
G1 X97.752 Y119.787 E9.4266
G1 X96.984 Y119.747 E9.46496
G1 X96.224 Y119.628 E9.50334
G1 X95.481 Y119.43 E9.5417
G1 X94.762 Y119.156 E9.58009
G1 X94.076 Y118.809 E9.61845
G1 X93.429 Y118.393 E9.65682
G1 X92.829 Y117.912 E9.69519
G1 X92.402 Y117.503 E9.72469
G1 X91.888 Y116.931 E9.76305
G1 X91.435 Y116.309 E9.80144
G1 X91.049 Y115.644 E9.8398
G1 X90.734 Y114.942 E9.87819
G1 X90.494 Y114.211 E9.91657
G1 X90.331 Y113.46 E9.95491
G1 X90.247 Y112.695 E9.99331
G1 X90.235 Y112.274 E10.01432
G1 X90.228 Y97.736 E10.73963
G1 X90.268 Y96.967 E10.77804
G1 X90.387 Y96.208 E10.81637
G1 X90.584 Y95.464 E10.85477
G1 X90.858 Y94.745 E10.89316
G1 X91.204 Y94.059 E10.93149
G1 X91.62 Y93.412 E10.96986
G1 X92.101 Y92.811 E11.00827
G1 X92.512 Y92.382 E11.03791
M205 X10 Y10
G0 F6000 X92.678 Y92.782
M205 X8 Y8
G1 F1200 X92.795 Y92.665 E11.04616
G1 X93.352 Y92.165 E11.08351
G1 X93.958 Y91.728 E11.12078
G1 X94.608 Y91.357 E11.15812
G1 X95.294 Y91.058 E11.19546
G1 X96.008 Y90.834 E11.23279
G1 X96.741 Y90.687 E11.27009
G1 X97.744 Y90.615 E11.32025
G1 X112.254 Y90.613 E12.04416
G1 X113.001 Y90.653 E12.08148
G1 X113.74 Y90.772 E12.11883
G1 X114.461 Y90.97 E12.15613
G1 X115.157 Y91.243 E12.19343
G1 X115.821 Y91.589 E12.23078
G1 X116.443 Y92.004 E12.26809
G1 X117.205 Y92.663 E12.31835
G1 X117.322 Y92.78 E12.3266
G1 X117.822 Y93.337 E12.36395
G1 X118.259 Y93.943 E12.40122
G1 X118.63 Y94.593 E12.43856
G1 X118.929 Y95.279 E12.47589
G1 X119.153 Y95.993 E12.51323
G1 X119.3 Y96.726 E12.55053
G1 X119.309 Y96.847 E12.55658
G1 X119.854 Y97.132 E12.58726
G1 X120.408 Y97.496 E12.62033
G1 X121.404 Y98.221 E12.6818
G1 X121.984 Y98.692 E12.71907
G1 X122.511 Y99.224 E12.75643
G1 X122.978 Y99.808 E12.79374
G1 X123.38 Y100.439 E12.83106
G1 X123.712 Y101.109 E12.86837
G1 X123.94 Y101.713 E12.90058
G1 X124.321 Y102.883 E12.96197
G1 X124.514 Y103.605 E12.99925
G1 X124.629 Y104.344 E13.03656
G1 X124.665 Y105.092 E13.07392
G1 X124.62 Y105.838 E13.11121
G1 X124.497 Y106.576 E13.14854
G1 X124.321 Y107.217 E13.1817
G1 X123.94 Y108.387 E13.24309
G1 X123.671 Y109.085 E13.28041
G1 X123.328 Y109.751 E13.31778
G1 X122.917 Y110.375 E13.35506
G1 X122.442 Y110.953 E13.39239
G1 X121.907 Y111.476 E13.42971
G1 X121.404 Y111.879 E13.46187
G1 X120.408 Y112.604 E13.52333
G1 X119.78 Y113.012 E13.56069
G1 X119.293 Y113.259 E13.58793
G1 X119.213 Y113.755 E13.613
G1 X119.015 Y114.477 E13.65035
G1 X118.742 Y115.173 E13.68765
G1 X118.395 Y115.836 E13.72498
G1 X117.98 Y116.459 E13.76233
G1 X117.322 Y117.22 E13.81252
G1 X117.205 Y117.337 E13.82078
G1 X116.648 Y117.837 E13.85812
G1 X116.042 Y118.274 E13.89539
G1 X115.392 Y118.645 E13.93273
G1 X114.706 Y118.944 E13.97007
G1 X113.992 Y119.168 E14.0074
G1 X113.259 Y119.315 E14.0447
G1 X112.255 Y119.387 E14.09492
G1 X97.752 Y119.387 E14.81847
G1 X97.005 Y119.347 E14.85579
G1 X96.267 Y119.228 E14.89309
G1 X95.545 Y119.03 E14.93044
G1 X94.849 Y118.757 E14.96774
G1 X94.186 Y118.41 E15.00507
G1 X93.563 Y117.995 E15.04242
G1 X92.802 Y117.337 E15.09261
G1 X92.685 Y117.22 E15.10086
G1 X92.185 Y116.663 E15.13821
G1 X91.748 Y116.057 E15.17548
G1 X91.377 Y115.407 E15.21282
G1 X91.078 Y114.721 E15.25016
G1 X90.854 Y114.007 E15.28749
G1 X90.707 Y113.274 E15.32479
G1 X90.635 Y112.273 E15.37486
G1 X90.628 Y97.735 E16.10016
G1 X90.668 Y96.988 E16.13748
G1 X90.787 Y96.25 E16.17478
G1 X90.984 Y95.528 E16.21211
G1 X91.257 Y94.832 E16.24941
G1 X91.603 Y94.169 E16.28672
G1 X92.018 Y93.546 E16.32407
G1 X92.678 Y92.782 E16.37444
M205 X10 Y10
G0 F6000 X92.961 Y93.065
M205 X8 Y8
G1 F1200 X93.078 Y92.948 E16.38269
G1 X93.619 Y92.464 E16.41891
G1 X94.21 Y92.041 E16.45517
G1 X94.844 Y91.687 E16.49139
G1 X95.513 Y91.404 E16.52763
G1 X96.209 Y91.196 E16.56388
G1 X96.924 Y91.066 E16.60013
G1 X97.744 Y91.015 E16.64112
G1 X112.254 Y91.013 E17.36503
G1 X112.979 Y91.053 E17.40125
G1 X113.696 Y91.172 E17.43751
G1 X114.395 Y91.37 E17.47376
G1 X115.068 Y91.642 E17.50997
G1 X115.707 Y91.988 E17.54623
G1 X116.304 Y92.401 E17.58244
G1 X116.922 Y92.946 E17.62355
G1 X117.039 Y93.063 E17.63181
G1 X117.523 Y93.604 E17.66802
G1 X117.946 Y94.195 E17.70428
G1 X118.3 Y94.829 E17.74051
G1 X118.583 Y95.498 E17.77675
G1 X118.791 Y96.194 E17.81299
G1 X118.921 Y96.909 E17.84925
G1 X118.934 Y97.117 E17.85964
G1 X119.102 Y97.185 E17.86869
G1 X119.741 Y97.53 E17.90492
G1 X120.172 Y97.819 E17.93081
G1 X121.168 Y98.544 E17.99227
G1 X121.731 Y99.003 E18.02851
G1 X122.24 Y99.521 E18.06474
G1 X122.689 Y100.092 E18.10098
G1 X123.072 Y100.709 E18.13721
G1 X123.386 Y101.364 E18.17345
G1 X123.56 Y101.836 E18.19854
G1 X123.941 Y103.006 E18.25993
G1 X124.127 Y103.708 E18.29616
G1 X124.235 Y104.427 E18.33244
G1 X124.264 Y105.152 E18.36864
G1 X124.213 Y105.877 E18.4049
G1 X124.082 Y106.592 E18.44116
G1 X123.941 Y107.094 E18.46718
G1 X123.56 Y108.264 E18.52856
G1 X123.297 Y108.941 E18.5648
G1 X122.962 Y109.585 E18.60102
G1 X122.557 Y110.189 E18.6373
G1 X122.089 Y110.744 E18.67352
G1 X121.563 Y111.245 E18.70976
G1 X121.168 Y111.556 E18.73484
G1 X120.172 Y112.281 E18.7963
G1 X119.562 Y112.676 E18.83256
G1 X118.932 Y112.991 E18.8677
G1 X118.813 Y113.712 E18.90415
G1 X118.615 Y114.411 E18.9404
G1 X118.342 Y115.084 E18.97663
G1 X117.997 Y115.723 E19.01286
G1 X117.583 Y116.32 E19.04911
G1 X117.039 Y116.937 E19.09015
G1 X116.922 Y117.054 E19.0984
G1 X116.381 Y117.538 E19.13462
G1 X115.79 Y117.961 E19.17088
G1 X115.156 Y118.315 E19.2071
G1 X114.487 Y118.598 E19.24334
G1 X113.791 Y118.806 E19.27958
G1 X113.076 Y118.936 E19.31584
G1 X112.255 Y118.987 E19.35688
G1 X97.752 Y118.987 E20.08044
G1 X97.027 Y118.947 E20.11666
G1 X96.31 Y118.828 E20.15292
G1 X95.611 Y118.63 E20.18917
G1 X94.938 Y118.357 E20.2254
G1 X94.299 Y118.012 E20.26163
G1 X93.702 Y117.598 E20.29788
G1 X93.085 Y117.054 E20.33891
G1 X92.968 Y116.937 E20.34717
G1 X92.484 Y116.396 E20.38339
G1 X92.061 Y115.805 E20.41964
G1 X91.707 Y115.171 E20.45587
G1 X91.424 Y114.502 E20.49211
G1 X91.216 Y113.806 E20.52835
G1 X91.086 Y113.091 E20.56461
G1 X91.035 Y112.273 E20.6055
G1 X91.028 Y97.735 E21.3308
G1 X91.068 Y97.01 E21.36703
G1 X91.187 Y96.293 E21.40329
G1 X91.384 Y95.594 E21.43952
G1 X91.657 Y94.921 E21.47575
G1 X92.002 Y94.282 E21.51198
G1 X92.415 Y93.684 E21.54824
G1 X92.961 Y93.065 E21.58942
M205 X10 Y10
G0 F6000 X93.244 Y93.348
M205 X8 Y8
G1 F1200 X93.361 Y93.231 E21.59768
G1 X93.886 Y92.762 E21.6328
G1 X94.461 Y92.356 E21.66791
G1 X95.079 Y92.018 E21.70306
G1 X95.73 Y91.751 E21.73816
G1 X96.408 Y91.561 E21.77329
G1 X97.103 Y91.448 E21.80842
G1 X97.744 Y91.415 E21.84044
G1 X112.254 Y91.413 E22.56435
G1 X112.957 Y91.453 E22.59948
G1 X113.651 Y91.572 E22.63461
G1 X114.327 Y91.769 E22.66973
G1 X114.976 Y92.042 E22.70486
G1 X115.59 Y92.386 E22.73997
G1 X116.161 Y92.798 E22.7751
G1 X116.639 Y93.229 E22.80721
G1 X116.756 Y93.346 E22.81547
G1 X117.225 Y93.871 E22.85059
G1 X117.631 Y94.446 E22.88571
G1 X117.969 Y95.064 E22.92085
G1 X118.236 Y95.715 E22.95595
G1 X118.426 Y96.393 E22.99108
G1 X118.539 Y97.088 E23.02621
G1 X118.555 Y97.394 E23.0415
G1 X119.009 Y97.584 E23.06605
G1 X119.623 Y97.929 E23.10119
G1 X119.937 Y98.142 E23.12012
G1 X120.933 Y98.867 E23.18158
G1 X121.477 Y99.313 E23.21667
G1 X121.968 Y99.818 E23.25181
G1 X122.398 Y100.375 E23.28692
G1 X122.763 Y100.978 E23.32209
G1 X123.056 Y101.618 E23.3572
G1 X123.179 Y101.96 E23.37534
G1 X123.56 Y103.13 E23.43672
G1 X123.74 Y103.811 E23.47187
G1 X123.841 Y104.508 E23.507
G1 X123.863 Y105.211 E23.54209
G1 X123.805 Y105.913 E23.57724
G1 X123.667 Y106.603 E23.61234
G1 X123.56 Y106.97 E23.63141
G1 X123.179 Y108.14 E23.6928
G1 X122.924 Y108.796 E23.72792
G1 X122.595 Y109.418 E23.76302
G1 X122.198 Y110 E23.79817
G1 X121.738 Y110.533 E23.83329
G1 X121.221 Y111.01 E23.86839
G1 X120.933 Y111.233 E23.88656
G1 X119.937 Y111.958 E23.94802
G1 X119.345 Y112.339 E23.98314
G1 X118.714 Y112.651 E24.01826
G1 X118.547 Y112.711 E24.02712
G1 X118.532 Y112.973 E24.04021
G1 X118.413 Y113.667 E24.07534
G1 X118.215 Y114.342 E24.11043
G1 X117.943 Y114.991 E24.14554
G1 X117.598 Y115.605 E24.18068
G1 X117.187 Y116.176 E24.21578
G1 X116.756 Y116.654 E24.24789
G1 X116.639 Y116.771 E24.25614
G1 X116.114 Y117.24 E24.29126
G1 X115.539 Y117.646 E24.32638
G1 X114.921 Y117.984 E24.36152
G1 X114.27 Y118.251 E24.39663
G1 X113.592 Y118.441 E24.43176
G1 X112.897 Y118.554 E24.46689
G1 X112.255 Y118.587 E24.49896
G1 X97.752 Y118.587 E25.22251
G1 X97.049 Y118.547 E25.25764
G1 X96.355 Y118.428 E25.29277
G1 X95.68 Y118.23 E25.32787
G1 X95.031 Y117.958 E25.36298
G1 X94.417 Y117.613 E25.39811
G1 X93.846 Y117.202 E25.43321
G1 X93.368 Y116.771 E25.46532
G1 X93.251 Y116.654 E25.47358
G1 X92.782 Y116.129 E25.5087
G1 X92.376 Y115.554 E25.54382
G1 X92.038 Y114.936 E25.57896
G1 X91.771 Y114.285 E25.61406
G1 X91.581 Y113.607 E25.64919
G1 X91.468 Y112.912 E25.68432
G1 X91.435 Y112.273 E25.71624
G1 X91.428 Y97.735 E26.44155
G1 X91.468 Y97.032 E26.47668
G1 X91.587 Y96.338 E26.5118
G1 X91.784 Y95.662 E26.54693
G1 X92.056 Y95.013 E26.58204
G1 X92.4 Y94.399 E26.61715
G1 X92.812 Y93.828 E26.65228
G1 X93.244 Y93.348 E26.6845
M205 X10 Y10
G0 F6000 X93.644 Y93.514
M205 X8 Y8
G1 F1200 X94.153 Y93.061 E26.71849
G1 X94.711 Y92.672 E26.75243
G1 X95.311 Y92.35 E26.7864
G1 X95.945 Y92.101 E26.82039
G1 X96.604 Y91.928 E26.85438
G1 X97.278 Y91.834 E26.88833
G1 X97.744 Y91.815 E26.9116
G1 X112.254 Y91.813 E27.6355
G1 X112.934 Y91.853 E27.66949
