;FLAVOR:Marlin
;TIME:3517
;Filament used: 2.90053m
;Layer height: 0.2
;MINX:75.191
;MINY:84.996
;MINZ:0.3
;MAXX:135.594
;MAXY:120.064
;MAXZ:18.775
;Generated with Cura_SteamEngine 4.13.1
M82 ;absolute extrusion mode
G21                                        ; metric values 
G90                                        ; absolute positioning 
M82                                        ; set extruder to absolute mode 
M107                                       ; start with the fan off 
M140 S60.0           ; Start heating the bed 
G4 S60                                     ; wait 1 minute 
M104 S220.0         ; start heating the hot end 
M190 S60.0           ; wait for bed 
M109 S220.0         ; wait for hotend 
M300 S1000 P500                            ; BEEP heating done 
G28 X0 Y10 Z0                              ; move X/Y to min endstops 
M420 S1                                    ; Enable leveling 
M420 Z2.0                                  ; Set leveling fading height to 2 mm 
G0 Z0.15                                   ; lift nozzle a bit 
G92 E0                                     ; zero the extruded length 
G1 X50 E25 F500                            ; Extrude 25mm of filament in a 5cm line. 
G92 E0                                     ; zero the extruded length again 
G1 E-2 F500                                ; Retract a little 
G1 X120 F4000                              ; Quickly wipe away from the filament line`
G92 E0
G92 E0
G1 F2400 E-3
;LAYER_COUNT:93
;LAYER:0
M106 S76.5
M205 X10 Y10
G1 F600 Z0.375
G0 F6000 X83.997 Y87.281 Z0.375
M205 X8 Y8
;TYPE:SKIRT
G1 F600 Z0.3
G1 F2400 E0
G1 F1200 X84.583 Y86.751 E0.03942
G1 X85.219 Y86.284 E0.07878
G1 X85.899 Y85.883 E0.11817
G1 X86.617 Y85.553 E0.15759
G1 X87.364 Y85.298 E0.19697
G1 X88.133 Y85.119 E0.23636
G1 X88.917 Y85.019 E0.27579
G1 X89.512 Y84.996 E0.3055
G1 X127.677 Y84.996 E2.20956
G1 X128.466 Y85.036 E2.24898
G1 X129.246 Y85.155 E2.28834
G1 X130.011 Y85.353 E2.32776
G1 X130.751 Y85.627 E2.36713
G1 X131.46 Y85.975 E2.40654
G1 X132.131 Y86.393 E2.44598
G1 X132.755 Y86.876 E2.48534
G1 X133.192 Y87.281 E2.51507
G1 X133.309 Y87.398 E2.52332
G1 X133.839 Y87.984 E2.56274
G1 X134.306 Y88.62 E2.60211
G1 X134.707 Y89.3 E2.64149
G1 X135.037 Y90.018 E2.68092
G1 X135.292 Y90.765 E2.7203
G1 X135.471 Y91.534 E2.75969
G1 X135.571 Y92.318 E2.79912
G1 X135.594 Y92.913 E2.82883
G1 X135.594 Y112.146 E3.78836
G1 X135.554 Y112.935 E3.82778
G1 X135.435 Y113.715 E3.86714
G1 X135.237 Y114.48 E3.90657
G1 X134.963 Y115.22 E3.94593
G1 X134.615 Y115.929 E3.98534
G1 X134.197 Y116.6 E4.02478
G1 X133.714 Y117.224 E4.06415
G1 X133.309 Y117.661 E4.09387
G1 X133.192 Y117.778 E4.10213
G1 X132.606 Y118.308 E4.14155
G1 X131.97 Y118.775 E4.18091
G1 X131.29 Y119.176 E4.2203
G1 X130.572 Y119.506 E4.25972
G1 X129.825 Y119.761 E4.2991
G1 X129.056 Y119.94 E4.33849
G1 X128.272 Y120.04 E4.37792
G1 X127.677 Y120.063 E4.40763
G1 X89.512 Y120.064 E6.31169
G1 X88.724 Y120.024 E6.35105
G1 X87.943 Y119.905 E6.39047
G1 X87.178 Y119.707 E6.42989
G1 X86.438 Y119.433 E6.46926
G1 X85.729 Y119.085 E6.50866
G1 X85.058 Y118.668 E6.54807
G1 X84.434 Y118.184 E6.58747
G1 X83.997 Y117.779 E6.6172
G1 X83.88 Y117.662 E6.62545
G1 X83.35 Y117.076 E6.66487
G1 X82.883 Y116.44 E6.70424
G1 X82.482 Y115.76 E6.74362
G1 X82.152 Y115.042 E6.78305
G1 X81.897 Y114.295 E6.82243
G1 X81.718 Y113.526 E6.86182
G1 X81.618 Y112.742 E6.90125
G1 X81.595 Y112.147 E6.93096
G1 X81.595 Y108.215 E7.12712
G1 X81.489 Y108.184 E7.13263
G1 X80.759 Y107.885 E7.17199
G1 X80.062 Y107.513 E7.21141
G1 X79.442 Y107.1 E7.24857
G1 X78.623 Y106.495 E7.29937
G1 X78.013 Y105.994 E7.33875
G1 X77.456 Y105.434 E7.37816
G1 X76.959 Y104.821 E7.41753
G1 X76.526 Y104.16 E7.45695
G1 X76.162 Y103.459 E7.49636
G1 X75.84 Y102.631 E7.54068
G1 X75.573 Y101.809 E7.5838
G1 X75.367 Y101.046 E7.62323
G1 X75.239 Y100.267 E7.66262
G1 X75.191 Y99.479 E7.702
G1 X75.223 Y98.69 E7.7414
G1 X75.335 Y97.908 E7.78081
G1 X75.573 Y96.989 E7.82817
G1 X75.84 Y96.167 E7.87129
G1 X76.121 Y95.43 E7.91064
G1 X76.476 Y94.724 E7.95007
G1 X76.9 Y94.058 E7.98946
G1 X77.39 Y93.438 E8.02888
G1 X77.939 Y92.871 E8.06826
G1 X78.669 Y92.27 E8.11543
G1 X79.37 Y91.76 E8.15868
G1 X80.023 Y91.333 E8.19761
G1 X80.455 Y90.944 E8.22661
G1 X80.782 Y90.692 E8.24721
G1 X81.447 Y90.208 E8.28824
G1 X82.108 Y89.777 E8.32761
G1 X82.307 Y89.674 E8.33879
G1 X82.574 Y89.13 E8.36902
G1 X82.992 Y88.459 E8.40846
G1 X83.475 Y87.835 E8.44783
G1 X83.88 Y87.398 E8.47755
G1 X83.997 Y87.281 E8.48581
M205 X10 Y10
G0 F6000 X84.279 Y87.563
M205 X8 Y8
G1 F1200 X84.851 Y87.049 E8.52418
G1 X85.473 Y86.596 E8.56256
G1 X86.138 Y86.21 E8.60093
G1 X86.84 Y85.895 E8.63931
G1 X87.571 Y85.655 E8.6777
G1 X88.322 Y85.492 E8.71604
G1 X89.087 Y85.408 E8.75443
G1 X89.512 Y85.396 E8.77564
G1 X127.677 Y85.396 E10.6797
G1 X128.445 Y85.436 E10.71807
G1 X129.205 Y85.555 E10.75645
G1 X129.948 Y85.753 E10.79481
G1 X130.667 Y86.027 E10.8332
G1 X131.353 Y86.374 E10.87155
G1 X132 Y86.79 E10.90993
G1 X132.6 Y87.271 E10.9483
G1 X133.027 Y87.68 E10.97779
G1 X133.541 Y88.252 E11.01616
G1 X133.994 Y88.874 E11.05455
G1 X134.38 Y89.539 E11.09291
G1 X134.695 Y90.241 E11.1313
G1 X134.935 Y90.972 E11.16968
G1 X135.098 Y91.723 E11.20802
G1 X135.182 Y92.488 E11.24642
G1 X135.194 Y92.913 E11.26763
G1 X135.194 Y112.146 E12.22717
G1 X135.154 Y112.914 E12.26554
G1 X135.035 Y113.674 E12.30391
G1 X134.837 Y114.417 E12.34228
G1 X134.563 Y115.136 E12.38066
G1 X134.216 Y115.822 E12.41902
G1 X133.8 Y116.469 E12.45739
G1 X133.319 Y117.069 E12.49576
G1 X132.91 Y117.496 E12.52526
G1 X132.338 Y118.01 E12.56362
G1 X131.716 Y118.463 E12.60201
G1 X131.051 Y118.849 E12.64037
G1 X130.349 Y119.164 E12.67876
G1 X129.618 Y119.404 E12.71715
G1 X128.867 Y119.567 E12.75549
G1 X128.102 Y119.651 E12.79388
G1 X127.677 Y119.663 E12.81509
G1 X89.512 Y119.664 E14.71915
G1 X88.744 Y119.624 E14.75752
G1 X87.984 Y119.505 E14.7959
G1 X87.241 Y119.307 E14.83426
G1 X86.522 Y119.033 E14.87265
G1 X85.836 Y118.686 E14.911
G1 X85.189 Y118.27 E14.94938
G1 X84.589 Y117.789 E14.98774
G1 X84.162 Y117.38 E15.01724
G1 X83.648 Y116.808 E15.05561
G1 X83.195 Y116.186 E15.094
G1 X82.809 Y115.521 E15.13236
G1 X82.494 Y114.819 E15.17075
G1 X82.254 Y114.088 E15.20913
G1 X82.091 Y113.337 E15.24747
G1 X82.007 Y112.572 E15.28587
G1 X81.995 Y112.147 E15.30708
G1 X81.995 Y107.917 E15.51811
G1 X81.584 Y107.794 E15.53952
G1 X80.875 Y107.497 E15.57787
G1 X80.199 Y107.129 E15.61627
G1 X79.68 Y106.778 E15.64753
G1 X78.861 Y106.173 E15.69833
G1 X78.267 Y105.685 E15.73668
G1 X77.727 Y105.137 E15.77506
G1 X77.247 Y104.536 E15.81344
G1 X76.831 Y103.889 E15.85181
G1 X76.485 Y103.202 E15.89019
G1 X76.22 Y102.507 E15.9273
G1 X75.953 Y101.685 E15.97041
G1 X75.754 Y100.942 E16.00879
G1 X75.633 Y100.183 E16.04713
G1 X75.591 Y99.415 E16.08551
G1 X75.629 Y98.646 E16.12392
G1 X75.747 Y97.886 E16.16229
G1 X75.953 Y97.113 E16.2022
G1 X76.22 Y96.291 E16.24532
G1 X76.495 Y95.573 E16.28368
G1 X76.844 Y94.887 E16.32208
G1 X77.261 Y94.241 E16.36044
G1 X77.744 Y93.642 E16.39883
G1 X78.286 Y93.096 E16.43721
G1 X78.905 Y92.593 E16.477
G1 X79.606 Y92.083 E16.52025
G1 X80.237 Y91.672 E16.55782
G1 X81.017 Y91.016 E16.60867
G1 X81.682 Y90.532 E16.6497
G1 X82.327 Y90.112 E16.6881
G1 X82.626 Y89.923 E16.70575
G1 X82.973 Y89.237 E16.7441
G1 X83.389 Y88.59 E16.78248
G1 X83.87 Y87.99 E16.82085
G1 X84.279 Y87.563 E16.85034
M205 X10 Y10
G0 F6000 X84.562 Y87.846
M205 X8 Y8
G1 F1200 X85.119 Y87.346 E16.88769
G1 X85.725 Y86.909 E16.92496
G1 X86.375 Y86.538 E16.9623
G1 X87.061 Y86.239 E16.99964
G1 X87.775 Y86.015 E17.03697
G1 X88.508 Y85.868 E17.07427
G1 X89.512 Y85.796 E17.12448
G1 X127.677 Y85.796 E19.02854
G1 X128.424 Y85.836 E19.06587
G1 X129.162 Y85.955 E19.10316
G1 X129.884 Y86.153 E19.14051
G1 X130.58 Y86.426 E19.17781
G1 X131.243 Y86.773 E19.21514
G1 X131.866 Y87.188 E19.25249
G1 X132.627 Y87.846 E19.30268
G1 X132.744 Y87.963 E19.31094
G1 X133.244 Y88.52 E19.34828
G1 X133.681 Y89.126 E19.38555
G1 X134.052 Y89.776 E19.42289
G1 X134.351 Y90.462 E19.46023
G1 X134.575 Y91.176 E19.49756
G1 X134.722 Y91.909 E19.53486
G1 X134.794 Y92.913 E19.58508
G1 X134.794 Y112.146 E20.54461
G1 X134.754 Y112.893 E20.58194
G1 X134.635 Y113.631 E20.61923
G1 X134.437 Y114.353 E20.65658
G1 X134.164 Y115.049 E20.69388
G1 X133.817 Y115.712 E20.73121
G1 X133.402 Y116.335 E20.76856
G1 X132.744 Y117.096 E20.81875
G1 X132.627 Y117.213 E20.82701
G1 X132.07 Y117.713 E20.86435
G1 X131.464 Y118.15 E20.90162
G1 X130.814 Y118.521 E20.93896
G1 X130.128 Y118.82 E20.9763
G1 X129.414 Y119.044 E21.01363
G1 X128.681 Y119.191 E21.05093
G1 X127.677 Y119.263 E21.10115
G1 X89.512 Y119.264 E23.00521
G1 X88.765 Y119.224 E23.04253
G1 X88.027 Y119.105 E23.07982
G1 X87.305 Y118.907 E23.11717
G1 X86.609 Y118.634 E23.15447
G1 X85.946 Y118.287 E23.19181
G1 X85.323 Y117.872 E23.22915
G1 X84.562 Y117.214 E23.27934
G1 X84.445 Y117.097 E23.2876
G1 X83.945 Y116.54 E23.32494
G1 X83.508 Y115.934 E23.36221
G1 X83.137 Y115.284 E23.39955
G1 X82.838 Y114.598 E23.43689
G1 X82.614 Y113.884 E23.47422
G1 X82.467 Y113.151 E23.51152
G1 X82.395 Y112.147 E23.56174
G1 X82.395 Y107.621 E23.78754
G1 X81.681 Y107.403 E23.82479
G1 X80.992 Y107.11 E23.86214
G1 X80.339 Y106.745 E23.89946
G1 X79.918 Y106.456 E23.92494
G1 X79.099 Y105.851 E23.97574
G1 X78.522 Y105.375 E24.01305
G1 X77.999 Y104.841 E24.05035
G1 X77.536 Y104.253 E24.08768
G1 X77.138 Y103.619 E24.12503
G1 X76.811 Y102.947 E24.16231
G1 X76.6 Y102.384 E24.19231
G1 X76.333 Y101.562 E24.23543
G1 X76.141 Y100.839 E24.27275
G1 X76.026 Y100.099 E24.31011
G1 X75.991 Y99.352 E24.34742
G1 X76.036 Y98.605 E24.38476
G1 X76.161 Y97.868 E24.42205
G1 X76.333 Y97.236 E24.45473
G1 X76.6 Y96.414 E24.49785
G1 X76.869 Y95.716 E24.53517
G1 X77.211 Y95.051 E24.57247
G1 X77.622 Y94.426 E24.60979
G1 X78.097 Y93.848 E24.64712
G1 X78.631 Y93.324 E24.68444
G1 X79.14 Y92.917 E24.71696
G1 X79.841 Y92.407 E24.76021
G1 X80.468 Y91.999 E24.79753
G1 X80.574 Y91.902 E24.8047
G1 X81.253 Y91.339 E24.8487
G1 X81.918 Y90.855 E24.88974
G1 X82.545 Y90.448 E24.92703
G1 X82.93 Y90.253 E24.94856
G1 X83.025 Y90.01 E24.96158
G1 X83.372 Y89.347 E24.99891
G1 X83.787 Y88.724 E25.03626
G1 X84.445 Y87.963 E25.08645
G1 X84.562 Y87.846 E25.0947
M205 X10 Y10
G0 F6000 X84.845 Y88.129
M205 X8 Y8
G1 F1200 X85.386 Y87.645 E25.13092
G1 X85.977 Y87.222 E25.16718
G1 X86.611 Y86.868 E25.20341
G1 X87.28 Y86.585 E25.23965
G1 X87.976 Y86.377 E25.27589
G1 X88.691 Y86.247 E25.31214
G1 X89.512 Y86.196 E25.35318
G1 X127.677 Y86.196 E27.25724
G1 X128.402 Y86.236 E27.29347
G1 X129.119 Y86.355 E27.32973
G1 X129.818 Y86.553 E27.36597
G1 X130.491 Y86.826 E27.40221
G1 X131.13 Y87.171 E27.43844
G1 X131.727 Y87.585 E27.47468
G1 X132.344 Y88.129 E27.51572
G1 X132.461 Y88.246 E27.52397
G1 X132.945 Y88.787 E27.56019
G1 X133.368 Y89.378 E27.59645
G1 X133.722 Y90.012 E27.63268
G1 X134.005 Y90.681 E27.66892
G1 X134.213 Y91.377 E27.70516
G1 X134.343 Y92.092 E27.74141
G1 X134.394 Y92.913 E27.78245
G1 X134.394 Y112.146 E28.74199
G1 X134.354 Y112.871 E28.77822
G1 X134.235 Y113.588 E28.81448
G1 X134.037 Y114.287 E28.85072
G1 X133.764 Y114.96 E28.88695
G1 X133.419 Y115.599 E28.92318
G1 X133.005 Y116.196 E28.95943
G1 X132.461 Y116.813 E29.00047
G1 X132.344 Y116.93 E29.00872
G1 X131.803 Y117.414 E29.04494
G1 X131.212 Y117.837 E29.0812
G1 X130.578 Y118.191 E29.11742
G1 X129.909 Y118.474 E29.15366
G1 X129.213 Y118.682 E29.18991
G1 X128.498 Y118.812 E29.22616
G1 X127.677 Y118.863 E29.2672
G1 X89.512 Y118.864 E31.17126
G1 X88.787 Y118.824 E31.20749
G1 X88.07 Y118.705 E31.24375
G1 X87.371 Y118.507 E31.27999
G1 X86.698 Y118.234 E31.31623
G1 X86.059 Y117.889 E31.35245
G1 X85.462 Y117.475 E31.3887
G1 X84.845 Y116.931 E31.42974
G1 X84.728 Y116.814 E31.43799
G1 X84.244 Y116.273 E31.47421
G1 X83.821 Y115.682 E31.51047
G1 X83.467 Y115.048 E31.54669
G1 X83.184 Y114.379 E31.58293
G1 X82.976 Y113.683 E31.61918
G1 X82.846 Y112.968 E31.65543
G1 X82.795 Y112.147 E31.69647
G1 X82.795 Y107.29 E31.93879
G1 X82.472 Y107.228 E31.9552
G1 X81.778 Y107.013 E31.99144
G1 X81.112 Y106.722 E32.0277
G1 X80.482 Y106.361 E32.06393
G1 X80.155 Y106.135 E32.08376
G1 X79.336 Y105.53 E32.13456
G1 X78.777 Y105.067 E32.17077
G1 X78.272 Y104.545 E32.20701
G1 X77.827 Y103.971 E32.24324
G1 X77.447 Y103.351 E32.27952
G1 X77.139 Y102.694 E32.31572
G1 X76.981 Y102.26 E32.33877
G1 X76.714 Y101.438 E32.38188
G1 X76.528 Y100.736 E32.41812
G1 X76.42 Y100.017 E32.45439
G1 X76.392 Y99.292 E32.49059
G1 X76.444 Y98.567 E32.52685
G1 X76.575 Y97.853 E32.56307
G1 X76.714 Y97.36 E32.58862
G1 X76.981 Y96.538 E32.63174
G1 X77.243 Y95.861 E32.66796
G1 X77.578 Y95.216 E32.70422
G1 X77.982 Y94.612 E32.74047
G1 X78.449 Y94.056 E32.7767
G1 X78.975 Y93.555 E32.81294
G1 X79.375 Y93.24 E32.83834
G1 X80.076 Y92.73 E32.88159
G1 X80.686 Y92.336 E32.91782
G1 X80.925 Y92.122 E32.93382
G1 X81.488 Y91.663 E32.97006
G1 X82.153 Y91.179 E33.0111
G1 X82.763 Y90.784 E33.04735
G1 X83.245 Y90.543 E33.07424
G1 X83.425 Y90.099 E33.09814
G1 X83.77 Y89.46 E33.13437
G1 X84.184 Y88.863 E33.17061
G1 X84.728 Y88.246 E33.21165
G1 X84.845 Y88.129 E33.21991
M205 X10 Y10
G0 F6000 X85.128 Y88.412
M205 X8 Y8
G1 F1200 X85.653 Y87.943 E33.25503
G1 X86.228 Y87.537 E33.29015
G1 X86.846 Y87.199 E33.32529
G1 X87.497 Y86.932 E33.36039
G1 X88.175 Y86.742 E33.39552
G1 X88.87 Y86.629 E33.43065
G1 X89.512 Y86.596 E33.46272
G1 X127.677 Y86.596 E35.36678
G1 X128.38 Y86.636 E35.40191
G1 X129.074 Y86.755 E35.43704
G1 X129.749 Y86.953 E35.47214
G1 X130.398 Y87.225 E35.50724
G1 X131.012 Y87.57 E35.54238
G1 X131.583 Y87.981 E35.57748
G1 X132.061 Y88.412 E35.60959
G1 X132.178 Y88.529 E35.61784
G1 X132.647 Y89.054 E35.65297
G1 X133.053 Y89.629 E35.68808
G1 X133.391 Y90.247 E35.72323
G1 X133.658 Y90.898 E35.75833
G1 X133.848 Y91.576 E35.79346
G1 X133.961 Y92.271 E35.82859
G1 X133.994 Y92.913 E35.86066
G1 X133.994 Y112.146 E36.8202
G1 X133.954 Y112.849 E36.85533
G1 X133.835 Y113.543 E36.89046
G1 X133.637 Y114.218 E36.92555
G1 X133.365 Y114.867 E36.96066
G1 X133.02 Y115.481 E36.9958
G1 X132.609 Y116.052 E37.0309
G1 X132.178 Y116.53 E37.06301
G1 X132.061 Y116.647 E37.07126
G1 X131.536 Y117.116 E37.10638
G1 X130.961 Y117.522 E37.1415
G1 X130.343 Y117.86 E37.17664
G1 X129.692 Y118.127 E37.21175
G1 X129.014 Y118.317 E37.24687
G1 X128.319 Y118.43 E37.282
G1 X127.677 Y118.463 E37.31408
G1 X89.512 Y118.464 E39.21813
G1 X88.809 Y118.424 E39.25326
G1 X88.116 Y118.305 E39.28834
G1 X87.44 Y118.107 E39.32349
G1 X86.791 Y117.835 E39.35859
G1 X86.177 Y117.49 E39.39373
G1 X85.606 Y117.079 E39.42883
G1 X85.128 Y116.648 E39.46094
G1 X85.011 Y116.531 E39.4692
G1 X84.542 Y116.006 E39.50432
G1 X84.136 Y115.431 E39.53943
G1 X83.798 Y114.813 E39.57458
G1 X83.531 Y114.162 E39.60968
G1 X83.341 Y113.484 E39.64481
G1 X83.228 Y112.789 E39.67994
G1 X83.195 Y112.147 E39.71201
G1 X83.195 Y106.96 E39.97079
G1 X82.548 Y106.834 E40.00368
G1 X81.877 Y106.622 E40.03878
G1 X81.234 Y106.336 E40.07389
G1 X80.393 Y105.813 E40.1233
G1 X79.574 Y105.208 E40.1741
G1 X79.033 Y104.758 E40.20921
G1 X78.545 Y104.25 E40.24435
G1 X78.119 Y103.69 E40.27946
G1 X77.759 Y103.085 E40.31458
G1 X77.361 Y102.136 E40.36592
G1 X77.094 Y101.314 E40.40904
G1 X76.915 Y100.634 E40.44412
G1 X76.814 Y99.937 E40.47926
G1 X76.793 Y99.233 E40.5144
G1 X76.852 Y98.532 E40.54949
G1 X76.99 Y97.841 E40.58465
G1 X77.094 Y97.484 E40.6032
G1 X77.361 Y96.662 E40.64632
G1 X77.616 Y96.006 E40.68143
G1 X77.944 Y95.383 E40.71656
G1 X78.341 Y94.801 E40.75171
G1 X78.8 Y94.268 E40.7868
G1 X79.318 Y93.79 E40.82196
G1 X79.61 Y93.563 E40.84042
G1 X80.311 Y93.053 E40.88366
G1 X80.903 Y92.672 E40.91879
G1 X81.275 Y92.345 E40.9435
