;FLAVOR:Marlin
;TIME:3526
;Filament used: 2.89861m
;Layer height: 0.2
;MINX:74.406
;MINY:84.996
;MINZ:0.3
;MAXX:134.578
;MAXY:120.064
;MAXZ:18.775
;Generated with Cura_SteamEngine 4.13.1
M82 ;absolute extrusion mode
G21                                        ; metric values 
G90                                        ; absolute positioning 
M82                                        ; set extruder to absolute mode 
M107                                       ; start with the fan off 
M140 S60.0           ; Start heating the bed 
G4 S60                                     ; wait 1 minute 
M104 S220.0         ; start heating the hot end 
M190 S60.0           ; wait for bed 
M109 S220.0         ; wait for hotend 
M300 S1000 P500                            ; BEEP heating done 
G28 X0 Y10 Z0                              ; move X/Y to min endstops 
M420 S1                                    ; Enable leveling 
M420 Z2.0                                  ; Set leveling fading height to 2 mm 
G0 Z0.15                                   ; lift nozzle a bit 
G92 E0                                     ; zero the extruded length 
G1 X50 E25 F500                            ; Extrude 25mm of filament in a 5cm line. 
G92 E0                                     ; zero the extruded length again 
G1 E-2 F500                                ; Retract a little 
G1 X120 F4000                              ; Quickly wipe away from the filament line`
G92 E0
G92 E0
G1 F2400 E-3
;LAYER_COUNT:93
;LAYER:0
M106 S76.5
M205 X10 Y10
G1 F600 Z0.375
G0 F6000 X77.394 Y86.751 Z0.375
M205 X8 Y8
;TYPE:SKIRT
G1 F600 Z0.3
G1 F2400 E0
G1 F1200 X78.03 Y86.284 E0.03937
G1 X78.71 Y85.883 E0.07875
G1 X79.428 Y85.553 E0.11817
G1 X80.175 Y85.298 E0.15755
G1 X80.944 Y85.119 E0.19694
G1 X81.728 Y85.019 E0.23638
G1 X82.323 Y84.996 E0.26608
G1 X120.488 Y84.996 E2.17014
G1 X121.277 Y85.036 E2.20956
G1 X122.057 Y85.155 E2.24892
G1 X122.822 Y85.353 E2.28834
G1 X123.562 Y85.627 E2.32771
G1 X124.271 Y85.975 E2.36712
G1 X124.942 Y86.393 E2.40656
G1 X125.566 Y86.876 E2.44592
G1 X126.003 Y87.281 E2.47565
G1 X126.12 Y87.398 E2.4839
G1 X126.65 Y87.984 E2.52332
G1 X127.117 Y88.62 E2.56269
G1 X127.518 Y89.3 E2.60207
G1 X127.687 Y89.667 E2.62223
G1 X128.126 Y89.941 E2.64805
G1 X128.678 Y90.362 E2.68268
G1 X129.426 Y90.988 E2.73135
G1 X130.005 Y91.525 E2.77074
G1 X130.399 Y91.9 E2.79788
G1 X131.1 Y92.41 E2.84113
G1 X131.714 Y92.906 E2.88051
G1 X132.275 Y93.462 E2.91992
G1 X132.777 Y94.072 E2.95933
G1 X133.214 Y94.729 E2.99869
G1 X133.583 Y95.427 E3.03809
G1 X133.929 Y96.307 E3.08526
G1 X134.196 Y97.129 E3.12838
G1 X134.402 Y97.892 E3.16781
G1 X134.53 Y98.671 E3.20719
G1 X134.578 Y99.459 E3.24658
G1 X134.546 Y100.248 E3.28598
G1 X134.434 Y101.03 E3.32539
G1 X134.196 Y101.949 E3.37275
G1 X133.929 Y102.771 E3.41587
G1 X133.648 Y103.508 E3.45522
G1 X133.293 Y104.214 E3.49464
G1 X132.869 Y104.88 E3.53403
G1 X132.379 Y105.5 E3.57346
G1 X131.83 Y106.067 E3.61283
G1 X131.093 Y106.673 E3.66044
G1 X130.188 Y107.33 E3.71623
G1 X129.527 Y107.761 E3.7556
G1 X128.825 Y108.123 E3.795
G1 X128.405 Y108.288 E3.81752
G1 X128.405 Y112.146 E4.00999
G1 X128.365 Y112.935 E4.04941
G1 X128.246 Y113.715 E4.08877
G1 X128.048 Y114.48 E4.1282
G1 X127.774 Y115.22 E4.16756
G1 X127.426 Y115.929 E4.20697
G1 X127.008 Y116.6 E4.24641
G1 X126.525 Y117.224 E4.28578
G1 X126.12 Y117.661 E4.3155
G1 X126.003 Y117.778 E4.32376
G1 X125.417 Y118.308 E4.36318
G1 X124.781 Y118.775 E4.40254
G1 X124.101 Y119.176 E4.44193
G1 X123.383 Y119.506 E4.48135
G1 X122.636 Y119.761 E4.52073
G1 X121.867 Y119.94 E4.56012
G1 X121.083 Y120.04 E4.59955
G1 X120.488 Y120.063 E4.62926
G1 X82.323 Y120.064 E6.53332
G1 X81.535 Y120.024 E6.57268
G1 X80.754 Y119.905 E6.6121
G1 X79.989 Y119.707 E6.65152
G1 X79.249 Y119.433 E6.69089
G1 X78.54 Y119.085 E6.73029
G1 X77.869 Y118.668 E6.76971
G1 X77.245 Y118.184 E6.8091
G1 X76.808 Y117.779 E6.83883
G1 X76.691 Y117.662 E6.84708
G1 X76.161 Y117.076 E6.8865
G1 X75.694 Y116.44 E6.92587
G1 X75.293 Y115.76 E6.96525
G1 X74.963 Y115.042 E7.00468
G1 X74.708 Y114.295 E7.04406
G1 X74.529 Y113.526 E7.08345
G1 X74.429 Y112.742 E7.12288
G1 X74.406 Y112.147 E7.15259
G1 X74.406 Y92.913 E8.11217
G1 X74.446 Y92.124 E8.15159
G1 X74.565 Y91.344 E8.19095
G1 X74.763 Y90.579 E8.23038
G1 X75.037 Y89.839 E8.26974
G1 X75.385 Y89.13 E8.30915
G1 X75.803 Y88.459 E8.34859
G1 X76.286 Y87.835 E8.38796
G1 X76.691 Y87.398 E8.41768
G1 X76.808 Y87.281 E8.42594
G1 X77.394 Y86.751 E8.46536
M205 X10 Y10
G0 F6000 X77.662 Y87.049
M205 X8 Y8
G1 F1200 X78.284 Y86.596 E8.50375
G1 X78.949 Y86.21 E8.54211
G1 X79.651 Y85.895 E8.58049
G1 X80.382 Y85.655 E8.61888
G1 X81.133 Y85.492 E8.65722
G1 X81.898 Y85.408 E8.69561
G1 X82.323 Y85.396 E8.71683
G1 X120.488 Y85.396 E10.62089
G1 X121.256 Y85.436 E10.65925
G1 X122.016 Y85.555 E10.69763
G1 X122.759 Y85.753 E10.73599
G1 X123.478 Y86.027 E10.77438
G1 X124.164 Y86.374 E10.81273
G1 X124.811 Y86.79 E10.85111
G1 X125.411 Y87.271 E10.88948
G1 X125.838 Y87.68 E10.91897
G1 X126.352 Y88.252 E10.95734
G1 X126.805 Y88.874 E10.99573
G1 X127.191 Y89.539 E11.03409
G1 X127.369 Y89.935 E11.05575
G1 X127.995 Y90.338 E11.0929
G1 X128.421 Y90.669 E11.11981
G1 X129.169 Y91.295 E11.16847
G1 X129.733 Y91.819 E11.20688
G1 X130.163 Y92.223 E11.23632
G1 X130.864 Y92.733 E11.27957
G1 X131.462 Y93.217 E11.31795
G1 X132.006 Y93.761 E11.35633
G1 X132.491 Y94.358 E11.3947
G1 X132.911 Y95.002 E11.43306
G1 X133.262 Y95.687 E11.47146
G1 X133.549 Y96.431 E11.51125
G1 X133.816 Y97.253 E11.55437
G1 X134.015 Y97.996 E11.59274
G1 X134.136 Y98.755 E11.63109
G1 X134.178 Y99.523 E11.66946
G1 X134.14 Y100.292 E11.70787
G1 X134.022 Y101.052 E11.74624
G1 X133.816 Y101.825 E11.78615
G1 X133.549 Y102.647 E11.82927
G1 X133.274 Y103.365 E11.86763
G1 X132.925 Y104.051 E11.90603
G1 X132.508 Y104.697 E11.94439
G1 X132.025 Y105.296 E11.98278
G1 X131.483 Y105.842 E12.02116
G1 X130.858 Y106.349 E12.06131
G1 X129.953 Y107.006 E12.11711
G1 X129.308 Y107.425 E12.15548
G1 X128.623 Y107.775 E12.19386
G1 X128.005 Y108.014 E12.22691
G1 X128.005 Y112.146 E12.43306
G1 X127.965 Y112.914 E12.47143
G1 X127.846 Y113.674 E12.50981
G1 X127.648 Y114.417 E12.54817
G1 X127.374 Y115.136 E12.58656
G1 X127.027 Y115.822 E12.62491
G1 X126.611 Y116.469 E12.66329
G1 X126.13 Y117.069 E12.70165
G1 X125.721 Y117.496 E12.73115
G1 X125.149 Y118.01 E12.76952
G1 X124.527 Y118.463 E12.80791
G1 X123.862 Y118.849 E12.84627
G1 X123.16 Y119.164 E12.88465
G1 X122.429 Y119.404 E12.92304
G1 X121.678 Y119.567 E12.96138
G1 X120.913 Y119.651 E12.99977
G1 X120.488 Y119.663 E13.02099
G1 X82.323 Y119.664 E14.92505
G1 X81.555 Y119.624 E14.96341
G1 X80.795 Y119.505 E15.00179
G1 X80.052 Y119.307 E15.04015
G1 X79.333 Y119.033 E15.07854
G1 X78.647 Y118.686 E15.11689
G1 X78 Y118.27 E15.15527
G1 X77.4 Y117.789 E15.19364
G1 X76.973 Y117.38 E15.22313
G1 X76.459 Y116.808 E15.2615
G1 X76.006 Y116.186 E15.29989
G1 X75.62 Y115.521 E15.33825
G1 X75.305 Y114.819 E15.37664
G1 X75.065 Y114.088 E15.41502
G1 X74.902 Y113.337 E15.45336
G1 X74.818 Y112.572 E15.49176
G1 X74.806 Y112.147 E15.51297
G1 X74.806 Y92.913 E16.47256
G1 X74.846 Y92.145 E16.51093
G1 X74.965 Y91.385 E16.54931
G1 X75.163 Y90.642 E16.58767
G1 X75.437 Y89.923 E16.62605
G1 X75.784 Y89.237 E16.66441
G1 X76.2 Y88.59 E16.70278
G1 X76.681 Y87.99 E16.74115
G1 X77.09 Y87.563 E16.77065
G1 X77.662 Y87.049 E16.80901
M205 X10 Y10
G0 F6000 X77.93 Y87.346
M205 X8 Y8
G1 F1200 X78.536 Y86.909 E16.84629
G1 X79.186 Y86.538 E16.88363
G1 X79.872 Y86.239 E16.92096
G1 X80.586 Y86.015 E16.9583
G1 X81.319 Y85.868 E16.99559
G1 X82.323 Y85.796 E17.04581
G1 X120.488 Y85.796 E18.94987
G1 X121.235 Y85.836 E18.98719
G1 X121.973 Y85.955 E19.02449
G1 X122.695 Y86.153 E19.06184
G1 X123.391 Y86.426 E19.09914
G1 X124.054 Y86.773 E19.13647
G1 X124.677 Y87.188 E19.17382
G1 X125.438 Y87.846 E19.22401
G1 X125.555 Y87.963 E19.23226
G1 X126.055 Y88.52 E19.26961
G1 X126.492 Y89.126 E19.30688
G1 X126.863 Y89.776 E19.34422
G1 X127.06 Y90.228 E19.36882
G1 X127.238 Y90.321 E19.37884
G1 X127.861 Y90.736 E19.41618
G1 X128.165 Y90.976 E19.43551
G1 X128.913 Y91.602 E19.48417
G1 X129.46 Y92.112 E19.52148
G1 X129.928 Y92.547 E19.55336
G1 X130.629 Y93.057 E19.59661
G1 X131.21 Y93.528 E19.63392
G1 X131.737 Y94.059 E19.67125
G1 X132.204 Y94.644 E19.70859
G1 X132.606 Y95.274 E19.74588
G1 X132.939 Y95.944 E19.7832
G1 X133.169 Y96.554 E19.81573
G1 X133.436 Y97.376 E19.85885
G1 X133.628 Y98.099 E19.89617
G1 X133.743 Y98.839 E19.93353
G1 X133.778 Y99.586 E19.97084
G1 X133.733 Y100.333 E20.00817
G1 X133.608 Y101.07 E20.04547
G1 X133.436 Y101.702 E20.07815
G1 X133.169 Y102.524 E20.12126
G1 X132.9 Y103.222 E20.15858
G1 X132.558 Y103.887 E20.19589
G1 X132.147 Y104.512 E20.23321
G1 X131.672 Y105.09 E20.27054
G1 X131.138 Y105.614 E20.30786
G1 X130.623 Y106.026 E20.34076
G1 X129.718 Y106.683 E20.39656
G1 X129.09 Y107.089 E20.43387
G1 X128.423 Y107.426 E20.47115
G1 X127.723 Y107.69 E20.50847
G1 X127.605 Y107.721 E20.51456
G1 X127.605 Y112.146 E20.73533
G1 X127.565 Y112.893 E20.77265
G1 X127.446 Y113.631 E20.80994
G1 X127.248 Y114.353 E20.84729
G1 X126.975 Y115.049 E20.88459
G1 X126.628 Y115.712 E20.92192
G1 X126.213 Y116.335 E20.95927
G1 X125.555 Y117.096 E21.00946
G1 X125.438 Y117.213 E21.01772
G1 X124.881 Y117.713 E21.05506
G1 X124.275 Y118.15 E21.09233
G1 X123.625 Y118.521 E21.12967
G1 X122.939 Y118.82 E21.16701
G1 X122.225 Y119.044 E21.20434
G1 X121.492 Y119.191 E21.24164
G1 X120.488 Y119.263 E21.29186
G1 X82.323 Y119.264 E23.19592
G1 X81.576 Y119.224 E23.23324
G1 X80.838 Y119.105 E23.27053
G1 X80.116 Y118.907 E23.30788
G1 X79.42 Y118.634 E23.34518
G1 X78.757 Y118.287 E23.38252
G1 X78.134 Y117.872 E23.41986
G1 X77.373 Y117.214 E23.47005
G1 X77.256 Y117.097 E23.47831
G1 X76.756 Y116.54 E23.51565
G1 X76.319 Y115.934 E23.55293
G1 X75.948 Y115.284 E23.59026
G1 X75.649 Y114.598 E23.6276
G1 X75.425 Y113.884 E23.66493
G1 X75.278 Y113.151 E23.70223
G1 X75.206 Y112.147 E23.75245
G1 X75.206 Y92.913 E24.71204
G1 X75.246 Y92.166 E24.74936
G1 X75.365 Y91.428 E24.78665
G1 X75.563 Y90.706 E24.824
G1 X75.836 Y90.01 E24.8613
G1 X76.183 Y89.347 E24.89864
G1 X76.598 Y88.724 E24.93598
G1 X77.256 Y87.963 E24.98617
G1 X77.373 Y87.846 E24.99443
G1 X77.93 Y87.346 E25.03177
M205 X10 Y10
G0 F6000 X78.197 Y87.645
M205 X8 Y8
G1 F1200 X78.788 Y87.222 E25.06803
G1 X79.422 Y86.868 E25.10426
G1 X80.091 Y86.585 E25.1405
G1 X80.787 Y86.377 E25.17674
G1 X81.502 Y86.247 E25.21299
G1 X82.323 Y86.196 E25.25403
G1 X120.488 Y86.196 E27.15809
G1 X121.213 Y86.236 E27.19432
G1 X121.93 Y86.355 E27.23058
G1 X122.629 Y86.553 E27.26682
G1 X123.302 Y86.826 E27.30306
G1 X123.941 Y87.171 E27.33929
G1 X124.538 Y87.585 E27.37553
G1 X125.155 Y88.129 E27.41657
G1 X125.272 Y88.246 E27.42483
G1 X125.756 Y88.787 E27.46104
G1 X126.179 Y89.378 E27.4973
G1 X126.533 Y90.012 E27.53353
G1 X126.745 Y90.514 E27.56071
G1 X127.125 Y90.719 E27.58225
G1 X127.908 Y91.283 E27.6304
G1 X128.656 Y91.909 E27.67906
G1 X129.186 Y92.405 E27.71527
G1 X129.693 Y92.87 E27.7496
G1 X130.394 Y93.38 E27.79285
G1 X130.957 Y93.839 E27.82909
G1 X131.466 Y94.357 E27.86532
G1 X131.915 Y94.928 E27.90156
G1 X132.299 Y95.545 E27.93781
G1 X132.612 Y96.2 E27.97403
G1 X132.788 Y96.678 E27.99944
G1 X133.055 Y97.5 E28.04256
G1 X133.241 Y98.202 E28.07879
G1 X133.349 Y98.921 E28.11507
G1 X133.377 Y99.646 E28.15127
G1 X133.325 Y100.371 E28.18753
G1 X133.194 Y101.085 E28.22375
G1 X133.055 Y101.578 E28.2493
G1 X132.788 Y102.4 E28.29242
G1 X132.526 Y103.077 E28.32864
G1 X132.191 Y103.722 E28.3649
G1 X131.787 Y104.326 E28.40115
G1 X131.32 Y104.882 E28.43737
G1 X130.794 Y105.383 E28.47362
G1 X130.388 Y105.702 E28.49938
G1 X129.483 Y106.359 E28.55517
G1 X128.873 Y106.753 E28.5914
G1 X128.223 Y107.077 E28.62763
G1 X127.541 Y107.328 E28.66389
G1 X127.205 Y107.411 E28.68116
G1 X127.205 Y112.146 E28.91739
G1 X127.165 Y112.871 E28.95361
G1 X127.046 Y113.588 E28.98987
G1 X126.848 Y114.287 E29.02612
G1 X126.575 Y114.96 E29.06235
G1 X126.23 Y115.599 E29.09858
G1 X125.816 Y116.196 E29.13483
G1 X125.272 Y116.813 E29.17586
G1 X125.155 Y116.93 E29.18412
G1 X124.614 Y117.414 E29.22033
G1 X124.023 Y117.837 E29.25659
G1 X123.389 Y118.191 E29.29282
G1 X122.72 Y118.474 E29.32906
G1 X122.024 Y118.682 E29.3653
G1 X121.309 Y118.812 E29.40156
G1 X120.488 Y118.863 E29.4426
G1 X82.323 Y118.864 E31.34666
G1 X81.598 Y118.824 E31.38288
G1 X80.881 Y118.705 E31.41914
G1 X80.182 Y118.507 E31.45539
G1 X79.509 Y118.234 E31.49162
G1 X78.87 Y117.889 E31.52785
G1 X78.273 Y117.475 E31.5641
G1 X77.656 Y116.931 E31.60513
G1 X77.539 Y116.814 E31.61339
G1 X77.055 Y116.273 E31.64961
G1 X76.632 Y115.682 E31.68586
G1 X76.278 Y115.048 E31.72209
G1 X75.995 Y114.379 E31.75833
G1 X75.787 Y113.683 E31.79457
G1 X75.657 Y112.968 E31.83083
G1 X75.606 Y112.147 E31.87187
G1 X75.606 Y92.913 E32.83146
G1 X75.646 Y92.188 E32.86768
G1 X75.765 Y91.471 E32.90394
G1 X75.963 Y90.772 E32.94019
G1 X76.236 Y90.099 E32.97642
G1 X76.581 Y89.46 E33.01265
G1 X76.995 Y88.863 E33.0489
G1 X77.539 Y88.246 E33.08993
G1 X77.656 Y88.129 E33.09819
G1 X78.197 Y87.645 E33.1344
M205 X10 Y10
G0 F6000 X78.464 Y87.943
M205 X8 Y8
G1 F1200 X79.039 Y87.537 E33.16952
G1 X79.657 Y87.199 E33.20466
G1 X80.308 Y86.932 E33.23977
G1 X80.986 Y86.742 E33.2749
G1 X81.681 Y86.629 E33.31003
G1 X82.323 Y86.596 E33.3421
G1 X120.488 Y86.596 E35.24616
G1 X121.191 Y86.636 E35.28129
G1 X121.885 Y86.755 E35.31642
G1 X122.56 Y86.953 E35.35151
G1 X123.209 Y87.225 E35.38662
G1 X123.823 Y87.57 E35.42175
G1 X124.394 Y87.981 E35.45685
G1 X124.872 Y88.412 E35.48896
G1 X124.989 Y88.529 E35.49722
G1 X125.458 Y89.054 E35.53234
G1 X125.864 Y89.629 E35.56746
G1 X126.202 Y90.247 E35.6026
G1 X126.425 Y90.791 E35.63193
G1 X127.007 Y91.118 E35.66524
G1 X127.651 Y91.589 E35.70504
G1 X128.399 Y92.215 E35.75371
G1 X128.912 Y92.697 E35.78882
G1 X129.174 Y93.006 E35.80904
G1 X129.458 Y93.193 E35.826
G1 X130.159 Y93.703 E35.86925
G1 X130.703 Y94.149 E35.90434
G1 X131.194 Y94.654 E35.93948
G1 X131.625 Y95.211 E35.97462
G1 X131.989 Y95.813 E36.00972
G1 X132.283 Y96.453 E36.04486
G1 X132.408 Y96.802 E36.06335
G1 X132.675 Y97.624 E36.10647
G1 X132.854 Y98.304 E36.14155
G1 X132.955 Y99.001 E36.17669
G1 X132.976 Y99.705 E36.21183
G1 X132.917 Y100.406 E36.24692
G1 X132.779 Y101.097 E36.28208
G1 X132.675 Y101.454 E36.30063
G1 X132.408 Y102.276 E36.34375
G1 X132.153 Y102.932 E36.37886
G1 X131.825 Y103.555 E36.41399
G1 X131.428 Y104.137 E36.44914
G1 X130.969 Y104.67 E36.48423
G1 X130.451 Y105.148 E36.51939
G1 X130.153 Y105.378 E36.53817
G1 X129.248 Y106.035 E36.59397
G1 X128.656 Y106.416 E36.62909
G1 X128.025 Y106.727 E36.66419
G1 X127.362 Y106.964 E36.69931
G1 X126.805 Y107.095 E36.72786
G1 X126.805 Y112.146 E36.97986
G1 X126.765 Y112.849 E37.01499
G1 X126.646 Y113.543 E37.05012
G1 X126.448 Y114.218 E37.08521
G1 X126.176 Y114.867 E37.12032
G1 X125.831 Y115.481 E37.15546
G1 X125.42 Y116.052 E37.19055
G1 X124.989 Y116.53 E37.22266
G1 X124.872 Y116.647 E37.23092
G1 X124.347 Y117.116 E37.26604
G1 X123.772 Y117.522 E37.30116
G1 X123.154 Y117.86 E37.3363
G1 X122.503 Y118.127 E37.3714
G1 X121.825 Y118.317 E37.40653
G1 X121.13 Y118.43 E37.44166
G1 X120.488 Y118.463 E37.47373
G1 X82.323 Y118.464 E39.37779
G1 X81.62 Y118.424 E39.41292
G1 X80.927 Y118.305 E39.448
G1 X80.251 Y118.107 E39.48315
G1 X79.602 Y117.835 E39.51825
G1 X78.988 Y117.49 E39.55339
G1 X78.417 Y117.079 E39.58849
G1 X77.939 Y116.648 E39.6206
G1 X77.822 Y116.531 E39.62886
G1 X77.353 Y116.006 E39.66398
G1 X76.947 Y115.431 E39.69909
G1 X76.609 Y114.813 E39.73424
G1 X76.342 Y114.162 E39.76934
G1 X76.152 Y113.484 E39.80447
G1 X76.039 Y112.789 E39.8396
