;FLAVOR:Marlin
;TIME:14860
;Filament used: 11.5582m
;Layer height: 0.2
;MINX:40.355
;MINY:58.752
;MINZ:0.3
;MAXX:170.366
;MAXY:150.531
;MAXZ:32.375
;Generated with Cura_SteamEngine 4.13.1
M82 ;absolute extrusion mode
G21                                        ; metric values 
G90                                        ; absolute positioning 
M82                                        ; set extruder to absolute mode 
M107                                       ; start with the fan off 
M140 S60.0           ; Start heating the bed 
G4 S60                                     ; wait 1 minute 
M104 S220.0         ; start heating the hot end 
M190 S60.0           ; wait for bed 
M109 S220.0         ; wait for hotend 
M300 S1000 P500                            ; BEEP heating done 
G28 X0 Y10 Z0                              ; move X/Y to min endstops 
M420 S1                                    ; Enable leveling 
M420 Z2.0                                  ; Set leveling fading height to 2 mm 
G0 Z0.15                                   ; lift nozzle a bit 
G92 E0                                     ; zero the extruded length 
G1 X50 E25 F500                            ; Extrude 25mm of filament in a 5cm line. 
G92 E0                                     ; zero the extruded length again 
G1 E-2 F500                                ; Retract a little 
G1 X120 F4000                              ; Quickly wipe away from the filament line`
G92 E0
G92 E0
G1 F2400 E-3
;LAYER_COUNT:161
;LAYER:0
M106 S76.5
M205 X10 Y10
G1 F600 Z0.375
G0 F6000 X50.402 Y62.381 Z0.375
M205 X8 Y8
;TYPE:SKIRT
G1 F600 Z0.3
G1 F2400 E0
G1 F1200 X50.507 Y62.306 E0.00644
G1 X51.172 Y61.88 E0.04584
G1 X51.877 Y61.524 E0.08524
G1 X52.212 Y61.395 E0.10315
G1 X52.492 Y61.121 E0.1227
G1 X52.962 Y60.726 E0.15333
G1 X53.591 Y60.249 E0.19271
G1 X54.266 Y59.838 E0.23214
G1 X54.978 Y59.498 E0.2715
G1 X55.685 Y59.242 E0.30901
G1 X56.156 Y59.097 E0.3336
G1 X56.922 Y58.903 E0.37302
G1 X57.703 Y58.788 E0.41241
G1 X58.492 Y58.752 E0.45181
G1 X59.28 Y58.796 E0.49119
G1 X60.06 Y58.92 E0.53059
G1 X60.823 Y59.122 E0.56997
G1 X61.563 Y59.4 E0.60941
G1 X62.192 Y59.708 E0.64435
G1 X62.492 Y59.872 E0.6614
G1 X63.165 Y60.285 E0.7008
G1 X63.793 Y60.765 E0.74023
G1 X64.369 Y61.305 E0.77962
G1 X64.887 Y61.901 E0.81902
G1 X65.343 Y62.546 E0.85843
G1 X65.73 Y63.234 E0.89781
G1 X65.939 Y63.71 E0.92375
G1 X66.079 Y63.873 E0.93447
G1 X66.432 Y64.367 E0.96476
G1 X66.597 Y64.618 E0.97974
G1 X66.997 Y65.299 E1.01915
G1 X67.326 Y66.017 E1.05855
G1 X67.58 Y66.765 E1.09796
G1 X67.767 Y67.585 E1.13992
G1 X67.773 Y67.62 E1.14169
G1 X67.867 Y68.404 E1.18108
G1 X67.885 Y68.939 E1.20779
G1 X67.885 Y69.641 E1.24281
G1 X102.702 Y69.641 E2.97984
G1 X102.702 Y68.937 E3.01496
G1 X102.77 Y67.906 E3.06651
G1 X102.774 Y67.876 E3.06802
G1 X102.973 Y66.884 E3.1185
G1 X103.038 Y66.642 E3.131
G1 X103.281 Y65.89 E3.17043
G1 X103.599 Y65.168 E3.20979
G1 X103.988 Y64.48 E3.24922
G1 X104.445 Y63.836 E3.28862
G1 X104.965 Y63.242 E3.328
G1 X105.542 Y62.703 E3.3674
G1 X105.962 Y62.371 E3.3941
G1 X106.615 Y61.926 E3.43353
G1 X107.309 Y61.549 E3.47293
G1 X108.037 Y61.244 E3.51231
G1 X108.793 Y61.015 E3.55172
G1 X109.568 Y60.863 E3.59112
G1 X110.677 Y60.783 E3.64659
G1 X115.589 Y60.782 E3.89165
G1 X116.378 Y60.822 E3.93107
G1 X117.159 Y60.941 E3.97048
G1 X117.923 Y61.139 E4.00986
G1 X118.664 Y61.413 E4.04927
G1 X119.373 Y61.76 E4.08865
G1 X120.28 Y62.349 E4.14261
G1 X120.389 Y62.431 E4.14941
G1 X120.995 Y62.937 E4.1888
G1 X121.547 Y63.502 E4.22821
G1 X122.039 Y64.119 E4.26758
G1 X122.466 Y64.784 E4.30701
G1 X122.824 Y65.488 E4.34641
G1 X123.109 Y66.224 E4.38579
G1 X123.295 Y66.871 E4.41937
G1 X123.482 Y67.765 E4.46494
G1 X123.486 Y67.792 E4.4663
G1 X123.57 Y68.935 E4.52348
G1 X123.57 Y69.641 E4.5587
G1 X131.494 Y69.641 E4.95403
G1 X132.283 Y69.681 E4.99345
G1 X133.063 Y69.8 E5.03281
G1 X133.828 Y69.998 E5.07223
G1 X134.568 Y70.272 E5.1116
G1 X135.277 Y70.62 E5.15101
G1 X135.948 Y71.038 E5.19045
G1 X136.572 Y71.521 E5.22981
G1 X137.009 Y71.926 E5.25954
G1 X137.126 Y72.043 E5.26779
G1 X137.656 Y72.629 E5.30721
G1 X138.123 Y73.265 E5.34658
G1 X138.524 Y73.945 E5.38596
G1 X138.854 Y74.663 E5.42539
G1 X139.109 Y75.41 E5.46477
G1 X139.288 Y76.179 E5.50416
G1 X139.388 Y76.963 E5.54359
G1 X139.411 Y77.556 E5.5732
G1 X139.412 Y80.477 E5.71893
G1 X153.389 Y80.477 E6.41624
G1 X154.178 Y80.517 E6.45565
G1 X154.958 Y80.636 E6.49502
G1 X155.723 Y80.834 E6.53444
G1 X156.463 Y81.108 E6.57381
G1 X157.172 Y81.456 E6.61321
G1 X157.843 Y81.874 E6.65265
G1 X158.268 Y82.192 E6.67914
G1 X158.379 Y82.281 E6.68623
G1 X158.97 Y82.805 E6.72564
G1 X159.504 Y83.387 E6.76505
G1 X159.977 Y84.019 E6.80443
G1 X160.383 Y84.696 E6.84381
G1 X160.719 Y85.411 E6.88323
G1 X160.98 Y86.156 E6.92261
G1 X161.117 Y86.688 E6.95002
G1 X164.104 Y100.248 E7.64275
G1 X164.254 Y101.207 E7.69117
G1 X164.289 Y101.947 E7.72813
G1 X164.289 Y106.918 E7.97614
G1 X164.706 Y107.123 E7.99932
G1 X165.512 Y107.637 E8.04701
G1 X166.701 Y108.502 E8.12037
G1 X167.315 Y108.998 E8.15975
G1 X167.876 Y109.554 E8.19915
G1 X168.378 Y110.163 E8.23853
G1 X168.815 Y110.821 E8.27794
G1 X169.184 Y111.519 E8.31733
G1 X169.529 Y112.395 E8.3643
G1 X169.983 Y113.79 E8.43749
G1 X170.189 Y114.552 E8.47687
G1 X170.317 Y115.332 E8.5163
G1 X170.366 Y116.12 E8.55569
G1 X170.334 Y116.909 E8.59509
G1 X170.223 Y117.691 E8.63449
G1 X169.983 Y118.618 E8.68227
G1 X169.529 Y120.013 E8.75546
G1 X169.247 Y120.75 E8.79483
G1 X168.892 Y121.456 E8.83425
G1 X168.467 Y122.121 E8.87362
G1 X167.977 Y122.741 E8.91305
G1 X167.427 Y123.308 E8.95246
G1 X166.701 Y123.906 E8.99939
G1 X165.512 Y124.771 E9.07274
G1 X164.85 Y125.203 E9.11218
G1 X164.289 Y125.494 E9.14371
G1 X164.289 Y133.118 E9.52407
G1 X165.838 Y137.839 E9.77196
G1 X166.093 Y138.834 E9.8232
G1 X166.099 Y138.866 E9.82483
G1 X166.205 Y139.648 E9.8642
G1 X166.232 Y140.16 E9.88978
G1 X166.248 Y141.031 E9.93324
G1 X166.189 Y142.141 E9.9887
G1 X166.185 Y142.173 E9.9903
G1 X165.952 Y143.322 E10.04879
G1 X165.762 Y143.996 E10.08373
G1 X165.51 Y144.745 E10.12316
G1 X165.261 Y145.308 E10.15387
G1 X164.679 Y146.313 E10.21181
G1 X164.331 Y146.822 E10.24257
G1 X163.853 Y147.451 E10.28199
G1 X163.238 Y148.1 E10.32659
G1 X163.204 Y148.132 E10.32892
G1 X162.602 Y148.643 E10.36832
G1 X161.93 Y149.105 E10.409
G1 X161.497 Y149.37 E10.43433
G1 X160.803 Y149.748 E10.47376
G1 X160.075 Y150.053 E10.51314
G1 X159.49 Y150.239 E10.54376
G1 X159.439 Y150.253 E10.5464
G1 X158.668 Y150.423 E10.58579
G1 X157.883 Y150.514 E10.62521
G1 X157.374 Y150.531 E10.65062
G1 X156.906 Y150.531 E10.67397
G1 X156.117 Y150.491 E10.71339
G1 X155.337 Y150.372 E10.75275
G1 X154.841 Y150.253 E10.7782
G1 X154.79 Y150.239 E10.78084
G1 X154.04 Y149.991 E10.82025
G1 X153.319 Y149.67 E10.85962
G1 X152.786 Y149.371 E10.89011
G1 X152.351 Y149.105 E10.91555
G1 X151.699 Y148.66 E10.95493
G1 X151.002 Y148.062 E11.00075
G1 X150.973 Y148.034 E11.00276
G1 X150.434 Y147.458 E11.04212
G1 X149.946 Y146.816 E11.08235
G1 X149.597 Y146.304 E11.11326
G1 X149.174 Y145.609 E11.15385
G1 X149.16 Y145.583 E11.15533
G1 X148.822 Y144.87 E11.19469
G1 X148.603 Y144.274 E11.22637
G1 X148.419 Y143.702 E11.25635
G1 X148.358 Y143.503 E11.26673
G1 X146.33 Y136.569 E11.62716
G1 X146.094 Y135.482 E11.68266
G1 X146.09 Y135.454 E11.68407
G1 X146.016 Y134.609 E11.72639
G1 X145.194 Y109.739 E12.96784
G1 X123.57 Y109.739 E14.04666
G1 X123.569 Y138.491 E15.4811
G1 X123.524 Y139.327 E15.52287
G1 X123.417 Y140.033 E15.5585
G1 X123.184 Y141.203 E15.61802
G1 X122.991 Y141.969 E15.65743
G1 X122.79 Y142.543 E15.68777
G1 X122.467 Y143.264 E15.72718
G1 X122.006 Y144.049 E15.7726
G1 X121.346 Y145.037 E15.83188
G1 X120.875 Y145.67 E15.87124
G1 X120.375 Y146.219 E15.90829
G1 X120.351 Y146.243 E15.90998
G1 X119.765 Y146.773 E15.9494
G1 X119.167 Y147.215 E15.9865
G1 X118.18 Y147.874 E16.04571
G1 X117.502 Y148.279 E16.08511
G1 X116.819 Y148.599 E16.12274
G1 X116.785 Y148.613 E16.12457
G1 X116.04 Y148.877 E16.16401
G1 X115.333 Y149.052 E16.20034
G1 X114.174 Y149.282 E16.25929
G1 X113.393 Y149.396 E16.29867
G1 X112.604 Y149.431 E16.33807
G1 X112.121 Y149.413 E16.36219
G1 X111.337 Y149.324 E16.40155
G1 X110.3 Y149.079 E16.45471
G1 X108.189 Y148.425 E16.56497
G1 X107.888 Y148.325 E16.58079
G1 X83.95 Y139.829 E17.84805
G1 X54.025 Y139.829 E19.34102
G1 X53.236 Y139.789 E19.38043
G1 X52.679 Y139.712 E19.40849
G1 X51.863 Y139.569 E19.44982
G1 X50.949 Y139.351 E19.49669
G1 X49.902 Y139.034 E19.55127
G1 X49.187 Y138.779 E19.58914
G1 X48.458 Y138.436 E19.62934
G1 X47.498 Y137.922 E19.68367
G1 X46.745 Y137.463 E19.72766
G1 X46.216 Y137.065 E19.76069
G1 X45.369 Y136.37 E19.81535
G1 X44.787 Y135.84 E19.85462
G1 X44.269 Y135.269 E19.89309
G1 X43.575 Y134.422 E19.94772
G1 X43.106 Y133.787 E19.9871
G1 X42.723 Y133.148 E20.02427
G1 X42.209 Y132.19 E20.07851
G1 X41.96 Y131.683 E20.10669
G1 X41.603 Y130.725 E20.15769
G1 X41.285 Y129.666 E20.21286
G1 X41.072 Y128.772 E20.25871
G1 X40.498 Y125.502 E20.42434
G1 X40.401 Y124.718 E20.46376
G1 X40.381 Y124.161 E20.49156
G1 X40.355 Y97.542 E21.81959
G1 X40.38 Y96.905 E21.8514
G1 X41.997 Y76.919 E22.85176
G1 X42.101 Y76.136 E22.89117
G1 X42.283 Y75.368 E22.93054
G1 X42.542 Y74.622 E22.96994
G1 X42.875 Y73.906 E23.00934
G1 X43.278 Y73.227 E23.04873
G1 X43.749 Y72.592 E23.08817
G1 X44.483 Y71.815 E23.1415
G1 X44.599 Y71.708 E23.14937
G1 X45.206 Y71.202 E23.1888
G1 X45.861 Y70.761 E23.22819
G1 X46.557 Y70.388 E23.26759
G1 X47.071 Y70.176 E23.29533
G1 X47.071 Y68.938 E23.35709
G1 X47.111 Y68.149 E23.3965
G1 X47.23 Y67.369 E23.43587
G1 X47.42 Y66.632 E23.47384
G1 X47.485 Y66.422 E23.48481
G1 X47.756 Y65.68 E23.52422
G1 X48.101 Y64.97 E23.5636
G1 X48.516 Y64.298 E23.603
G1 X48.997 Y63.671 E23.64243
G1 X49.539 Y63.097 E23.68182
G1 X50.402 Y62.381 E23.73776
M205 X10 Y10
G0 F6000 X50.635 Y62.706
M205 X8 Y8
G1 F1200 X50.74 Y62.631 E23.7442
G1 X51.388 Y62.217 E23.78256
G1 X52.076 Y61.873 E23.82094
G1 X52.425 Y61.742 E23.83954
G1 X52.749 Y61.427 E23.86208
G1 X53.219 Y61.032 E23.89271
G1 X53.833 Y60.568 E23.93111
G1 X54.491 Y60.171 E23.96945
G1 X55.188 Y59.844 E24.00786
G1 X55.803 Y59.625 E24.04043
G1 X56.274 Y59.48 E24.06501
G1 X57.02 Y59.292 E24.10339
G1 X57.781 Y59.182 E24.14176
G1 X58.55 Y59.153 E24.18015
G1 X59.317 Y59.203 E24.2185
G1 X60.075 Y59.332 E24.25686
G1 X60.816 Y59.54 E24.29525
G1 X61.531 Y59.823 E24.33362
G1 X62.001 Y60.059 E24.35986
G1 X62.301 Y60.223 E24.37691
G1 X62.955 Y60.626 E24.41524
G1 X63.565 Y61.096 E24.45366
G1 X64.122 Y61.626 E24.49202
G1 X64.621 Y62.211 E24.53038
G1 X65.057 Y62.844 E24.56872
G1 X65.425 Y63.52 E24.60712
G1 X65.593 Y63.923 E24.62891
G1 X66.098 Y64.587 E24.67053
G1 X66.263 Y64.838 E24.68551
G1 X66.651 Y65.502 E24.72388
G1 X66.969 Y66.202 E24.76224
G1 X67.212 Y66.932 E24.80062
G1 X67.373 Y67.653 E24.83748
G1 X67.379 Y67.688 E24.83925
G1 X67.469 Y68.451 E24.87758
G1 X67.485 Y68.939 E24.90194
G1 X67.485 Y70.041 E24.95692
G1 X103.102 Y70.041 E26.73386
G1 X103.102 Y68.937 E26.78894
G1 X103.167 Y67.959 E26.83784
G1 X103.171 Y67.929 E26.83935
G1 X103.359 Y66.987 E26.88727
G1 X103.424 Y66.745 E26.89977
G1 X103.662 Y66.014 E26.93813
G1 X103.975 Y65.311 E26.97652
G1 X104.358 Y64.645 E27.01485
G1 X104.809 Y64.021 E27.05326
G1 X105.322 Y63.448 E27.09163
G1 X106.096 Y62.771 E27.14293
G1 X106.204 Y62.689 E27.1497
G1 X106.84 Y62.257 E27.18805
G1 X107.517 Y61.892 E27.22643
G1 X108.229 Y61.6 E27.26482
G1 X108.967 Y61.384 E27.30318
G1 X109.724 Y61.245 E27.34158
G1 X110.677 Y61.183 E27.38923
G1 X115.589 Y61.182 E27.63429
G1 X116.358 Y61.222 E27.6727
G1 X117.117 Y61.341 E27.71103
G1 X117.861 Y61.539 E27.74944
G1 X118.58 Y61.812 E27.78781
G1 X119.266 Y62.159 E27.82617
G1 X120.04 Y62.669 E27.87241
G1 X120.149 Y62.751 E27.87922
G1 X120.738 Y63.244 E27.91754
G1 X121.274 Y63.796 E27.95592
G1 X121.749 Y64.401 E27.9943
G1 X122.159 Y65.052 E28.03268
G1 X122.499 Y65.742 E28.07106
G1 X122.843 Y66.732 E28.12335
G1 X122.909 Y66.976 E28.13596
G1 X123.086 Y67.824 E28.17918
G1 X123.09 Y67.851 E28.18054
G1 X123.17 Y68.935 E28.23477
G1 X123.17 Y70.041 E28.28994
G1 X131.494 Y70.041 E28.70523
G1 X132.262 Y70.081 E28.7436
G1 X133.022 Y70.2 E28.78198
G1 X133.765 Y70.398 E28.82034
G1 X134.484 Y70.672 E28.85873
G1 X135.17 Y71.019 E28.89708
G1 X135.817 Y71.435 E28.93546
G1 X136.417 Y71.916 E28.97382
G1 X136.844 Y72.325 E29.00332
G1 X137.358 Y72.897 E29.04169
G1 X137.811 Y73.519 E29.08008
G1 X138.197 Y74.184 E29.11844
G1 X138.512 Y74.886 E29.15682
G1 X138.752 Y75.617 E29.19521
G1 X138.915 Y76.368 E29.23355
G1 X138.999 Y77.133 E29.27194
G1 X139.011 Y77.556 E29.29306
G1 X139.012 Y80.877 E29.45874
G1 X153.389 Y80.877 E30.17601
G1 X154.157 Y80.917 E30.21438
G1 X154.917 Y81.036 E30.25276
G1 X155.66 Y81.234 E30.29112
G1 X156.379 Y81.508 E30.32951
G1 X157.065 Y81.855 E30.36786
G1 X158.018 Y82.504 E30.42539
G1 X158.129 Y82.593 E30.43248
G1 X158.703 Y83.104 E30.47082
G1 X159.221 Y83.673 E30.50921
G1 X159.678 Y84.292 E30.5476
G1 X160.067 Y84.955 E30.58595
G1 X160.386 Y85.655 E30.62433
G1 X160.63 Y86.385 E30.66273
G1 X160.727 Y86.774 E30.68273
G1 X163.714 Y100.334 E31.37546
G1 X163.856 Y101.245 E31.42146
G1 X163.889 Y101.947 E31.45652
G1 X163.889 Y107.166 E31.7169
G1 X163.913 Y107.175 E31.71818
G1 X164.599 Y107.522 E31.75653
G1 X165.276 Y107.96 E31.79676
G1 X166.465 Y108.825 E31.87012
G1 X167.063 Y109.309 E31.9085
G1 X167.607 Y109.853 E31.94688
G1 X168.092 Y110.45 E31.98525
G1 X168.512 Y111.094 E32.02361
G1 X168.863 Y111.779 E32.06201
G1 X169.149 Y112.519 E32.10159
G1 X169.603 Y113.914 E32.17478
G1 X169.802 Y114.657 E32.21316
G1 X169.924 Y115.416 E32.25151
G1 X169.966 Y116.184 E32.28988
G1 X169.928 Y116.952 E32.32825
G1 X169.811 Y117.713 E32.36666
G1 X169.603 Y118.494 E32.40698
G1 X169.149 Y119.889 E32.48017
G1 X168.873 Y120.607 E32.51855
G1 X168.524 Y121.293 E32.55695
G1 X168.106 Y121.938 E32.59529
G1 X167.623 Y122.537 E32.63368
G1 X167.081 Y123.082 E32.67203
G1 X166.465 Y123.583 E32.71164
G1 X165.276 Y124.448 E32.785
G1 X164.632 Y124.868 E32.82336
G1 X163.947 Y125.218 E32.86173
G1 X163.889 Y125.24 E32.86483
G1 X163.889 Y133.182 E33.26106
G1 X165.458 Y137.964 E33.51214
G1 X165.7 Y138.907 E33.56072
G1 X165.706 Y138.939 E33.56234
G1 X165.809 Y139.702 E33.60075
G1 X165.832 Y140.167 E33.62398
G1 X165.848 Y141.038 E33.66744
G1 X165.792 Y142.092 E33.7201
G1 X165.788 Y142.124 E33.72171
G1 X165.567 Y143.214 E33.77719
G1 X165.377 Y143.888 E33.81213
G1 X165.131 Y144.616 E33.85047
G1 X164.901 Y145.134 E33.87875
G1 X164.349 Y146.088 E33.93373
G1 X164.001 Y146.597 E33.9645
G1 X163.534 Y147.208 E34.00286
G1 X162.964 Y147.809 E34.04419
G1 X162.93 Y147.841 E34.04652
G1 X162.343 Y148.338 E34.08489
G1 X161.721 Y148.764 E34.1225
G1 X161.288 Y149.029 E34.14783
G1 X160.612 Y149.396 E34.1862
G1 X159.901 Y149.69 E34.22459
G1 X159.384 Y149.853 E34.25163
G1 X159.333 Y149.867 E34.25427
G1 X158.582 Y150.032 E34.29263
G1 X157.817 Y150.118 E34.33104
G1 X156.906 Y150.131 E34.37649
G1 X156.138 Y150.091 E34.41486
G1 X155.378 Y149.972 E34.45324
G1 X154.896 Y149.853 E34.47801
G1 X154.166 Y149.611 E34.51638
G1 X153.465 Y149.295 E34.55474
G1 X152.995 Y149.03 E34.58166
G1 X152.56 Y148.764 E34.6071
G1 X151.925 Y148.329 E34.6455
G1 X151.28 Y147.775 E34.68792
G1 X151.251 Y147.747 E34.68993
G1 X150.726 Y147.184 E34.72833
G1 X150.276 Y146.591 E34.76547
G1 X149.927 Y146.079 E34.79639
G1 X149.527 Y145.419 E34.83489
G1 X149.513 Y145.393 E34.83636
G1 X149.184 Y144.698 E34.87473
G1 X148.984 Y144.151 E34.90378
G1 X148.8 Y143.579 E34.93376
G1 X148.742 Y143.39 E34.94362
G1 X146.714 Y136.456 E35.30405
G1 X146.49 Y135.426 E35.35664
G1 X146.486 Y135.398 E35.35805
G1 X146.416 Y134.595 E35.39827
