;FLAVOR:Marlin
;TIME:14931
;Filament used: 11.6034m
;Layer height: 0.2
;MINX:39.634
;MINY:58.721
;MINZ:0.3
;MAXX:169.645
;MAXY:150.531
;MAXZ:32.375
;Generated with Cura_SteamEngine 4.13.1
M82 ;absolute extrusion mode
G21                                        ; metric values 
G90                                        ; absolute positioning 
M82                                        ; set extruder to absolute mode 
M107                                       ; start with the fan off 
M140 S60.0           ; Start heating the bed 
G4 S60                                     ; wait 1 minute 
M104 S220.0         ; start heating the hot end 
M190 S60.0           ; wait for bed 
M109 S220.0         ; wait for hotend 
M300 S1000 P500                            ; BEEP heating done 
G28 X0 Y10 Z0                              ; move X/Y to min endstops 
M420 S1                                    ; Enable leveling 
M420 Z2.0                                  ; Set leveling fading height to 2 mm 
G0 Z0.15                                   ; lift nozzle a bit 
G92 E0                                     ; zero the extruded length 
G1 X50 E25 F500                            ; Extrude 25mm of filament in a 5cm line. 
G92 E0                                     ; zero the extruded length again 
G1 E-2 F500                                ; Retract a little 
G1 X120 F4000                              ; Quickly wipe away from the filament line`
G92 E0
G92 E0
G1 F2400 E-3
;LAYER_COUNT:161
;LAYER:0
M106 S76.5
M205 X10 Y10
G1 F600 Z0.375
G0 F6000 X52.372 Y81.729 Z0.375
M205 X8 Y8
;TYPE:SKIRT
G1 F600 Z0.3
G1 F2400 E0
G1 F1200 X53.056 Y81.334 E0.03941
G1 X53.776 Y81.01 E0.0788
G1 X54.525 Y80.761 E0.11818
G1 X55.296 Y80.589 E0.15759
G1 X56.08 Y80.495 E0.19698
G1 X56.611 Y80.477 E0.22349
G1 X70.588 Y80.477 E0.9208
G1 X70.589 Y77.556 E1.06653
G1 X70.629 Y76.767 E1.10595
G1 X70.749 Y75.987 E1.14532
G1 X70.947 Y75.222 E1.18474
G1 X71.221 Y74.482 E1.22411
G1 X71.569 Y73.773 E1.26351
G1 X71.987 Y73.103 E1.30291
G1 X72.47 Y72.478 E1.34232
G1 X72.874 Y72.043 E1.37194
G1 X72.991 Y71.926 E1.38019
G1 X73.577 Y71.396 E1.41961
G1 X74.213 Y70.929 E1.45898
G1 X74.893 Y70.528 E1.49836
G1 X75.611 Y70.198 E1.53779
G1 X76.358 Y69.943 E1.57716
G1 X77.127 Y69.764 E1.61656
G1 X77.911 Y69.664 E1.65599
G1 X78.506 Y69.641 E1.68569
G1 X86.43 Y69.641 E2.08102
G1 X86.43 Y68.937 E2.11615
G1 X86.498 Y67.906 E2.16769
G1 X86.502 Y67.876 E2.1692
G1 X86.701 Y66.884 E2.21968
G1 X86.766 Y66.642 E2.23218
G1 X87.009 Y65.89 E2.27161
G1 X87.327 Y65.168 E2.31097
G1 X87.716 Y64.48 E2.3504
G1 X88.173 Y63.836 E2.3898
G1 X88.693 Y63.242 E2.42918
G1 X89.27 Y62.703 E2.46858
G1 X89.69 Y62.371 E2.49529
G1 X90.343 Y61.926 E2.53471
G1 X91.037 Y61.549 E2.57411
G1 X91.765 Y61.244 E2.61349
G1 X92.521 Y61.015 E2.6529
G1 X93.296 Y60.863 E2.6923
G1 X94.407 Y60.783 E2.74787
G1 X99.321 Y60.783 E2.99304
G1 X100.11 Y60.823 E3.03245
G1 X100.89 Y60.942 E3.07181
G1 X101.655 Y61.14 E3.11124
G1 X102.395 Y61.414 E3.15061
G1 X103.104 Y61.762 E3.19001
G1 X104.038 Y62.371 E3.24564
G1 X104.146 Y62.453 E3.2524
G1 X104.75 Y62.961 E3.29178
G1 X105.299 Y63.529 E3.33119
G1 X105.788 Y64.149 E3.37058
G1 X106.212 Y64.815 E3.40997
G1 X106.567 Y65.52 E3.44935
G1 X106.848 Y66.258 E3.48875
G1 X107.027 Y66.884 E3.52123
G1 X107.21 Y67.764 E3.56608
G1 X107.214 Y67.791 E3.56744
G1 X107.298 Y68.934 E3.62462
G1 X107.298 Y69.641 E3.65989
G1 X142.115 Y69.641 E5.39691
G1 X142.115 Y68.938 E5.43199
G1 X142.155 Y68.149 E5.4714
G1 X142.274 Y67.369 E5.51077
G1 X142.464 Y66.632 E5.54874
G1 X142.529 Y66.422 E5.5597
G1 X142.8 Y65.68 E5.59911
G1 X143.145 Y64.97 E5.6385
G1 X143.56 Y64.298 E5.6779
G1 X144.041 Y63.671 E5.71733
G1 X144.583 Y63.097 E5.75671
G1 X145.446 Y62.381 E5.81266
G1 X145.551 Y62.306 E5.8191
G1 X146.216 Y61.88 E5.8585
G1 X146.921 Y61.524 E5.8979
G1 X147.658 Y61.24 E5.9373
G1 X148.196 Y61.094 E5.96511
G1 X148.67 Y60.695 E5.99603
G1 X149.299 Y60.218 E6.03541
G1 X149.974 Y59.807 E6.07484
G1 X150.686 Y59.467 E6.1142
G1 X151.393 Y59.211 E6.15171
G1 X151.864 Y59.066 E6.1763
G1 X152.63 Y58.872 E6.21572
G1 X153.411 Y58.757 E6.25511
G1 X154.2 Y58.721 E6.29451
G1 X154.988 Y58.765 E6.33389
G1 X155.768 Y58.889 E6.37329
G1 X156.531 Y59.091 E6.41267
G1 X157.271 Y59.369 E6.45211
G1 X157.9 Y59.677 E6.48705
G1 X158.2 Y59.841 E6.5041
G1 X158.873 Y60.254 E6.5435
G1 X159.501 Y60.734 E6.58293
G1 X160.077 Y61.274 E6.62232
G1 X160.595 Y61.87 E6.66172
G1 X161.051 Y62.515 E6.70113
G1 X161.438 Y63.203 E6.74051
G1 X161.755 Y63.926 E6.7799
G1 X161.996 Y64.678 E6.81929
G1 X162.161 Y65.45 E6.85868
G1 X162.36 Y65.99 E6.88739
G1 X162.617 Y66.736 E6.92675
G1 X162.836 Y67.734 E6.97773
G1 X162.841 Y67.767 E6.97939
G1 X162.929 Y68.935 E7.03783
G1 X162.929 Y70.177 E7.0998
G1 X163.185 Y70.272 E7.11342
G1 X163.894 Y70.62 E7.15282
G1 X164.565 Y71.038 E7.19226
G1 X165.4 Y71.708 E7.24567
G1 X165.516 Y71.815 E7.25355
G1 X166.068 Y72.379 E7.29292
G1 X166.561 Y72.996 E7.33232
G1 X166.989 Y73.66 E7.37173
G1 X167.347 Y74.363 E7.41109
G1 X167.633 Y75.099 E7.45049
G1 X167.842 Y75.861 E7.48991
G1 X168.002 Y76.919 E7.54329
G1 X169.62 Y96.912 E8.54401
G1 X169.645 Y97.549 E8.57581
G1 X169.619 Y124.159 E9.90339
G1 X169.578 Y124.947 E9.94276
G1 X169.502 Y125.497 E9.97046
G1 X168.929 Y128.768 E10.13613
G1 X168.705 Y129.704 E10.18415
G1 X168.374 Y130.786 E10.2406
G1 X168.105 Y131.528 E10.27997
G1 X167.789 Y132.19 E10.31657
G1 X167.271 Y133.156 E10.37126
G1 X166.875 Y133.815 E10.40961
G1 X166.416 Y134.434 E10.44806
G1 X165.728 Y135.273 E10.50219
G1 X165.197 Y135.857 E10.54157
G1 X164.649 Y136.354 E10.57848
G1 X163.791 Y137.059 E10.63388
G1 X163.242 Y137.471 E10.66813
G1 X162.487 Y137.929 E10.71218
G1 X161.493 Y138.458 E10.76836
G1 X160.778 Y138.793 E10.80775
G1 X160.083 Y139.039 E10.84453
G1 X159.036 Y139.355 E10.8991
G1 X158.123 Y139.572 E10.94592
G1 X157.315 Y139.713 E10.98684
G1 X156.531 Y139.809 E11.02624
G1 X155.974 Y139.829 E11.05405
G1 X126.05 Y139.83 E12.54696
G1 X102.11 Y148.326 E13.81432
G1 X101.811 Y148.425 E13.83003
G1 X99.702 Y149.079 E13.94019
G1 X98.937 Y149.274 E13.97958
G1 X97.879 Y149.414 E14.03282
G1 X97.831 Y149.417 E14.03522
G1 X97.041 Y149.426 E14.07464
G1 X96.254 Y149.356 E14.11406
G1 X95.826 Y149.283 E14.13572
G1 X94.667 Y149.053 E14.19467
G1 X93.901 Y148.86 E14.23408
G1 X93.215 Y148.614 E14.27044
G1 X93.181 Y148.6 E14.27227
G1 X92.467 Y148.263 E14.31166
G1 X91.82 Y147.875 E14.3493
G1 X90.833 Y147.216 E14.40851
G1 X90.199 Y146.745 E14.44791
G1 X89.649 Y146.244 E14.48503
G1 X89.625 Y146.22 E14.48672
G1 X89.095 Y145.634 E14.52614
G1 X88.654 Y145.038 E14.56313
G1 X87.994 Y144.05 E14.62241
G1 X87.589 Y143.372 E14.66181
G1 X87.21 Y142.544 E14.70724
G1 X87.196 Y142.508 E14.70917
G1 X86.948 Y141.759 E14.74853
G1 X86.814 Y141.195 E14.77745
G1 X86.579 Y140.007 E14.83787
G1 X86.465 Y139.225 E14.8773
G1 X86.431 Y138.493 E14.91386
G1 X86.43 Y109.739 E16.3484
G1 X68.096 Y109.739 E17.26309
G1 X68.191 Y109.816 E17.26919
G1 X68.751 Y110.372 E17.30856
G1 X69.253 Y110.982 E17.34797
G1 X69.69 Y111.64 E17.38738
G1 X70.059 Y112.338 E17.42677
G1 X70.401 Y113.207 E17.47336
G1 X70.919 Y114.796 E17.55674
G1 X71.125 Y115.559 E17.59617
G1 X71.254 Y116.338 E17.63556
G1 X71.303 Y117.126 E17.67495
G1 X71.271 Y117.915 E17.71435
G1 X71.161 Y118.697 E17.75375
G1 X70.919 Y119.632 E17.80193
G1 X70.401 Y121.221 E17.88531
G1 X70.118 Y121.958 E17.9247
G1 X69.763 Y122.663 E17.96408
G1 X69.338 Y123.329 E18.0035
G1 X68.848 Y123.948 E18.04288
G1 X68.297 Y124.514 E18.08229
G1 X67.577 Y125.108 E18.12886
G1 X66.223 Y126.094 E18.21242
G1 X65.562 Y126.526 E18.25182
G1 X64.86 Y126.889 E18.29125
G1 X64.231 Y127.138 E18.325
G1 X63.984 Y134.609 E18.69793
G1 X63.904 Y135.494 E18.74226
G1 X63.9 Y135.521 E18.74363
G1 X63.671 Y136.566 E18.797
G1 X61.633 Y143.538 E19.15939
G1 X61.561 Y143.771 E19.17156
G1 X61.386 Y144.307 E19.19969
G1 X61.103 Y145.044 E19.23907
G1 X60.825 Y145.61 E19.27053
G1 X60.408 Y146.297 E19.31063
G1 X60.062 Y146.806 E19.34133
G1 X59.585 Y147.436 E19.38076
G1 X59.029 Y148.032 E19.42142
G1 X59 Y148.06 E19.42343
G1 X58.405 Y148.579 E19.46282
G1 X57.638 Y149.112 E19.50942
G1 X57.201 Y149.378 E19.53494
G1 X56.506 Y149.754 E19.57437
G1 X55.777 Y150.057 E19.61375
G1 X55.307 Y150.21 E19.63841
G1 X54.539 Y150.395 E19.67782
G1 X53.757 Y150.503 E19.71721
G1 X53.091 Y150.531 E19.75046
G1 X52.629 Y150.531 E19.77351
G1 X51.84 Y150.491 E19.81293
G1 X51.06 Y150.372 E19.85229
G1 X50.375 Y150.198 E19.88755
G1 X50.322 Y150.182 E19.89031
G1 X49.578 Y149.916 E19.92973
G1 X48.532 Y149.385 E19.98826
G1 X48.095 Y149.12 E20.01376
G1 X47.441 Y148.676 E20.05319
G1 X46.718 Y148.058 E20.10065
G1 X46.688 Y148.029 E20.10273
G1 X46.149 Y147.452 E20.14212
G1 X45.662 Y146.811 E20.18228
G1 X45.312 Y146.297 E20.21331
G1 X44.782 Y145.395 E20.2655
G1 X44.767 Y145.365 E20.26717
G1 X44.451 Y144.642 E20.30654
G1 X44.235 Y143.986 E20.341
G1 X44.046 Y143.313 E20.37587
G1 X43.839 Y142.347 E20.42516
G1 X43.835 Y142.32 E20.42652
G1 X43.751 Y141.156 E20.48474
G1 X43.753 Y140.4 E20.52246
G1 X43.825 Y139.36 E20.57447
G1 X43.846 Y139.207 E20.58218
G1 X43.993 Y138.431 E20.62158
G1 X44.163 Y137.836 E20.65245
G1 X45.711 Y133.118 E20.90018
G1 X45.711 Y126.236 E21.24352
G1 X45.294 Y126.031 E21.26671
G1 X44.488 Y125.517 E21.3144
G1 X43.299 Y124.652 E21.38775
G1 X42.685 Y124.156 E21.42713
G1 X42.124 Y123.6 E21.46654
G1 X41.622 Y122.991 E21.50591
G1 X41.185 Y122.333 E21.54532
G1 X40.816 Y121.635 E21.58471
G1 X40.471 Y120.759 E21.63168
G1 X40.017 Y119.364 E21.70487
G1 X39.811 Y118.602 E21.74425
G1 X39.683 Y117.822 E21.78369
G1 X39.634 Y117.034 E21.82308
G1 X39.666 Y116.245 E21.86247
G1 X39.777 Y115.463 E21.90188
G1 X40.017 Y114.536 E21.94965
G1 X40.471 Y113.141 E22.02284
G1 X40.753 Y112.404 E22.06221
G1 X41.108 Y111.698 E22.10164
G1 X41.533 Y111.033 E22.14101
G1 X42.023 Y110.413 E22.18044
G1 X42.573 Y109.846 E22.21984
G1 X43.299 Y109.248 E22.26677
G1 X44.488 Y108.383 E22.34013
G1 X45.15 Y107.951 E22.37956
G1 X45.711 Y107.66 E22.41109
G1 X45.711 Y101.949 E22.69602
G1 X45.748 Y101.188 E22.73403
G1 X45.896 Y100.25 E22.7814
G1 X48.883 Y86.688 E23.47423
G1 X49.091 Y85.927 E23.51359
G1 X49.376 Y85.19 E23.55301
G1 X49.733 Y84.486 E23.59239
G1 X50.16 Y83.822 E23.63178
G1 X50.652 Y83.204 E23.67119
G1 X51.204 Y82.639 E23.7106
G1 X51.621 Y82.281 E23.73802
G1 X51.732 Y82.192 E23.74511
G1 X52.372 Y81.729 E23.78452
M205 X10 Y10
G0 F6000 X52.606 Y82.054
M205 X8 Y8
G1 F1200 X53.274 Y81.672 E23.82291
G1 X53.977 Y81.362 E23.86125
G1 X54.709 Y81.126 E23.89962
G1 X55.462 Y80.967 E23.93801
G1 X56.611 Y80.877 E23.99551
G1 X70.988 Y80.877 E24.71278
G1 X70.989 Y77.556 E24.87847
G1 X71.029 Y76.788 E24.91684
G1 X71.149 Y76.028 E24.95522
G1 X71.347 Y75.285 E24.99358
G1 X71.621 Y74.566 E25.03197
G1 X71.968 Y73.88 E25.07033
G1 X72.384 Y73.233 E25.1087
G1 X72.866 Y72.633 E25.1471
G1 X73.273 Y72.208 E25.17646
G1 X73.845 Y71.694 E25.21482
G1 X74.467 Y71.241 E25.25321
G1 X75.132 Y70.855 E25.29157
G1 X75.834 Y70.54 E25.32996
G1 X76.565 Y70.3 E25.36835
G1 X77.316 Y70.137 E25.40669
G1 X78.081 Y70.053 E25.44508
G1 X78.506 Y70.041 E25.46629
G1 X86.83 Y70.041 E25.88158
G1 X86.83 Y68.937 E25.93666
G1 X86.895 Y67.959 E25.98556
G1 X86.899 Y67.929 E25.98707
G1 X87.087 Y66.987 E26.03499
G1 X87.152 Y66.745 E26.04749
G1 X87.39 Y66.014 E26.08585
G1 X87.703 Y65.311 E26.12424
G1 X88.086 Y64.645 E26.16257
G1 X88.537 Y64.021 E26.20098
G1 X89.05 Y63.448 E26.23935
G1 X89.824 Y62.771 E26.29065
G1 X89.932 Y62.689 E26.29742
G1 X90.568 Y62.257 E26.33577
G1 X91.245 Y61.892 E26.37415
G1 X91.957 Y61.6 E26.41254
G1 X92.695 Y61.384 E26.4509
G1 X93.452 Y61.245 E26.4893
G1 X94.407 Y61.183 E26.53705
G1 X99.321 Y61.183 E26.78221
G1 X100.089 Y61.223 E26.82057
G1 X100.849 Y61.342 E26.85895
G1 X101.592 Y61.54 E26.89731
G1 X102.311 Y61.814 E26.9357
G1 X102.997 Y62.161 E26.97406
G1 X103.796 Y62.689 E27.02184
G1 X103.904 Y62.771 E27.0286
G1 X104.491 Y63.268 E27.06697
G1 X105.024 Y63.822 E27.10533
G1 X105.497 Y64.429 E27.14372
G1 X105.904 Y65.082 E27.18211
G1 X106.241 Y65.773 E27.22046
G1 X106.576 Y66.745 E27.27176
G1 X106.641 Y66.987 E27.28426
G1 X106.814 Y67.823 E27.32685
G1 X106.818 Y67.85 E27.32821
G1 X106.898 Y68.934 E27.38244
G1 X106.898 Y70.041 E27.43767
G1 X142.515 Y70.041 E29.21461
G1 X142.515 Y68.938 E29.26964
G1 X142.555 Y68.17 E29.308
G1 X142.674 Y67.41 E29.34638
G1 X142.846 Y66.75 E29.38041
G1 X142.911 Y66.54 E29.39138
G1 X143.176 Y65.818 E29.42975
G1 X143.515 Y65.127 E29.46815
G1 X143.924 Y64.476 E29.5065
G1 X144.398 Y63.87 E29.54489
G1 X144.932 Y63.317 E29.58324
G1 X145.679 Y62.706 E29.63139
G1 X145.784 Y62.631 E29.63782
G1 X146.432 Y62.217 E29.67619
G1 X147.12 Y61.873 E29.71456
G1 X147.84 Y61.602 E29.75294
G1 X148.395 Y61.457 E29.78156
G1 X148.457 Y61.396 E29.7859
G1 X148.927 Y61.001 E29.81653
G1 X149.541 Y60.537 E29.85493
G1 X150.199 Y60.14 E29.89327
G1 X150.896 Y59.813 E29.93168
G1 X151.511 Y59.594 E29.96425
G1 X151.982 Y59.449 E29.98883
G1 X152.728 Y59.261 E30.02722
G1 X153.489 Y59.151 E30.06558
G1 X154.258 Y59.122 E30.10397
G1 X155.025 Y59.172 E30.14232
G1 X155.783 Y59.301 E30.18068
G1 X156.524 Y59.509 E30.21907
G1 X157.239 Y59.792 E30.25744
G1 X157.709 Y60.028 E30.28368
G1 X158.009 Y60.192 E30.30073
G1 X158.663 Y60.595 E30.33906
G1 X159.273 Y61.065 E30.37748
G1 X159.83 Y61.595 E30.41584
G1 X160.329 Y62.18 E30.4542
G1 X160.765 Y62.813 E30.49255
G1 X161.133 Y63.489 E30.53094
G1 X161.429 Y64.199 E30.56932
G1 X161.649 Y64.936 E30.60769
G1 X161.792 Y65.692 E30.64608
G1 X161.794 Y65.717 E30.64733
G1 X162.004 Y66.176 E30.67251
G1 X162.249 Y66.905 E30.71088
G1 X162.44 Y67.793 E30.7562
G1 X162.445 Y67.826 E30.75786
G1 X162.529 Y68.935 E30.81335
G1 X162.529 Y70.454 E30.88913
G1 X163.101 Y70.672 E30.91967
G1 X163.787 Y71.019 E30.95803
G1 X164.434 Y71.435 E30.9964
G1 X165.128 Y72.002 E31.04111
G1 X165.244 Y72.109 E31.04899
G1 X165.782 Y72.659 E31.08737
G1 X166.259 Y73.262 E31.12573
G1 X166.672 Y73.911 E31.16411
G1 X167.014 Y74.6 E31.20248
G1 X167.284 Y75.32 E31.24085
G1 X167.477 Y76.065 E31.27924
G1 X167.603 Y76.951 E31.32389
G1 X169.221 Y96.944 E32.32461
G1 X169.245 Y97.548 E32.35476
G1 X169.219 Y124.158 E33.68234
G1 X169.178 Y124.926 E33.72071
G1 X169.108 Y125.428 E33.746
G1 X168.535 Y128.699 E33.91168
G1 X168.322 Y129.587 E33.95723
G1 X167.991 Y130.669 E34.01369
G1 X167.728 Y131.392 E34.05207
G1 X167.437 Y132.001 E34.08574
G1 X166.919 Y132.967 E34.14043
G1 X166.542 Y133.593 E34.17688
G1 X166.107 Y134.18 E34.21334
G1 X165.419 Y135.019 E34.26747
G1 X164.901 Y135.588 E34.30586
G1 X164.395 Y136.044 E34.33984
G1 X163.537 Y136.749 E34.39524
G1 X163.015 Y137.141 E34.42781
G1 X162.3 Y137.576 E34.46956
G1 X161.306 Y138.105 E34.52574
G1 X160.609 Y138.43 E34.56411
G1 X159.967 Y138.656 E34.59806
G1 X158.92 Y138.972 E34.65263
G1 X158.054 Y139.178 E34.69704
G1 X157.246 Y139.319 E34.73796
G1 X156.483 Y139.412 E34.77631
G1 X155.974 Y139.429 E34.80171
G1 X125.981 Y139.43 E36.29807
G1 X101.976 Y147.949 E37.56887
G1 X101.693 Y148.043 E37.58374
G1 X99.584 Y148.697 E37.6939
G1 X98.838 Y148.886 E37.7323
G1 X97.854 Y149.015 E37.78181
G1 X97.806 Y149.018 E37.78421
G1 X97.036 Y149.026 E37.82263
G1 X95.904 Y148.89 E37.87951
G1 X94.745 Y148.66 E37.93846
G1 X93.999 Y148.472 E37.97684
G1 X93.367 Y148.245 E38.01034
G1 X93.333 Y148.231 E38.01218
G1 X92.638 Y147.901 E38.05056
G1 X92.042 Y147.542 E38.08527
G1 X91.055 Y146.883 E38.14448
G1 X90.438 Y146.424 E38.18285
G1 X89.931 Y145.962 E38.21707
G1 X89.907 Y145.938 E38.21876
G1 X89.393 Y145.366 E38.25713
G1 X88.987 Y144.816 E38.29124
G1 X88.327 Y143.828 E38.35051
G1 X87.933 Y143.167 E38.3889
G1 X87.583 Y142.399 E38.43101
G1 X87.569 Y142.363 E38.43294
