;FLAVOR:Marlin
;TIME:430
;Filament used: 0.339376m
;Layer height: 0.2
;MINX:88.279
;MINY:79.386
;MINZ:0.3
;MAXX:121.721
;MAXY:131.292
;MAXZ:5.975
;Generated with Cura_SteamEngine 4.13.1
M82 ;absolute extrusion mode
G21                                        ; metric values 
G90                                        ; absolute positioning 
M82                                        ; set extruder to absolute mode 
M107                                       ; start with the fan off 
M140 S60.0           ; Start heating the bed 
G4 S60                                     ; wait 1 minute 
M104 S220.0         ; start heating the hot end 
M190 S60.0           ; wait for bed 
M109 S220.0         ; wait for hotend 
M300 S1000 P500                            ; BEEP heating done 
G28 X0 Y10 Z0                              ; move X/Y to min endstops 
M420 S1                                    ; Enable leveling 
M420 Z2.0                                  ; Set leveling fading height to 2 mm 
G0 Z0.15                                   ; lift nozzle a bit 
G92 E0                                     ; zero the extruded length 
G1 X50 E25 F500                            ; Extrude 25mm of filament in a 5cm line. 
G92 E0                                     ; zero the extruded length again 
G1 E-2 F500                                ; Retract a little 
G1 X120 F4000                              ; Quickly wipe away from the filament line`
G92 E0
G92 E0
G1 F2400 E-3
;LAYER_COUNT:29
;LAYER:0
M106 S76.5
M205 X10 Y10
G1 F600 Z0.375
G0 F6000 X90.159 Y82.225 Z0.375
M205 X8 Y8
;TYPE:SKIRT
G1 F600 Z0.3
G1 F2400 E0
G1 F1200 X90.564 Y81.788 E0.02973
G1 X90.681 Y81.671 E0.03798
G1 X91.267 Y81.141 E0.0774
G1 X91.903 Y80.674 E0.11677
G1 X92.583 Y80.273 E0.15615
G1 X93.301 Y79.943 E0.19557
G1 X94.048 Y79.688 E0.23495
G1 X94.817 Y79.509 E0.27434
G1 X95.601 Y79.409 E0.31378
G1 X96.196 Y79.386 E0.34348
G1 X107.602 Y79.386 E0.91253
G1 X108.391 Y79.426 E0.95194
G1 X109.171 Y79.545 E0.99131
G1 X109.936 Y79.743 E1.03073
G1 X110.676 Y80.017 E1.0701
G1 X111.385 Y80.365 E1.1095
G1 X112.056 Y80.783 E1.14894
G1 X112.68 Y81.266 E1.18831
G1 X113.117 Y81.671 E1.21804
G1 X113.234 Y81.788 E1.22629
G1 X113.764 Y82.374 E1.26571
G1 X114.231 Y83.01 E1.30508
G1 X114.632 Y83.69 E1.34446
G1 X114.962 Y84.408 E1.38389
G1 X115.217 Y85.155 E1.42326
G1 X115.396 Y85.924 E1.46266
G1 X115.496 Y86.708 E1.50209
G1 X115.519 Y87.303 E1.53179
G1 X115.519 Y88.194 E1.57625
G1 X121.454 Y110.425 E2.7242
G1 X121.67 Y111.576 E2.78263
G1 X121.673 Y111.603 E2.78398
G1 X121.721 Y112.464 E2.827
G1 X121.721 Y120.781 E3.24194
G1 X121.681 Y121.57 E3.28135
G1 X121.562 Y122.35 E3.32072
G1 X121.491 Y122.877 E3.34725
G1 X121.389 Y123.66 E3.38664
G1 X121.208 Y124.428 E3.42601
G1 X120.95 Y125.175 E3.46544
G1 X120.489 Y126.128 E3.51825
G1 X120.207 Y126.622 E3.54663
G1 X119.781 Y127.287 E3.58603
G1 X119.29 Y127.906 E3.62545
G1 X119.001 Y128.192 E3.64573
G1 X118.451 Y128.758 E3.68511
G1 X117.952 Y129.184 E3.71784
G1 X117.467 Y129.564 E3.74858
G1 X116.821 Y130.019 E3.788
G1 X116.133 Y130.406 E3.82738
G1 X115.409 Y130.722 E3.86679
G1 X114.657 Y130.963 E3.90619
G1 X113.679 Y131.157 E3.95593
G1 X113.135 Y131.229 E3.98331
G1 X112.348 Y131.292 E4.0227
G1 X111.559 Y131.276 E4.06207
G1 X110.775 Y131.181 E4.10147
G1 X110.005 Y131.006 E4.14087
G1 X109.256 Y130.754 E4.18029
G1 X108.537 Y130.428 E4.21968
G1 X107.815 Y130.006 E4.2614
G1 X107.415 Y129.742 E4.28531
G1 X106.779 Y129.274 E4.32471
G1 X106.194 Y128.744 E4.36409
G1 X105.664 Y128.158 E4.40351
G1 X105.197 Y127.521 E4.44291
G1 X104.797 Y126.841 E4.48227
G1 X104.468 Y126.123 E4.52168
G1 X104.212 Y125.376 E4.56107
G1 X104.065 Y124.771 E4.59213
G1 X103.965 Y124.274 E4.61743
G1 X103.849 Y123.493 E4.65682
G1 X103.812 Y122.704 E4.69623
G1 X103.855 Y121.915 E4.73565
G1 X103.978 Y121.135 E4.77504
G1 X104.179 Y120.371 E4.81446
G1 X104.472 Y119.595 E4.85584
G1 X104.535 Y119.452 E4.86363
G1 X104.535 Y113.52 E5.15958
G1 X100.216 Y98.086 E5.95917
G1 X96.196 Y98.086 E6.15973
G1 X95.407 Y98.046 E6.19914
G1 X94.627 Y97.927 E6.23851
G1 X93.862 Y97.729 E6.27793
G1 X93.122 Y97.455 E6.3173
G1 X92.413 Y97.107 E6.3567
G1 X91.742 Y96.689 E6.39614
G1 X91.118 Y96.206 E6.43551
G1 X90.681 Y95.801 E6.46523
G1 X90.564 Y95.684 E6.47349
G1 X90.034 Y95.098 E6.51291
G1 X89.567 Y94.462 E6.55227
G1 X89.166 Y93.782 E6.59166
G1 X88.836 Y93.064 E6.63108
G1 X88.581 Y92.317 E6.67046
G1 X88.402 Y91.548 E6.70985
G1 X88.302 Y90.764 E6.74928
G1 X88.279 Y90.169 E6.77899
G1 X88.279 Y87.303 E6.92198
G1 X88.319 Y86.514 E6.96139
G1 X88.438 Y85.734 E7.00076
G1 X88.636 Y84.969 E7.04018
G1 X88.91 Y84.229 E7.07955
G1 X89.258 Y83.52 E7.11895
G1 X89.676 Y82.849 E7.15839
G1 X90.159 Y82.225 E7.19776
M205 X10 Y10
G0 F6000 X90.554 Y82.38
M205 X8 Y8
G1 F1200 X90.963 Y81.953 E7.22726
G1 X91.535 Y81.439 E7.26562
G1 X92.157 Y80.986 E7.30401
G1 X92.822 Y80.6 E7.34237
G1 X93.524 Y80.285 E7.38076
G1 X94.255 Y80.045 E7.41915
G1 X95.006 Y79.882 E7.45749
G1 X95.771 Y79.798 E7.49588
G1 X96.196 Y79.786 E7.51709
G1 X107.602 Y79.786 E8.08614
G1 X108.37 Y79.826 E8.12451
G1 X109.13 Y79.945 E8.16289
G1 X109.873 Y80.143 E8.20125
G1 X110.592 Y80.417 E8.23964
G1 X111.278 Y80.764 E8.27799
G1 X111.925 Y81.18 E8.31637
G1 X112.525 Y81.661 E8.35473
G1 X112.952 Y82.07 E8.38423
G1 X113.466 Y82.642 E8.4226
G1 X113.919 Y83.264 E8.46099
G1 X114.305 Y83.929 E8.49935
G1 X114.62 Y84.631 E8.53774
G1 X114.86 Y85.362 E8.57612
G1 X115.023 Y86.113 E8.61446
G1 X115.107 Y86.878 E8.65286
G1 X115.119 Y87.303 E8.67407
G1 X115.119 Y88.244 E8.72101
G1 X121.068 Y110.528 E9.8717
G1 X121.273 Y111.62 E9.92713
G1 X121.276 Y111.647 E9.92849
G1 X121.321 Y112.464 E9.96931
G1 X121.321 Y120.781 E10.38425
G1 X121.281 Y121.549 E10.42262
G1 X121.162 Y122.309 E10.46099
G1 X121.09 Y122.865 E10.48896
G1 X120.988 Y123.627 E10.52732
G1 X120.807 Y124.375 E10.56572
G1 X120.549 Y125.1 E10.60411
G1 X120.142 Y125.93 E10.65023
G1 X119.86 Y126.424 E10.67861
G1 X119.444 Y127.071 E10.71698
G1 X118.964 Y127.672 E10.75535
G1 X118.661 Y127.973 E10.77666
G1 X118.12 Y128.519 E10.81501
G1 X117.705 Y128.869 E10.84209
G1 X117.22 Y129.249 E10.87283
G1 X116.591 Y129.691 E10.91119
G1 X115.919 Y130.066 E10.94958
G1 X115.212 Y130.369 E10.98796
G1 X114.477 Y130.596 E11.02633
G1 X113.627 Y130.76 E11.06952
G1 X113.083 Y130.832 E11.0969
G1 X112.316 Y130.893 E11.13529
G1 X111.547 Y130.874 E11.17366
G1 X110.784 Y130.776 E11.21204
G1 X110.036 Y130.599 E11.25039
G1 X109.31 Y130.345 E11.28876
G1 X108.614 Y130.017 E11.32715
G1 X108.036 Y129.672 E11.36073
G1 X107.636 Y129.408 E11.38464
G1 X107.017 Y128.952 E11.423
G1 X106.448 Y128.433 E11.46142
G1 X105.937 Y127.859 E11.49976
G1 X105.488 Y127.234 E11.53816
G1 X105.106 Y126.567 E11.57651
G1 X104.796 Y125.863 E11.61488
G1 X104.56 Y125.131 E11.65325
G1 X104.457 Y124.692 E11.67575
G1 X104.357 Y124.195 E11.70104
G1 X104.245 Y123.434 E11.73942
G1 X104.212 Y122.665 E11.77782
G1 X104.26 Y121.898 E11.81616
G1 X104.386 Y121.139 E11.85454
G1 X104.591 Y120.398 E11.8929
G1 X104.838 Y119.756 E11.92722
G1 X104.935 Y119.535 E11.93926
G1 X104.935 Y113.466 E12.24204
G1 X100.52 Y97.686 E13.05954
G1 X96.196 Y97.686 E13.27527
G1 X95.428 Y97.646 E13.31364
G1 X94.668 Y97.527 E13.35202
G1 X93.925 Y97.329 E13.39038
G1 X93.206 Y97.055 E13.42877
G1 X92.52 Y96.708 E13.46712
G1 X91.873 Y96.292 E13.5055
G1 X91.273 Y95.811 E13.54386
G1 X90.846 Y95.402 E13.57336
G1 X90.332 Y94.83 E13.61173
G1 X89.879 Y94.208 E13.65012
G1 X89.493 Y93.543 E13.68848
G1 X89.178 Y92.841 E13.72686
G1 X88.938 Y92.11 E13.76525
G1 X88.775 Y91.359 E13.80359
G1 X88.691 Y90.594 E13.84198
G1 X88.679 Y90.169 E13.8632
G1 X88.679 Y87.303 E14.00618
G1 X88.719 Y86.535 E14.04455
G1 X88.838 Y85.775 E14.08293
G1 X89.036 Y85.032 E14.12129
G1 X89.31 Y84.313 E14.15968
G1 X89.657 Y83.627 E14.19803
G1 X90.073 Y82.98 E14.23641
G1 X90.554 Y82.38 E14.27477
M205 X10 Y10
G0 F6000 X90.471 Y83.114
M205 X8 Y8
G1 F1200 X91.129 Y82.353 E14.32496
G1 X91.246 Y82.236 E14.33322
G1 X91.803 Y81.736 E14.37056
G1 X92.409 Y81.299 E14.40783
G1 X93.059 Y80.928 E14.44517
G1 X93.745 Y80.629 E14.48251
G1 X94.459 Y80.405 E14.51984
G1 X95.192 Y80.258 E14.55714
G1 X96.196 Y80.186 E14.60736
G1 X107.602 Y80.186 E15.17641
G1 X108.349 Y80.226 E15.21373
G1 X109.087 Y80.345 E15.25102
G1 X109.809 Y80.543 E15.28837
G1 X110.505 Y80.816 E15.32567
G1 X111.168 Y81.163 E15.363
G1 X111.791 Y81.578 E15.40035
G1 X112.552 Y82.236 E15.45054
G1 X112.669 Y82.353 E15.4588
G1 X113.169 Y82.91 E15.49614
G1 X113.606 Y83.516 E15.53341
G1 X113.977 Y84.166 E15.57075
G1 X114.276 Y84.852 E15.60809
G1 X114.5 Y85.566 E15.64542
G1 X114.647 Y86.299 E15.68272
G1 X114.719 Y87.303 E15.73294
G1 X114.719 Y88.299 E15.78263
G1 X120.681 Y110.631 E16.9358
G1 X120.875 Y111.664 E16.98823
G1 X120.878 Y111.691 E16.98959
G1 X120.921 Y112.464 E17.02821
G1 X120.921 Y120.781 E17.44315
G1 X120.881 Y121.528 E17.48047
G1 X120.762 Y122.266 E17.51777
G1 X120.69 Y122.853 E17.54727
G1 X120.587 Y123.594 E17.5846
G1 X120.405 Y124.319 E17.62189
G1 X120.148 Y125.022 E17.65923
G1 X119.794 Y125.731 E17.69877
G1 X119.512 Y126.225 E17.72715
G1 X119.107 Y126.854 E17.76447
G1 X118.637 Y127.436 E17.80179
G1 X117.789 Y128.278 E17.86141
G1 X117.458 Y128.554 E17.88291
G1 X116.973 Y128.934 E17.91365
G1 X116.361 Y129.363 E17.95094
G1 X115.706 Y129.725 E17.98828
G1 X115.016 Y130.014 E18.0256
G1 X114.299 Y130.228 E18.06293
G1 X113.574 Y130.363 E18.09972
G1 X113.03 Y130.435 E18.1271
G1 X112.285 Y130.494 E18.16438
G1 X111.537 Y130.472 E18.20172
G1 X110.796 Y130.371 E18.23903
G1 X110.07 Y130.191 E18.27634
G1 X109.367 Y129.935 E18.31367
G1 X108.695 Y129.606 E18.351
G1 X108.256 Y129.338 E18.37666
G1 X107.856 Y129.074 E18.40057
G1 X107.255 Y128.629 E18.43788
G1 X106.704 Y128.123 E18.4752
G1 X106.211 Y127.561 E18.5125
G1 X105.78 Y126.949 E18.54984
G1 X105.418 Y126.295 E18.58714
G1 X105.127 Y125.605 E18.6245
G1 X104.85 Y124.613 E18.67588
G1 X104.75 Y124.116 E18.70117
G1 X104.641 Y123.376 E18.73849
G1 X104.613 Y122.628 E18.77583
G1 X104.664 Y121.882 E18.81314
G1 X104.795 Y121.145 E18.85048
G1 X105.004 Y120.427 E18.88779
G1 X105.204 Y119.917 E18.91512
G1 X105.335 Y119.619 E18.93136
G1 X105.335 Y113.411 E19.24108
G1 X100.823 Y97.286 E20.07646
G1 X96.196 Y97.286 E20.3073
G1 X95.449 Y97.246 E20.34462
G1 X94.711 Y97.127 E20.38192
G1 X93.989 Y96.929 E20.41927
G1 X93.293 Y96.656 E20.45657
G1 X92.63 Y96.309 E20.4939
G1 X92.007 Y95.894 E20.53125
G1 X91.246 Y95.236 E20.58144
G1 X91.129 Y95.119 E20.58969
G1 X90.629 Y94.562 E20.62704
G1 X90.192 Y93.956 E20.66431
G1 X89.821 Y93.306 E20.70165
G1 X89.522 Y92.62 E20.73898
G1 X89.298 Y91.906 E20.77632
G1 X89.151 Y91.173 E20.81362
G1 X89.079 Y90.169 E20.86383
G1 X89.079 Y87.303 E21.00682
G1 X89.119 Y86.556 E21.04414
G1 X89.238 Y85.818 E21.08144
G1 X89.436 Y85.096 E21.11879
G1 X89.709 Y84.4 E21.15609
G1 X90.056 Y83.737 E21.19342
G1 X90.471 Y83.114 E21.23077
M205 X10 Y10
G0 F6000 X90.868 Y83.253
M205 X8 Y8
G1 F1200 X91.412 Y82.636 E21.2718
G1 X91.529 Y82.519 E21.28006
G1 X92.07 Y82.035 E21.31627
G1 X92.661 Y81.612 E21.35253
G1 X93.295 Y81.258 E21.38876
G1 X93.964 Y80.975 E21.425
G1 X94.66 Y80.767 E21.46124
G1 X95.375 Y80.637 E21.4975
G1 X96.196 Y80.586 E21.53854
G1 X107.602 Y80.586 E22.10758
G1 X108.327 Y80.626 E22.14381
G1 X109.044 Y80.745 E22.18007
G1 X109.743 Y80.943 E22.21632
G1 X110.416 Y81.216 E22.25255
G1 X111.055 Y81.561 E22.28878
G1 X111.652 Y81.975 E22.32502
G1 X112.269 Y82.519 E22.36606
G1 X112.386 Y82.636 E22.37432
G1 X112.87 Y83.177 E22.41053
G1 X113.293 Y83.768 E22.44679
G1 X113.647 Y84.402 E22.48302
G1 X113.93 Y85.071 E22.51926
G1 X114.138 Y85.767 E22.5555
G1 X114.268 Y86.482 E22.59176
G1 X114.319 Y87.303 E22.6328
G1 X114.319 Y88.35 E22.68503
G1 X120.295 Y110.735 E23.84093
G1 X120.478 Y111.708 E23.89033
G1 X120.481 Y111.735 E23.89168
G1 X120.521 Y112.464 E23.92811
G1 X120.521 Y120.781 E24.34305
G1 X120.481 Y121.506 E24.37927
G1 X120.362 Y122.223 E24.41553
G1 X120.29 Y122.84 E24.44652
G1 X120.186 Y123.559 E24.48277
G1 X120.004 Y124.262 E24.519
G1 X119.746 Y124.941 E24.55523
G1 X119.447 Y125.533 E24.58832
G1 X119.165 Y126.027 E24.6167
G1 X118.771 Y126.637 E24.65293
G1 X118.312 Y127.2 E24.68917
G1 X117.983 Y127.529 E24.71238
G1 X117.212 Y128.239 E24.76467
G1 X116.727 Y128.619 E24.79541
G1 X116.131 Y129.035 E24.83167
G1 X115.493 Y129.383 E24.86793
G1 X114.821 Y129.659 E24.90418
G1 X114.123 Y129.859 E24.9404
G1 X113.522 Y129.967 E24.97086
G1 X112.978 Y130.039 E24.99824
G1 X112.254 Y130.094 E25.03447
G1 X111.528 Y130.07 E25.07071
G1 X110.809 Y129.966 E25.10695
G1 X110.106 Y129.784 E25.14318
G1 X109.427 Y129.525 E25.17944
G1 X108.476 Y129.004 E25.23353
G1 X108.076 Y128.74 E25.25745
G1 X107.493 Y128.308 E25.29365
G1 X106.961 Y127.813 E25.3299
G1 X106.486 Y127.263 E25.36616
G1 X106.075 Y126.665 E25.40236
G1 X105.732 Y126.025 E25.43858
G1 X105.461 Y125.35 E25.47487
G1 X105.242 Y124.534 E25.51702
G1 X105.142 Y124.037 E25.54232
G1 X105.038 Y123.318 E25.57856
G1 X105.014 Y122.592 E25.6148
G1 X105.069 Y121.868 E25.65103
G1 X105.204 Y121.154 E25.68728
G1 X105.417 Y120.46 E25.7235
G1 X105.735 Y119.703 E25.76446
G1 X105.735 Y113.357 E26.08106
G1 X101.126 Y96.886 E26.93437
G1 X96.196 Y96.886 E27.18033
G1 X95.471 Y96.846 E27.21655
G1 X94.754 Y96.727 E27.25281
G1 X94.055 Y96.529 E27.28906
G1 X93.382 Y96.256 E27.32529
G1 X92.743 Y95.911 E27.36152
G1 X92.146 Y95.497 E27.39777
G1 X91.529 Y94.953 E27.43881
G1 X91.412 Y94.836 E27.44706
G1 X90.928 Y94.295 E27.48328
G1 X90.505 Y93.704 E27.51954
G1 X90.151 Y93.07 E27.55576
G1 X89.868 Y92.401 E27.592
G1 X89.66 Y91.705 E27.62824
G1 X89.53 Y90.99 E27.6645
G1 X89.479 Y90.169 E27.70554
G1 X89.479 Y87.303 E27.84852
G1 X89.519 Y86.578 E27.88475
G1 X89.638 Y85.861 E27.92101
G1 X89.836 Y85.162 E27.95726
G1 X90.109 Y84.489 E27.99349
G1 X90.454 Y83.85 E28.02972
G1 X90.868 Y83.253 E28.06596
M205 X10 Y10
G0 F6000 X91.264 Y83.397
M205 X8 Y8
G1 F1200 X91.695 Y82.919 E28.09807
G1 X91.812 Y82.802 E28.10633
G1 X92.337 Y82.333 E28.14145
G1 X92.912 Y81.927 E28.17657
G1 X93.53 Y81.589 E28.21171
G1 X94.181 Y81.322 E28.24682
G1 X94.859 Y81.132 E28.28194
G1 X95.554 Y81.019 E28.31707
G1 X96.196 Y80.986 E28.34914
G1 X107.602 Y80.986 E28.91819
G1 X108.305 Y81.026 E28.95332
G1 X108.999 Y81.145 E28.98845
G1 X109.674 Y81.343 E29.02355
G1 X110.323 Y81.615 E29.05865
G1 X110.937 Y81.96 E29.09379
G1 X111.508 Y82.371 E29.12889
G1 X111.986 Y82.802 E29.161
G1 X112.103 Y82.919 E29.16925
G1 X112.572 Y83.444 E29.20438
G1 X112.978 Y84.019 E29.23949
G1 X113.316 Y84.637 E29.27464
G1 X113.583 Y85.288 E29.30974
G1 X113.773 Y85.966 E29.34487
G1 X113.886 Y86.661 E29.38
G1 X113.919 Y87.303 E29.41207
G1 X113.919 Y88.405 E29.46705
G1 X119.908 Y110.838 E30.62543
G1 X120.08 Y111.752 E30.67183
G1 X120.083 Y111.779 E30.67319
G1 X120.121 Y112.464 E30.70742
G1 X120.121 Y120.781 E31.12235
G1 X120.081 Y121.484 E31.15748
G1 X119.962 Y122.178 E31.19261
G1 X119.889 Y122.826 E31.22515
G1 X119.785 Y123.523 E31.2603
G1 X119.603 Y124.203 E31.29542
G1 X119.345 Y124.858 E31.33054
G1 X119.099 Y125.335 E31.35732
G1 X118.817 Y125.829 E31.3857
G1 X118.434 Y126.419 E31.42079
G1 X117.987 Y126.963 E31.45592
G1 X117.645 Y127.305 E31.48005
G1 X116.965 Y127.924 E31.52593
G1 X116.48 Y128.304 E31.55667
G1 X115.902 Y128.706 E31.59179
G1 X115.282 Y129.04 E31.62693
G1 X114.629 Y129.302 E31.66203
G1 X113.949 Y129.488 E31.6972
G1 X113.469 Y129.57 E31.72149
G1 X112.925 Y129.642 E31.74887
G1 X112.223 Y129.695 E31.78399
G1 X111.52 Y129.668 E31.81909
G1 X110.824 Y129.561 E31.85422
G1 X110.145 Y129.376 E31.88933
G1 X109.491 Y129.115 E31.92446
G1 X108.697 Y128.671 E31.96985
G1 X108.297 Y128.407 E31.99376
G1 X107.732 Y127.986 E32.02891
