;FLAVOR:Marlin
;TIME:3703
;Filament used: 2.9805m
;Layer height: 0.2
;MINX:64.92
;MINY:87.331
;MINZ:0.3
;MAXX:145.08
;MAXY:122.669
;MAXZ:16.375
;Generated with Cura_SteamEngine 4.13.1
M82 ;absolute extrusion mode
G21                                        ; metric values 
G90                                        ; absolute positioning 
M82                                        ; set extruder to absolute mode 
M107                                       ; start with the fan off 
M140 S60.0           ; Start heating the bed 
G4 S60                                     ; wait 1 minute 
M104 S220.0         ; start heating the hot end 
M190 S60.0           ; wait for bed 
M109 S220.0         ; wait for hotend 
M300 S1000 P500                            ; BEEP heating done 
G28 X0 Y10 Z0                              ; move X/Y to min endstops 
M420 S1                                    ; Enable leveling 
M420 Z2.0                                  ; Set leveling fading height to 2 mm 
G0 Z0.15                                   ; lift nozzle a bit 
G92 E0                                     ; zero the extruded length 
G1 X50 E25 F500                            ; Extrude 25mm of filament in a 5cm line. 
G92 E0                                     ; zero the extruded length again 
G1 E-2 F500                                ; Retract a little 
G1 X120 F4000                              ; Quickly wipe away from the filament line`
G92 E0
G92 E0
G1 F2400 E-3
;LAYER_COUNT:81
;LAYER:0
M106 S76.5
M205 X10 Y10
G1 F600 Z0.375
G0 F6000 X67.908 Y89.086 Z0.375
M205 X8 Y8
;TYPE:SKIRT
G1 F600 Z0.3
G1 F2400 E0
G1 F1200 X68.544 Y88.619 E0.03937
G1 X69.224 Y88.218 E0.07875
G1 X69.942 Y87.888 E0.11817
G1 X70.689 Y87.633 E0.15755
G1 X71.458 Y87.454 E0.19694
G1 X72.242 Y87.354 E0.23638
G1 X72.837 Y87.331 E0.26608
G1 X87.994 Y87.331 E1.02227
G1 X88.783 Y87.371 E1.06168
G1 X89.927 Y87.574 E1.11965
G1 X89.97 Y87.585 E1.12186
G1 X90.724 Y87.82 E1.16126
G1 X91.708 Y88.26 E1.21504
G1 X92.396 Y88.627 E1.25394
G1 X92.896 Y88.918 E1.28281
G1 X93.34 Y89.199 E1.30902
G1 X93.917 Y89.602 E1.34413
G1 X94.52 Y90.111 E1.3835
G1 X94.81 Y90.397 E1.40382
G1 X95.297 Y90.903 E1.43886
G1 X95.467 Y91.102 E1.45192
G1 X95.943 Y91.225 E1.47644
G1 X96.683 Y91.499 E1.51581
G1 X97.392 Y91.847 E1.55522
G1 X98.063 Y92.265 E1.59466
G1 X98.666 Y92.73 E1.63265
G1 X99.603 Y93.528 E1.69405
G1 X100.178 Y94.07 E1.73347
G1 X100.695 Y94.667 E1.77287
G1 X101.148 Y95.313 E1.81224
G1 X101.293 Y95.571 E1.827
G1 X101.397 Y95.598 E1.83236
G1 X102.137 Y95.872 E1.87173
G1 X102.449 Y96.025 E1.88907
G1 X102.562 Y95.966 E1.89543
G1 X103.297 Y95.676 E1.93485
G1 X103.89 Y95.508 E1.9656
G1 X104.38 Y94.889 E2.00498
G1 X105.066 Y94.197 E2.0536
G1 X105.987 Y93.378 E2.11508
G1 X106.603 Y92.884 E2.15448
G1 X107.265 Y92.455 E2.19383
G1 X107.968 Y92.094 E2.23326
G1 X108.704 Y91.807 E2.27267
G1 X108.841 Y91.769 E2.27977
G1 X108.989 Y91.575 E2.29194
G1 X109.576 Y90.891 E2.33691
G1 X110.055 Y90.394 E2.37135
G1 X110.666 Y89.825 E2.413
G1 X111.523 Y89.197 E2.46601
G1 X111.974 Y88.912 E2.49262
G1 X112.473 Y88.623 E2.52139
G1 X113.156 Y88.259 E2.56
G1 X113.87 Y87.923 E2.59937
G1 X114.891 Y87.585 E2.65303
G1 X114.934 Y87.574 E2.65524
G1 X115.708 Y87.418 E2.69464
G1 X116.867 Y87.331 E2.75262
G1 X137.163 Y87.331 E3.76519
G1 X137.952 Y87.371 E3.80461
G1 X138.732 Y87.49 E3.84397
G1 X139.497 Y87.688 E3.88339
G1 X140.237 Y87.962 E3.92276
G1 X140.946 Y88.31 E3.96217
G1 X141.617 Y88.728 E4.00161
G1 X142.241 Y89.211 E4.04097
G1 X142.678 Y89.616 E4.0707
G1 X142.795 Y89.733 E4.07895
G1 X143.325 Y90.319 E4.11837
G1 X143.792 Y90.955 E4.15774
G1 X144.193 Y91.635 E4.19712
G1 X144.523 Y92.353 E4.23655
G1 X144.778 Y93.1 E4.27593
G1 X144.957 Y93.869 E4.31532
G1 X145.057 Y94.653 E4.35475
G1 X145.08 Y95.248 E4.38446
G1 X145.079 Y110.939 E5.16728
G1 X145.039 Y111.728 E5.2067
G1 X144.919 Y112.509 E5.24612
G1 X144.722 Y113.273 E5.28548
G1 X144.447 Y114.014 E5.32491
G1 X144.1 Y114.723 E5.3643
G1 X143.682 Y115.393 E5.40369
G1 X143.258 Y115.948 E5.43854
G1 X143.165 Y116.059 E5.44576
G1 X142.628 Y116.638 E5.48516
G1 X142.035 Y117.16 E5.52458
G1 X141.392 Y117.619 E5.56399
G1 X140.706 Y118.01 E5.60338
G1 X139.985 Y118.331 E5.64276
G1 X139.234 Y118.576 E5.68217
G1 X138.491 Y118.74 E5.72013
G1 X115.992 Y122.558 E6.85866
G1 X115.208 Y122.651 E6.89804
G1 X114.687 Y122.668 E6.92405
G1 X72.837 Y122.669 E9.01196
G1 X72.049 Y122.629 E9.05132
G1 X71.268 Y122.51 E9.09073
G1 X70.503 Y122.312 E9.13016
G1 X69.763 Y122.038 E9.16953
G1 X69.054 Y121.69 E9.20893
G1 X68.383 Y121.273 E9.24834
G1 X67.759 Y120.789 E9.28774
G1 X67.322 Y120.384 E9.31747
G1 X67.205 Y120.267 E9.32572
G1 X66.675 Y119.681 E9.36514
G1 X66.208 Y119.045 E9.40451
G1 X65.807 Y118.365 E9.44389
G1 X65.477 Y117.647 E9.48332
G1 X65.222 Y116.9 E9.52269
G1 X65.043 Y116.131 E9.56209
G1 X64.943 Y115.347 E9.60152
G1 X64.92 Y114.752 E9.63122
G1 X64.92 Y95.248 E10.60428
G1 X64.96 Y94.459 E10.6437
G1 X65.079 Y93.679 E10.68306
G1 X65.277 Y92.914 E10.72248
G1 X65.551 Y92.174 E10.76185
G1 X65.899 Y91.465 E10.80126
G1 X66.317 Y90.794 E10.8407
G1 X66.8 Y90.17 E10.88006
G1 X67.205 Y89.733 E10.90979
G1 X67.322 Y89.616 E10.91804
G1 X67.908 Y89.086 E10.95746
M205 X10 Y10
G0 F6000 X68.176 Y89.384
M205 X8 Y8
G1 F1200 X68.798 Y88.931 E10.99585
G1 X69.463 Y88.545 E11.03421
G1 X70.165 Y88.23 E11.0726
G1 X70.896 Y87.99 E11.11099
G1 X71.647 Y87.827 E11.14933
G1 X72.412 Y87.743 E11.18772
G1 X72.837 Y87.731 E11.20893
G1 X87.994 Y87.731 E11.96512
G1 X88.762 Y87.771 E12.00349
G1 X89.828 Y87.962 E12.05752
G1 X89.871 Y87.973 E12.05973
G1 X90.605 Y88.202 E12.09809
G1 X91.52 Y88.613 E12.14814
G1 X92.208 Y88.98 E12.18704
G1 X92.682 Y89.256 E12.2144
G1 X93.126 Y89.537 E12.24062
G1 X93.675 Y89.92 E12.27401
G1 X94.522 Y90.674 E12.33059
G1 X95.009 Y91.18 E12.36563
G1 X95.245 Y91.456 E12.38374
G1 X95.88 Y91.625 E12.41653
G1 X96.599 Y91.899 E12.45491
G1 X97.285 Y92.246 E12.49327
G1 X97.932 Y92.662 E12.53164
G1 X98.407 Y93.034 E12.56174
G1 X99.344 Y93.832 E12.62315
G1 X99.903 Y94.361 E12.66154
G1 X100.404 Y94.944 E12.69989
G1 X100.842 Y95.577 E12.7383
G1 X101.028 Y95.916 E12.75759
G1 X101.334 Y95.998 E12.77339
G1 X102.053 Y96.272 E12.81178
G1 X102.453 Y96.474 E12.83414
G1 X102.765 Y96.314 E12.85163
G1 X103.482 Y96.035 E12.89001
G1 X104.146 Y95.854 E12.92435
G1 X104.251 Y95.691 E12.93402
G1 X104.734 Y95.092 E12.97241
G1 X105.332 Y94.496 E13.01453
G1 X106.253 Y93.677 E13.07602
G1 X106.853 Y93.197 E13.11436
G1 X107.5 Y92.781 E13.15273
G1 X108.187 Y92.435 E13.19111
G1 X108.906 Y92.162 E13.22948
G1 X109.079 Y92.116 E13.23841
G1 X109.307 Y91.817 E13.25717
G1 X109.864 Y91.169 E13.2998
G1 X110.343 Y90.672 E13.33424
G1 X110.923 Y90.131 E13.37381
G1 X111.737 Y89.535 E13.42414
G1 X112.188 Y89.25 E13.45076
G1 X112.661 Y88.976 E13.47803
G1 X113.344 Y88.612 E13.51664
G1 X114.04 Y88.286 E13.55498
G1 X114.99 Y87.973 E13.60488
G1 X115.033 Y87.962 E13.6071
G1 X115.787 Y87.81 E13.64547
G1 X116.867 Y87.731 E13.6995
G1 X137.163 Y87.731 E14.71207
G1 X137.931 Y87.771 E14.75044
G1 X138.691 Y87.89 E14.78882
G1 X139.434 Y88.088 E14.82718
G1 X140.153 Y88.362 E14.86557
G1 X140.839 Y88.709 E14.90392
G1 X141.486 Y89.125 E14.9423
G1 X142.086 Y89.606 E14.98066
G1 X142.513 Y90.015 E15.01016
G1 X143.027 Y90.587 E15.04853
G1 X143.48 Y91.209 E15.08692
G1 X143.866 Y91.874 E15.12528
G1 X144.181 Y92.576 E15.16366
G1 X144.421 Y93.307 E15.20205
G1 X144.584 Y94.058 E15.24039
G1 X144.668 Y94.823 E15.27878
G1 X144.68 Y95.248 E15.3
G1 X144.679 Y110.939 E16.08282
G1 X144.639 Y111.708 E16.12124
G1 X144.519 Y112.467 E16.15958
G1 X144.322 Y113.211 E16.19797
G1 X144.048 Y113.929 E16.23632
G1 X143.701 Y114.616 E16.27471
G1 X143.285 Y115.263 E16.31309
G1 X142.951 Y115.691 E16.34017
G1 X142.858 Y115.802 E16.3474
G1 X142.334 Y116.366 E16.38581
G1 X141.755 Y116.871 E16.42414
G1 X141.126 Y117.314 E16.46252
G1 X140.454 Y117.689 E16.50091
G1 X139.748 Y117.993 E16.53926
G1 X139.013 Y118.221 E16.57766
G1 X138.424 Y118.346 E16.6077
G1 X115.925 Y122.164 E17.74622
G1 X115.161 Y122.253 E17.7846
G1 X114.687 Y122.268 E17.80826
G1 X72.837 Y122.269 E19.89616
G1 X72.069 Y122.229 E19.93453
G1 X71.309 Y122.11 E19.97291
G1 X70.566 Y121.912 E20.01127
G1 X69.847 Y121.638 E20.04966
G1 X69.161 Y121.291 E20.08801
G1 X68.514 Y120.875 E20.12639
G1 X67.914 Y120.394 E20.16475
G1 X67.487 Y119.985 E20.19425
G1 X66.973 Y119.413 E20.23262
G1 X66.52 Y118.791 E20.27101
G1 X66.134 Y118.126 E20.30937
G1 X65.819 Y117.424 E20.34775
G1 X65.579 Y116.693 E20.38614
G1 X65.416 Y115.942 E20.42448
G1 X65.332 Y115.177 E20.46287
G1 X65.32 Y114.752 E20.48409
G1 X65.32 Y95.248 E21.45714
G1 X65.36 Y94.48 E21.49551
G1 X65.479 Y93.72 E21.53389
G1 X65.677 Y92.977 E21.57225
G1 X65.951 Y92.258 E21.61064
G1 X66.298 Y91.572 E21.64899
G1 X66.714 Y90.925 E21.68737
G1 X67.195 Y90.325 E21.72574
G1 X67.604 Y89.898 E21.75523
G1 X68.176 Y89.384 E21.7936
M205 X10 Y10
G0 F6000 X68.444 Y89.681
M205 X8 Y8
G1 F1200 X69.05 Y89.244 E21.83088
G1 X69.7 Y88.873 E21.86821
G1 X70.386 Y88.574 E21.90555
G1 X71.1 Y88.35 E21.94288
G1 X71.833 Y88.203 E21.98018
G1 X72.837 Y88.131 E22.0304
G1 X87.994 Y88.131 E22.78658
G1 X88.741 Y88.171 E22.82391
G1 X89.729 Y88.349 E22.87399
G1 X89.772 Y88.36 E22.8762
G1 X90.486 Y88.584 E22.91354
G1 X91.332 Y88.966 E22.95985
G1 X92.02 Y89.333 E22.99875
G1 X92.468 Y89.594 E23.02462
G1 X92.912 Y89.875 E23.05083
G1 X93.432 Y90.238 E23.08247
G1 X94.234 Y90.952 E23.13604
G1 X94.721 Y91.458 E23.17108
G1 X95.094 Y91.827 E23.19726
G1 X95.816 Y92.025 E23.23461
G1 X96.512 Y92.298 E23.27191
G1 X97.175 Y92.645 E23.30924
G1 X97.798 Y93.06 E23.34659
G1 X98.148 Y93.339 E23.36892
G1 X99.085 Y94.137 E23.43032
G1 X99.627 Y94.652 E23.46762
G1 X100.112 Y95.221 E23.50492
G1 X100.533 Y95.84 E23.54227
G1 X100.756 Y96.257 E23.56586
G1 X101.27 Y96.398 E23.59245
G1 X101.966 Y96.671 E23.62975
G1 X102.45 Y96.924 E23.657
G1 X102.966 Y96.662 E23.68587
G1 X103.665 Y96.396 E23.72318
G1 X104.395 Y96.206 E23.76082
G1 X104.612 Y95.876 E23.78052
G1 X105.087 Y95.298 E23.81785
G1 X105.597 Y94.795 E23.85358
G1 X106.518 Y93.976 E23.91507
G1 X107.103 Y93.51 E23.95238
G1 X107.734 Y93.108 E23.98971
G1 X108.405 Y92.776 E24.02706
G1 X109.107 Y92.518 E24.06437
G1 X109.316 Y92.466 E24.07512
G1 X109.625 Y92.06 E24.10057
G1 X110.152 Y91.446 E24.14094
G1 X110.631 Y90.949 E24.17538
G1 X111.181 Y90.437 E24.21287
G1 X111.951 Y89.874 E24.26046
G1 X112.402 Y89.589 E24.28707
G1 X112.849 Y89.329 E24.31287
G1 X113.532 Y88.965 E24.35148
G1 X114.21 Y88.648 E24.38883
G1 X115.089 Y88.36 E24.43497
G1 X115.132 Y88.349 E24.43719
G1 X115.866 Y88.203 E24.47452
G1 X116.867 Y88.131 E24.52459
G1 X137.163 Y88.131 E25.53716
G1 X137.91 Y88.171 E25.57449
G1 X138.648 Y88.29 E25.61178
G1 X139.37 Y88.488 E25.64913
G1 X140.066 Y88.761 E25.68643
G1 X140.729 Y89.108 E25.72376
G1 X141.352 Y89.523 E25.76111
G1 X142.113 Y90.181 E25.8113
G1 X142.23 Y90.298 E25.81956
G1 X142.73 Y90.855 E25.8569
G1 X143.167 Y91.461 E25.89417
G1 X143.538 Y92.111 E25.93151
G1 X143.837 Y92.797 E25.96885
G1 X144.061 Y93.511 E26.00618
G1 X144.208 Y94.244 E26.04348
G1 X144.28 Y95.248 E26.0937
G1 X144.279 Y110.939 E26.87652
G1 X144.239 Y111.686 E26.91384
G1 X144.119 Y112.425 E26.9512
G1 X143.922 Y113.146 E26.98849
G1 X143.648 Y113.843 E27.02585
G1 X143.302 Y114.506 E27.06316
G1 X142.887 Y115.128 E27.10046
G1 X142.552 Y115.546 E27.12719
G1 X142.041 Y116.092 E27.1645
G1 X141.475 Y116.582 E27.20185
G1 X140.861 Y117.008 E27.23913
G1 X140.204 Y117.366 E27.27646
G1 X139.513 Y117.652 E27.31377
G1 X138.795 Y117.863 E27.35111
G1 X138.357 Y117.951 E27.37339
G1 X115.858 Y121.769 E28.51192
G1 X115.115 Y121.855 E28.54924
G1 X114.687 Y121.868 E28.5706
G1 X72.837 Y121.869 E30.65851
G1 X72.09 Y121.829 E30.69583
G1 X71.352 Y121.71 E30.73312
G1 X70.63 Y121.512 E30.77047
G1 X69.934 Y121.239 E30.80777
G1 X69.271 Y120.892 E30.8451
G1 X68.648 Y120.477 E30.88245
G1 X67.887 Y119.819 E30.93264
G1 X67.77 Y119.702 E30.9409
G1 X67.27 Y119.145 E30.97824
G1 X66.833 Y118.539 E31.01551
G1 X66.462 Y117.889 E31.05285
G1 X66.163 Y117.203 E31.09019
G1 X65.939 Y116.489 E31.12752
G1 X65.792 Y115.756 E31.16482
G1 X65.72 Y114.752 E31.21504
G1 X65.72 Y95.248 E32.1881
G1 X65.76 Y94.501 E32.22542
G1 X65.879 Y93.763 E32.26271
G1 X66.077 Y93.041 E32.30006
G1 X66.35 Y92.345 E32.33736
G1 X66.697 Y91.682 E32.3747
G1 X67.112 Y91.059 E32.41204
G1 X67.77 Y90.298 E32.46223
G1 X67.887 Y90.181 E32.47049
G1 X68.444 Y89.681 E32.50783
M205 X10 Y10
G0 F6000 X68.711 Y89.98
M205 X8 Y8
G1 F1200 X69.302 Y89.557 E32.54409
G1 X69.936 Y89.203 E32.58032
G1 X70.605 Y88.92 E32.61656
G1 X71.301 Y88.712 E32.6528
G1 X72.016 Y88.582 E32.68905
G1 X72.837 Y88.531 E32.73009
G1 X87.994 Y88.531 E33.48628
G1 X88.719 Y88.571 E33.5225
G1 X89.63 Y88.737 E33.5687
G1 X89.673 Y88.748 E33.57092
G1 X90.365 Y88.966 E33.60711
G1 X91.143 Y89.319 E33.64974
G1 X91.831 Y89.686 E33.68864
G1 X92.255 Y89.932 E33.71309
G1 X92.699 Y90.213 E33.73931
G1 X93.19 Y90.556 E33.76919
G1 X93.945 Y91.229 E33.81965
G1 X94.432 Y91.735 E33.85469
G1 X94.821 Y92.189 E33.88451
G1 X95.051 Y92.227 E33.89614
G1 X95.75 Y92.425 E33.93239
G1 X96.423 Y92.698 E33.96862
G1 X97.062 Y93.043 E34.00485
G1 X97.888 Y93.643 E34.05579
G1 X98.825 Y94.441 E34.11719
G1 X99.352 Y94.942 E34.15347
G1 X99.82 Y95.497 E34.18969
G1 X100.224 Y96.101 E34.22594
G1 X100.482 Y96.596 E34.25379
G1 X100.505 Y96.6 E34.25495
G1 X101.204 Y96.798 E34.2912
G1 X101.877 Y97.071 E34.32743
G1 X102.45 Y97.38 E34.35991
G1 X102.517 Y97.337 E34.36388
G1 X103.166 Y97.011 E34.40012
G1 X103.848 Y96.758 E34.43641
G1 X104.552 Y96.582 E34.47261
G1 X104.631 Y96.571 E34.47659
G1 X104.972 Y96.062 E34.50716
G1 X105.439 Y95.506 E34.54338
G1 X105.863 Y95.094 E34.57288
G1 X106.784 Y94.275 E34.63437
G1 X107.353 Y93.823 E34.67062
G1 X107.967 Y93.436 E34.70683
G1 X108.621 Y93.119 E34.74309
G1 X109.305 Y92.876 E34.7793
G1 X109.549 Y92.818 E34.79182
G1 X109.943 Y92.302 E34.82421
G1 X110.44 Y91.724 E34.86224
G1 X110.919 Y91.227 E34.89667
G1 X111.439 Y90.743 E34.93211
G1 X112.164 Y90.212 E34.97695
G1 X112.615 Y89.927 E35.00357
G1 X113.037 Y89.682 E35.02791
G1 X113.72 Y89.318 E35.06652
G1 X114.379 Y89.012 E35.10277
G1 X115.188 Y88.748 E35.14523
G1 X115.231 Y88.737 E35.14744
G1 X115.944 Y88.596 E35.1837
G1 X116.867 Y88.531 E35.22987
G1 X137.163 Y88.531 E36.24244
G1 X137.888 Y88.571 E36.27866
G1 X138.605 Y88.69 E36.31492
G1 X139.304 Y88.888 E36.35117
G1 X139.977 Y89.161 E36.3874
G1 X140.616 Y89.506 E36.42363
G1 X141.213 Y89.92 E36.45988
G1 X141.83 Y90.464 E36.50091
G1 X141.947 Y90.581 E36.50917
G1 X142.431 Y91.122 E36.54539
G1 X142.854 Y91.713 E36.58164
G1 X143.208 Y92.347 E36.61787
G1 X143.491 Y93.016 E36.65411
G1 X143.699 Y93.712 E36.69035
G1 X143.829 Y94.427 E36.72661
G1 X143.88 Y95.248 E36.76765
G1 X143.879 Y110.939 E37.55047
G1 X143.839 Y111.665 E37.58675
G1 X143.72 Y112.381 E37.62296
G1 X143.522 Y113.08 E37.65921
G1 X143.249 Y113.753 E37.69544
G1 X142.904 Y114.392 E37.73167
G1 X142.338 Y115.178 E37.77999
G1 X142.245 Y115.289 E37.78722
G1 X141.749 Y115.819 E37.82343
G1 X141.197 Y116.291 E37.85967
G1 X140.597 Y116.7 E37.89589
G1 X139.955 Y117.041 E37.93216
G1 X139.28 Y117.309 E37.96839
G1 X138.29 Y117.557 E38.01931
G1 X115.791 Y121.375 E39.15784
G1 X115.069 Y121.457 E39.19409
G1 X114.687 Y121.468 E39.21316
G1 X72.837 Y121.469 E41.30106
G1 X72.112 Y121.429 E41.33729
G1 X71.395 Y121.31 E41.37355
G1 X70.696 Y121.112 E41.40979
G1 X70.023 Y120.839 E41.44603
G1 X69.384 Y120.494 E41.48226
G1 X68.787 Y120.08 E41.5185
G1 X68.17 Y119.536 E41.55954
G1 X68.053 Y119.419 E41.56779
G1 X67.569 Y118.878 E41.60401
G1 X67.146 Y118.287 E41.64027
G1 X66.792 Y117.653 E41.6765
