;FLAVOR:Marlin
;TIME:2755
;Filament used: 2.15988m
;Layer height: 0.2
;MINX:81.248
;MINY:81.004
;MINZ:0.3
;MAXX:128.724
;MAXY:128.996
;MAXZ:13.375
;Generated with Cura_SteamEngine 4.13.1
M82 ;absolute extrusion mode
G21                                        ; metric values 
G90                                        ; absolute positioning 
M82                                        ; set extruder to absolute mode 
M107                                       ; start with the fan off 
M140 S60.0           ; Start heating the bed 
G4 S60                                     ; wait 1 minute 
M104 S220.0         ; start heating the hot end 
M190 S60.0           ; wait for bed 
M109 S220.0         ; wait for hotend 
M300 S1000 P500                            ; BEEP heating done 
G28 X0 Y10 Z0                              ; move X/Y to min endstops 
M420 S1                                    ; Enable leveling 
M420 Z2.0                                  ; Set leveling fading height to 2 mm 
G0 Z0.15                                   ; lift nozzle a bit 
G92 E0                                     ; zero the extruded length 
G1 X50 E25 F500                            ; Extrude 25mm of filament in a 5cm line. 
G92 E0                                     ; zero the extruded length again 
G1 E-2 F500                                ; Retract a little 
G1 X120 F4000                              ; Quickly wipe away from the filament line`
G92 E0
G92 E0
G1 F2400 E-3
;LAYER_COUNT:66
;LAYER:0
M106 S76.5
M205 X10 Y10
G1 F600 Z0.375
G0 F6000 X88.285 Y83.971 Z0.375
M205 X8 Y8
;TYPE:SKIRT
G1 F600 Z0.3
G1 F2400 E0
G1 F1200 X88.402 Y83.854 E0.00825
G1 X88.959 Y83.354 E0.0456
G1 X89.565 Y82.917 E0.08287
G1 X90.215 Y82.546 E0.12021
G1 X90.901 Y82.247 E0.15755
G1 X91.615 Y82.023 E0.19488
G1 X92.348 Y81.876 E0.23218
G1 X93.352 Y81.804 E0.2824
G1 X116.617 Y81.804 E1.44309
G1 X117.364 Y81.844 E1.48041
G1 X118.102 Y81.963 E1.51771
G1 X118.824 Y82.161 E1.55506
G1 X119.52 Y82.434 E1.59236
G1 X120.183 Y82.781 E1.62969
G1 X120.806 Y83.196 E1.66704
G1 X121.567 Y83.854 E1.71723
G1 X121.684 Y83.971 E1.72548
G1 X122.184 Y84.528 E1.76282
G1 X122.621 Y85.134 E1.8001
G1 X122.992 Y85.784 E1.83744
G1 X123.291 Y86.47 E1.87477
G1 X123.515 Y87.184 E1.91211
G1 X123.662 Y87.917 E1.9494
G1 X123.734 Y88.918 E1.99947
G1 X123.735 Y90.412 E2.07401
G1 X124.018 Y90.598 E2.0909
G1 X124.762 Y91.14 E2.13683
G1 X125.342 Y91.612 E2.17414
G1 X125.868 Y92.144 E2.21146
G1 X126.335 Y92.728 E2.24877
G1 X126.737 Y93.359 E2.28609
G1 X127.069 Y94.029 E2.3234
G1 X127.294 Y94.626 E2.35523
G1 X127.579 Y95.499 E2.40104
G1 X127.773 Y96.221 E2.43834
G1 X127.889 Y96.96 E2.47566
G1 X127.925 Y97.707 E2.51297
G1 X127.881 Y98.454 E2.55031
G1 X127.758 Y99.192 E2.58763
G1 X127.579 Y99.843 E2.62132
G1 X127.294 Y100.716 E2.66713
G1 X127.025 Y101.414 E2.70445
G1 X126.682 Y102.079 E2.74178
G1 X126.27 Y102.704 E2.77913
G1 X125.794 Y103.281 E2.81645
G1 X125.259 Y103.804 E2.85377
G1 X124.762 Y104.202 E2.88554
G1 X124.018 Y104.744 E2.93146
G1 X123.737 Y104.926 E2.94817
G1 X123.736 Y121.079 E3.75404
G1 X123.696 Y121.826 E3.79136
G1 X123.577 Y122.565 E3.82871
G1 X123.379 Y123.286 E3.86601
G1 X123.105 Y123.983 E3.90337
G1 X122.759 Y124.646 E3.94068
G1 X122.344 Y125.268 E3.97799
G1 X121.686 Y126.029 E4.02818
G1 X121.569 Y126.146 E4.03643
G1 X121.012 Y126.646 E4.07378
G1 X120.406 Y127.083 E4.11105
G1 X119.756 Y127.454 E4.14839
G1 X119.07 Y127.753 E4.18573
G1 X118.356 Y127.977 E4.22306
G1 X117.623 Y128.124 E4.26036
G1 X116.619 Y128.196 E4.31058
G1 X93.352 Y128.196 E5.47137
G1 X92.605 Y128.156 E5.50869
G1 X91.867 Y128.037 E5.54599
G1 X91.145 Y127.839 E5.58334
G1 X90.449 Y127.566 E5.62064
G1 X89.786 Y127.219 E5.65797
G1 X89.163 Y126.804 E5.69532
G1 X88.402 Y126.146 E5.74551
G1 X88.285 Y126.029 E5.75376
G1 X87.785 Y125.472 E5.7911
G1 X87.348 Y124.866 E5.82838
G1 X86.977 Y124.216 E5.86572
G1 X86.678 Y123.53 E5.90305
G1 X86.454 Y122.816 E5.94039
G1 X86.307 Y122.083 E5.97768
G1 X86.235 Y121.079 E6.0279
G1 X86.235 Y104.952 E6.83248
G1 X85.954 Y104.768 E6.84924
G1 X85.21 Y104.226 E6.89516
G1 X84.63 Y103.754 E6.93247
G1 X84.104 Y103.222 E6.96979
G1 X83.637 Y102.638 E7.0071
G1 X83.235 Y102.007 E7.04443
G1 X82.903 Y101.337 E7.08173
G1 X82.678 Y100.74 E7.11356
G1 X82.393 Y99.867 E7.15938
G1 X82.199 Y99.145 E7.19668
G1 X82.083 Y98.406 E7.234
G1 X82.047 Y97.659 E7.27131
G1 X82.091 Y96.912 E7.30864
G1 X82.214 Y96.174 E7.34597
G1 X82.393 Y95.523 E7.37965
G1 X82.678 Y94.65 E7.42547
G1 X82.947 Y93.952 E7.46279
G1 X83.29 Y93.287 E7.50012
G1 X83.702 Y92.662 E7.53746
G1 X84.178 Y92.085 E7.57478
G1 X84.713 Y91.562 E7.61211
G1 X85.21 Y91.164 E7.64387
G1 X85.954 Y90.622 E7.6898
G1 X86.235 Y90.44 E7.7065
G1 X86.235 Y88.921 E7.78228
G1 X86.275 Y88.174 E7.8196
G1 X86.394 Y87.436 E7.8569
G1 X86.592 Y86.714 E7.89425
G1 X86.865 Y86.018 E7.93155
G1 X87.212 Y85.355 E7.96888
G1 X87.627 Y84.732 E8.00623
G1 X88.285 Y83.971 E8.05642
M205 X10 Y10
G0 F6000 X88.568 Y84.254
M205 X8 Y8
G1 F1200 X88.685 Y84.137 E8.06467
G1 X89.226 Y83.653 E8.10089
G1 X89.817 Y83.23 E8.13715
G1 X90.451 Y82.876 E8.17338
G1 X91.12 Y82.593 E8.20962
G1 X91.816 Y82.385 E8.24586
G1 X92.531 Y82.255 E8.28211
G1 X93.352 Y82.204 E8.32315
G1 X116.617 Y82.204 E9.48385
G1 X117.342 Y82.244 E9.52007
G1 X118.059 Y82.363 E9.55633
G1 X118.758 Y82.561 E9.59258
G1 X119.431 Y82.834 E9.62881
G1 X120.07 Y83.179 E9.66504
G1 X120.667 Y83.593 E9.70129
G1 X121.284 Y84.137 E9.74233
G1 X121.401 Y84.254 E9.75058
G1 X121.885 Y84.795 E9.7868
G1 X122.308 Y85.386 E9.82306
G1 X122.662 Y86.02 E9.85928
G1 X122.945 Y86.689 E9.89552
G1 X123.153 Y87.385 E9.93176
G1 X123.283 Y88.1 E9.96802
G1 X123.334 Y88.918 E10.00891
G1 X123.335 Y90.623 E10.09397
G1 X123.782 Y90.921 E10.12077
G1 X124.526 Y91.463 E10.1667
G1 X125.089 Y91.923 E10.20297
G1 X125.598 Y92.441 E10.2392
G1 X126.046 Y93.012 E10.27541
G1 X126.43 Y93.629 E10.31167
G1 X126.743 Y94.285 E10.34793
G1 X126.914 Y94.75 E10.37265
G1 X127.199 Y95.623 E10.41846
G1 X127.386 Y96.325 E10.45471
G1 X127.495 Y97.043 E10.49094
G1 X127.524 Y97.769 E10.52719
G1 X127.474 Y98.493 E10.5634
G1 X127.344 Y99.208 E10.59965
G1 X127.199 Y99.719 E10.62615
G1 X126.914 Y100.592 E10.67197
G1 X126.651 Y101.269 E10.7082
G1 X126.315 Y101.913 E10.74444
G1 X125.911 Y102.517 E10.7807
G1 X125.442 Y103.072 E10.81695
G1 X124.915 Y103.572 E10.85319
G1 X124.526 Y103.879 E10.87791
G1 X123.782 Y104.421 E10.92384
G1 X123.337 Y104.709 E10.95028
G1 X123.336 Y121.079 E11.76698
G1 X123.296 Y121.805 E11.80326
G1 X123.177 Y122.521 E11.83947
G1 X122.979 Y123.22 E11.87572
G1 X122.706 Y123.893 E11.91195
G1 X122.361 Y124.532 E11.94818
G1 X121.947 Y125.129 E11.98442
G1 X121.403 Y125.746 E12.02546
G1 X121.286 Y125.863 E12.03372
G1 X120.745 Y126.347 E12.06993
G1 X120.154 Y126.77 E12.10619
G1 X119.52 Y127.124 E12.14242
G1 X118.851 Y127.407 E12.17866
G1 X118.155 Y127.615 E12.2149
G1 X117.44 Y127.745 E12.25116
G1 X116.619 Y127.796 E12.2922
G1 X93.352 Y127.796 E13.45299
G1 X92.627 Y127.756 E13.48922
G1 X91.91 Y127.637 E13.52548
G1 X91.211 Y127.439 E13.56172
G1 X90.538 Y127.166 E13.59796
G1 X89.899 Y126.821 E13.63419
G1 X89.302 Y126.407 E13.67043
G1 X88.685 Y125.863 E13.71147
G1 X88.568 Y125.746 E13.71972
G1 X88.084 Y125.205 E13.75594
G1 X87.661 Y124.614 E13.7922
G1 X87.307 Y123.98 E13.82843
G1 X87.024 Y123.311 E13.86467
G1 X86.816 Y122.615 E13.90091
G1 X86.686 Y121.9 E13.93716
G1 X86.635 Y121.079 E13.9782
G1 X86.635 Y104.741 E14.79331
G1 X86.623 Y104.735 E14.79398
G1 X86.19 Y104.445 E14.81998
G1 X85.446 Y103.903 E14.8659
G1 X84.883 Y103.443 E14.90217
G1 X84.374 Y102.925 E14.9384
G1 X83.926 Y102.354 E14.97461
G1 X83.542 Y101.737 E15.01087
G1 X83.229 Y101.081 E15.04713
G1 X83.058 Y100.616 E15.07185
G1 X82.773 Y99.743 E15.11767
G1 X82.586 Y99.041 E15.15391
G1 X82.477 Y98.323 E15.19014
G1 X82.448 Y97.597 E15.22639
G1 X82.498 Y96.873 E15.2626
G1 X82.628 Y96.158 E15.29885
G1 X82.773 Y95.647 E15.32535
G1 X83.058 Y94.774 E15.37117
G1 X83.321 Y94.097 E15.40741
G1 X83.657 Y93.453 E15.44364
G1 X84.061 Y92.849 E15.4799
G1 X84.53 Y92.294 E15.51615
G1 X85.057 Y91.794 E15.55239
G1 X85.446 Y91.487 E15.57712
G1 X86.19 Y90.945 E15.62304
G1 X86.635 Y90.658 E15.64946
G1 X86.635 Y88.921 E15.73612
G1 X86.675 Y88.196 E15.77234
G1 X86.794 Y87.479 E15.8086
G1 X86.992 Y86.78 E15.84485
G1 X87.265 Y86.107 E15.88108
G1 X87.61 Y85.468 E15.91731
G1 X88.024 Y84.871 E15.95356
G1 X88.568 Y84.254 E15.99459
M205 X10 Y10
G0 F6000 X88.851 Y84.537
M205 X8 Y8
G1 F1200 X88.968 Y84.42 E16.00285
G1 X89.493 Y83.951 E16.03797
G1 X90.068 Y83.545 E16.07309
G1 X90.686 Y83.207 E16.10823
G1 X91.337 Y82.94 E16.14333
G1 X92.015 Y82.75 E16.17846
G1 X92.71 Y82.637 E16.21359
G1 X93.352 Y82.604 E16.24566
G1 X116.617 Y82.604 E17.40636
G1 X117.32 Y82.644 E17.44149
G1 X118.014 Y82.763 E17.47662
G1 X118.689 Y82.961 E17.51171
G1 X119.338 Y83.233 E17.54682
G1 X119.952 Y83.578 E17.58196
G1 X120.523 Y83.989 E17.61706
G1 X121.001 Y84.42 E17.64917
G1 X121.118 Y84.537 E17.65742
G1 X121.587 Y85.062 E17.69254
G1 X121.993 Y85.637 E17.72766
G1 X122.331 Y86.255 E17.7628
G1 X122.598 Y86.906 E17.79791
G1 X122.788 Y87.584 E17.83304
G1 X122.901 Y88.279 E17.86816
G1 X122.934 Y88.918 E17.90009
G1 X122.935 Y90.864 E17.99717
G1 X123.547 Y91.245 E18.03314
G1 X124.291 Y91.787 E18.07906
G1 X124.835 Y92.233 E18.11416
G1 X125.326 Y92.738 E18.1493
G1 X125.756 Y93.295 E18.1844
G1 X126.12 Y93.898 E18.21954
G1 X126.413 Y94.538 E18.25466
G1 X126.534 Y94.874 E18.27248
G1 X126.819 Y95.747 E18.31829
G1 X126.999 Y96.427 E18.35339
G1 X127.101 Y97.124 E18.38853
G1 X127.123 Y97.828 E18.42367
G1 X127.065 Y98.529 E18.45876
G1 X126.928 Y99.22 E18.49391
G1 X126.819 Y99.595 E18.51339
G1 X126.534 Y100.468 E18.55921
G1 X126.278 Y101.124 E18.59434
G1 X125.949 Y101.746 E18.62945
G1 X125.552 Y102.328 E18.66459
G1 X125.091 Y102.86 E18.69971
G1 X124.573 Y103.337 E18.73485
G1 X124.291 Y103.555 E18.75263
G1 X123.547 Y104.097 E18.79855
G1 X122.955 Y104.479 E18.8337
G1 X122.937 Y104.488 E18.83471
G1 X122.936 Y121.079 E19.66243
G1 X122.896 Y121.782 E19.69756
G1 X122.777 Y122.476 E19.73269
G1 X122.579 Y123.152 E19.76784
G1 X122.307 Y123.801 E19.80294
G1 X121.962 Y124.415 E19.83808
G1 X121.55 Y124.986 E19.87321
G1 X121.12 Y125.463 E19.90525
G1 X121.003 Y125.58 E19.9135
G1 X120.478 Y126.049 E19.94863
G1 X119.903 Y126.455 E19.98374
G1 X119.285 Y126.793 E20.01888
G1 X118.634 Y127.06 E20.05399
G1 X117.956 Y127.25 E20.08912
G1 X117.261 Y127.363 E20.12425
G1 X116.619 Y127.396 E20.15632
G1 X93.352 Y127.396 E21.31711
G1 X92.649 Y127.356 E21.35224
G1 X91.955 Y127.237 E21.38737
G1 X91.28 Y127.039 E21.42247
G1 X90.631 Y126.767 E21.45757
G1 X90.017 Y126.422 E21.49271
G1 X89.446 Y126.011 E21.52781
G1 X88.968 Y125.58 E21.55992
G1 X88.851 Y125.463 E21.56818
G1 X88.382 Y124.938 E21.6033
G1 X87.976 Y124.363 E21.63842
G1 X87.638 Y123.745 E21.67356
G1 X87.371 Y123.094 E21.70866
G1 X87.181 Y122.416 E21.74379
G1 X87.068 Y121.721 E21.77892
G1 X87.035 Y121.079 E21.81099
G1 X87.035 Y104.501 E22.63807
G1 X86.425 Y104.121 E22.67393
G1 X85.681 Y103.579 E22.71985
G1 X85.137 Y103.133 E22.75494
G1 X84.646 Y102.628 E22.79008
G1 X84.216 Y102.071 E22.82519
G1 X83.852 Y101.468 E22.86033
G1 X83.559 Y100.828 E22.89545
G1 X83.438 Y100.492 E22.91326
G1 X83.153 Y99.619 E22.95908
G1 X82.973 Y98.939 E22.99417
G1 X82.871 Y98.242 E23.02932
G1 X82.849 Y97.538 E23.06446
G1 X82.907 Y96.837 E23.09955
G1 X83.044 Y96.146 E23.1347
G1 X83.153 Y95.771 E23.15418
G1 X83.438 Y94.898 E23.2
G1 X83.694 Y94.242 E23.23513
G1 X84.023 Y93.62 E23.27023
G1 X84.42 Y93.038 E23.30538
G1 X84.881 Y92.506 E23.3405
G1 X85.399 Y92.029 E23.37563
G1 X85.681 Y91.811 E23.39341
G1 X86.425 Y91.269 E23.43934
G1 X87.017 Y90.887 E23.47449
G1 X87.035 Y90.878 E23.47549
G1 X87.035 Y88.921 E23.57313
G1 X87.075 Y88.218 E23.60826
G1 X87.194 Y87.524 E23.64339
G1 X87.392 Y86.849 E23.67848
G1 X87.664 Y86.2 E23.71359
G1 X88.009 Y85.586 E23.74873
G1 X88.42 Y85.015 E23.78382
G1 X88.851 Y84.537 E23.81594
M205 X10 Y10
G0 F6000 X89.251 Y84.703
M205 X8 Y8
G1 F1200 X89.76 Y84.25 E23.84993
G1 X90.318 Y83.861 E23.88387
G1 X90.918 Y83.539 E23.91784
G1 X91.552 Y83.29 E23.95182
G1 X92.211 Y83.117 E23.98581
G1 X92.885 Y83.023 E24.01976
G1 X93.352 Y83.004 E24.04308
G1 X116.617 Y83.004 E25.20378
G1 X117.297 Y83.044 E25.23776
G1 X117.967 Y83.163 E25.27171
G1 X118.619 Y83.36 E25.30569
G1 X119.243 Y83.632 E25.33965
G1 X119.831 Y83.976 E25.37364
G1 X120.375 Y84.386 E25.40762
G1 X120.835 Y84.82 E25.43918
G1 X121.288 Y85.329 E25.47317
G1 X121.677 Y85.887 E25.50711
G1 X121.999 Y86.487 E25.54108
G1 X122.248 Y87.121 E25.57506
G1 X122.421 Y87.78 E25.60905
G1 X122.515 Y88.454 E25.643
G1 X122.534 Y88.918 E25.66617
G1 X122.535 Y91.092 E25.77463
G1 X123.311 Y91.568 E25.82005
G1 X124.055 Y92.11 E25.86598
G1 X124.581 Y92.543 E25.89997
G1 X125.053 Y93.034 E25.93394
G1 X125.463 Y93.577 E25.96789
G1 X125.808 Y94.164 E26.00186
G1 X126.154 Y94.998 E26.04691
G1 X126.439 Y95.871 E26.09272
G1 X126.612 Y96.53 E26.12671
G1 X126.706 Y97.204 E26.16067
G1 X126.721 Y97.885 E26.19465
G1 X126.656 Y98.562 E26.22858
G1 X126.439 Y99.471 E26.2752
G1 X126.154 Y100.344 E26.32102
G1 X125.905 Y100.978 E26.355
G1 X125.583 Y101.578 E26.38898
G1 X125.194 Y102.136 E26.42291
G1 X124.741 Y102.645 E26.45691
G1 X124.055 Y103.232 E26.50195
G1 X123.311 Y103.774 E26.54787
G1 X122.738 Y104.142 E26.58185
G1 X122.537 Y104.24 E26.593
G1 X122.536 Y121.079 E27.43311
G1 X122.496 Y121.759 E27.46709
G1 X122.377 Y122.429 E27.50104
G1 X122.18 Y123.081 E27.53502
G1 X121.907 Y123.705 E27.569
G1 X121.564 Y124.293 E27.60296
G1 X121.154 Y124.837 E27.63695
G1 X120.72 Y125.297 E27.6685
G1 X120.211 Y125.75 E27.70249
G1 X119.653 Y126.139 E27.73643
G1 X119.053 Y126.461 E27.7704
G1 X118.419 Y126.71 E27.80438
G1 X117.76 Y126.883 E27.83838
G1 X117.086 Y126.977 E27.87233
G1 X116.619 Y126.996 E27.89565
G1 X93.352 Y126.996 E29.05644
G1 X92.672 Y126.956 E29.09042
G1 X92.002 Y126.837 E29.12437
G1 X91.35 Y126.64 E29.15836
G1 X90.726 Y126.368 E29.19232
G1 X90.138 Y126.024 E29.2263
G1 X89.594 Y125.614 E29.26029
G1 X89.134 Y125.18 E29.29184
G1 X88.681 Y124.671 E29.32583
G1 X88.292 Y124.113 E29.35977
G1 X87.97 Y123.513 E29.39374
G1 X87.721 Y122.879 E29.42772
G1 X87.548 Y122.22 E29.46172
G1 X87.454 Y121.546 E29.49567
G1 X87.435 Y121.079 E29.51899
G1 X87.435 Y104.273 E30.35744
G1 X86.661 Y103.798 E30.40275
G1 X85.917 Y103.256 E30.44867
G1 X85.391 Y102.823 E30.48266
G1 X84.919 Y102.332 E30.51664
G1 X84.509 Y101.789 E30.55059
G1 X84.164 Y101.202 E30.58455
G1 X83.818 Y100.368 E30.6296
G1 X83.533 Y99.495 E30.67542
G1 X83.36 Y98.836 E30.70941
G1 X83.266 Y98.162 E30.74336
G1 X83.251 Y97.481 E30.77734
G1 X83.316 Y96.804 E30.81128
G1 X83.533 Y95.895 E30.8579
G1 X83.818 Y95.022 E30.90372
G1 X84.067 Y94.388 E30.9377
G1 X84.389 Y93.788 E30.97167
G1 X84.778 Y93.23 E31.00561
G1 X85.231 Y92.721 E31.0396
G1 X85.917 Y92.134 E31.08465
G1 X86.661 Y91.592 E31.13057
G1 X87.234 Y91.224 E31.16454
G1 X87.435 Y91.126 E31.1757
G1 X87.435 Y88.921 E31.28571
G1 X87.475 Y88.241 E31.31969
G1 X87.594 Y87.571 E31.35364
G1 X87.791 Y86.919 E31.38762
G1 X88.063 Y86.295 E31.42158
G1 X88.407 Y85.707 E31.45557
G1 X88.817 Y85.163 E31.48956
G1 X89.251 Y84.703 E31.52111
M205 X10 Y10
G0 F6000 X89.417 Y85.103
M205 X8 Y8
G1 F1200 X89.534 Y84.986 E31.52936
G1 X90.026 Y84.55 E31.56216
G1 X90.567 Y84.178 E31.59491
G1 X91.149 Y83.874 E31.62767
G1 X91.764 Y83.643 E31.66045
G1 X92.403 Y83.488 E31.69325
G1 X93.352 Y83.404 E31.74078
G1 X116.617 Y83.404 E32.90148
G1 X117.273 Y83.444 E32.93427
G1 X117.919 Y83.563 E32.96704
G1 X118.546 Y83.76 E32.99983
G1 X119.144 Y84.032 E33.0326
G1 X119.705 Y84.374 E33.06538
