;FLAVOR:Marlin
;TIME:3133
;Filament used: 2.39613m
;Layer height: 0.2
;MINX:52.901
;MINY:89.941
;MINZ:0.3
;MAXX:157.126
;MAXY:124.128
;MAXZ:7.175
;Generated with Cura_SteamEngine 4.13.1
M82 ;absolute extrusion mode
G21                                        ; metric values 
G90                                        ; absolute positioning 
M82                                        ; set extruder to absolute mode 
M107                                       ; start with the fan off 
M140 S60.0           ; Start heating the bed 
G4 S60                                     ; wait 1 minute 
M104 S220.0         ; start heating the hot end 
M190 S60.0           ; wait for bed 
M109 S220.0         ; wait for hotend 
M300 S1000 P500                            ; BEEP heating done 
G28 X0 Y10 Z0                              ; move X/Y to min endstops 
M420 S1                                    ; Enable leveling 
M420 Z2.0                                  ; Set leveling fading height to 2 mm 
G0 Z0.15                                   ; lift nozzle a bit 
G92 E0                                     ; zero the extruded length 
G1 X50 E25 F500                            ; Extrude 25mm of filament in a 5cm line. 
G92 E0                                     ; zero the extruded length again 
G1 E-2 F500                                ; Retract a little 
G1 X120 F4000                              ; Quickly wipe away from the filament line`
G92 E0
G92 E0
G1 F2400 E-3
;LAYER_COUNT:35
;LAYER:0
M106 S76.5
M205 X10 Y10
G1 F600 Z0.375
G0 F6000 X58.929 Y92.07 Z0.375
M205 X8 Y8
;TYPE:SKIRT
G1 F600 Z0.3
G1 F2400 E0
G1 F1200 X59.604 Y91.66 E0.0394
G1 X60.316 Y91.319 E0.07879
G1 X61.06 Y91.053 E0.11821
G1 X61.826 Y90.863 E0.15758
G1 X62.608 Y90.751 E0.19699
G1 X63.154 Y90.721 E0.22427
G1 X100.485 Y89.941 E2.08713
G1 X101.274 Y89.964 E2.12651
G1 X102.057 Y90.067 E2.16591
G1 X102.826 Y90.249 E2.20534
G1 X103.572 Y90.508 E2.24473
G1 X104.288 Y90.84 E2.28411
G1 X104.967 Y91.244 E2.32353
G1 X105.602 Y91.714 E2.36294
G1 X106.117 Y92.177 E2.39749
G1 X106.237 Y92.295 E2.40589
G1 X106.771 Y92.877 E2.44529
G1 X107.244 Y93.509 E2.48468
G1 X107.335 Y93.661 E2.49352
G1 X107.491 Y93.41 E2.50826
G1 X107.974 Y92.786 E2.54763
G1 X108.583 Y92.151 E2.59152
G1 X108.711 Y92.032 E2.60024
G1 X109.316 Y91.525 E2.63962
G1 X109.969 Y91.081 E2.67902
G1 X110.664 Y90.705 E2.71844
G1 X111.393 Y90.402 E2.75783
G1 X112.149 Y90.173 E2.79724
G1 X112.924 Y90.023 E2.83662
G1 X113.71 Y89.951 E2.876
G1 X114.589 Y89.966 E2.91986
G1 X115.092 Y90.002 E2.94502
G1 X148.89 Y92.266 E4.63499
G1 X149.675 Y92.359 E4.67442
G1 X150.445 Y92.53 E4.71377
G1 X151.195 Y92.779 E4.7532
G1 X151.916 Y93.102 E4.79262
G1 X152.6 Y93.496 E4.832
G1 X153.241 Y93.958 E4.87142
G1 X153.699 Y94.353 E4.90159
G1 X154.258 Y94.911 E4.941
G1 X154.757 Y95.523 E4.98039
G1 X155.192 Y96.182 E5.01979
G1 X155.558 Y96.882 E5.0592
G1 X155.851 Y97.615 E5.09858
G1 X156.069 Y98.374 E5.13798
G1 X156.164 Y98.848 E5.16209
G1 X157.028 Y103.982 E5.42183
G1 X157.119 Y104.766 E5.46121
G1 X157.126 Y105.666 E5.50611
G1 X157.124 Y105.706 E5.50811
G1 X157.045 Y106.491 E5.54747
G1 X156.917 Y107.141 E5.58052
G1 X155.654 Y112.389 E5.84982
G1 X155.431 Y113.146 E5.88919
G1 X155.204 Y113.724 E5.92017
G1 X154.861 Y114.436 E5.9596
G1 X154.449 Y115.109 E5.99897
G1 X153.97 Y115.737 E6.03838
G1 X153.43 Y116.314 E6.0778
G1 X153.117 Y116.6 E6.09896
G1 X151.342 Y118.136 E6.21606
G1 X150.719 Y118.622 E6.25548
G1 X150.051 Y119.042 E6.29485
G1 X149.343 Y119.393 E6.33428
G1 X148.826 Y119.596 E6.36199
G1 X148.071 Y119.828 E6.40139
G1 X147.296 Y119.981 E6.4408
G1 X146.169 Y120.063 E6.49718
G1 X115.695 Y120.062 E8.01753
G1 X115.526 Y120.327 E8.03321
G1 X115.036 Y120.947 E8.07264
G1 X114.486 Y121.513 E8.11201
G1 X113.763 Y122.11 E8.15879
G1 X113.045 Y122.633 E8.20311
G1 X112.384 Y123.065 E8.2425
G1 X111.683 Y123.428 E8.28189
G1 X110.949 Y123.718 E8.32126
G1 X110.189 Y123.932 E8.36065
G1 X109.411 Y124.069 E8.40006
G1 X108.453 Y124.128 E8.44795
G1 X107.567 Y124.128 E8.49215
G1 X106.778 Y124.088 E8.53156
G1 X105.998 Y123.969 E8.57093
G1 X105.233 Y123.771 E8.61035
G1 X104.493 Y123.497 E8.64972
G1 X103.784 Y123.149 E8.68912
G1 X102.975 Y122.633 E8.737
G1 X102.257 Y122.11 E8.78131
G1 X101.643 Y121.613 E8.82072
G1 X101.082 Y121.057 E8.86013
G1 X100.581 Y120.447 E8.89951
G1 X100.309 Y120.038 E8.92402
G1 X99.958 Y120.02 E8.94155
G1 X63.183 Y116.203 E10.78612
G1 X62.402 Y116.082 E10.82555
G1 X61.638 Y115.883 E10.86494
G1 X60.898 Y115.607 E10.90434
G1 X60.391 Y115.367 E10.93232
G1 X59.706 Y114.974 E10.97172
G1 X59.064 Y114.514 E11.01113
G1 X58.472 Y113.992 E11.0505
G1 X58.074 Y113.574 E11.0793
G1 X54.867 Y109.942 E11.32103
G1 X54.375 Y109.324 E11.36044
G1 X53.948 Y108.66 E11.39982
G1 X53.59 Y107.956 E11.43923
G1 X53.306 Y107.219 E11.47863
G1 X53.097 Y106.458 E11.518
G1 X52.998 Y105.924 E11.5451
G1 X52.91 Y105.139 E11.58451
G1 X52.901 Y104.349 E11.62392
G1 X52.973 Y103.563 E11.6633
G1 X53.124 Y102.788 E11.70269
G1 X53.492 Y101.671 E11.76137
G1 X56.017 Y95.593 E12.08973
G1 X56.356 Y94.88 E12.12911
G1 X56.766 Y94.205 E12.16852
G1 X57.242 Y93.574 E12.20795
G1 X57.779 Y92.996 E12.24731
G1 X58.372 Y92.474 E12.28672
G1 X58.832 Y92.136 E12.3152
G1 X58.929 Y92.07 E12.32106
M205 X10 Y10
G0 F6000 X59.154 Y92.401
M205 X8 Y8
G1 F1200 X59.812 Y92.002 E12.35945
G1 X60.507 Y91.673 E12.39781
G1 X61.233 Y91.419 E12.43618
G1 X61.981 Y91.241 E12.47454
G1 X62.744 Y91.141 E12.51294
G1 X63.162 Y91.121 E12.53381
G1 X100.493 Y90.341 E14.39667
G1 X101.262 Y90.365 E14.43506
G1 X102.024 Y90.468 E14.47342
G1 X102.772 Y90.65 E14.51182
G1 X103.496 Y90.909 E14.55019
G1 X104.19 Y91.241 E14.58857
G1 X104.845 Y91.644 E14.62694
G1 X105.455 Y92.113 E14.66532
G1 X105.836 Y92.463 E14.69114
G1 X105.956 Y92.581 E14.69953
G1 X106.476 Y93.148 E14.73791
G1 X106.934 Y93.766 E14.77629
G1 X107.325 Y94.428 E14.81465
G1 X107.472 Y94.188 E14.82869
G1 X107.888 Y93.541 E14.86707
G1 X108.369 Y92.941 E14.90543
G1 X108.855 Y92.444 E14.94011
G1 X108.983 Y92.325 E14.94883
G1 X109.573 Y91.832 E14.98719
G1 X110.211 Y91.402 E15.02557
G1 X110.89 Y91.04 E15.06396
G1 X111.603 Y90.752 E15.10233
G1 X112.342 Y90.538 E15.14071
G1 X113.099 Y90.403 E15.17907
G1 X113.866 Y90.347 E15.21744
G1 X114.56 Y90.365 E15.25208
G1 X115.089 Y90.404 E15.27854
G1 X148.864 Y92.666 E16.96736
G1 X149.627 Y92.757 E17.00569
G1 X150.377 Y92.927 E17.04406
G1 X151.106 Y93.174 E17.08246
G1 X151.805 Y93.495 E17.12083
G1 X152.466 Y93.887 E17.15917
G1 X153.328 Y94.557 E17.21364
G1 X153.431 Y94.65 E17.22057
G1 X153.974 Y95.194 E17.25891
G1 X154.458 Y95.792 E17.29729
G1 X154.878 Y96.437 E17.33569
G1 X155.228 Y97.122 E17.37407
G1 X155.505 Y97.839 E17.41242
G1 X155.769 Y98.914 E17.46765
G1 X156.633 Y104.048 E17.72738
G1 X156.721 Y104.812 E17.76575
G1 X156.727 Y105.646 E17.80736
G1 X156.725 Y105.686 E17.80936
G1 X156.646 Y106.451 E17.84773
G1 X156.529 Y107.047 E17.87803
G1 X155.266 Y112.295 E18.14733
G1 X155.047 Y113.033 E18.18574
G1 X154.835 Y113.569 E18.21449
G1 X154.5 Y114.262 E18.25289
G1 X154.096 Y114.916 E18.29125
G1 X153.626 Y115.525 E18.32963
G1 X152.855 Y116.298 E18.38409
G1 X151.08 Y117.834 E18.5012
G1 X150.473 Y118.306 E18.53956
G1 X149.821 Y118.713 E18.57791
G1 X149.129 Y119.05 E18.61631
G1 X148.69 Y119.22 E18.6398
G1 X147.954 Y119.444 E18.67818
G1 X147.199 Y119.591 E18.71655
G1 X146.169 Y119.663 E18.76807
G1 X115.477 Y119.662 E20.2993
G1 X115.165 Y120.144 E20.32794
G1 X114.683 Y120.743 E20.3663
G1 X114.14 Y121.288 E20.40468
G1 X113.528 Y121.786 E20.44405
G1 X112.81 Y122.309 E20.48836
G1 X112.166 Y122.729 E20.52672
G1 X111.481 Y123.08 E20.56512
G1 X110.764 Y123.358 E20.60349
G1 X110.022 Y123.56 E20.64185
G1 X109.262 Y123.684 E20.68027
G1 X108.453 Y123.728 E20.72069
G1 X107.567 Y123.728 E20.76489
G1 X106.799 Y123.688 E20.80326
G1 X106.039 Y123.569 E20.84164
G1 X105.296 Y123.371 E20.88
G1 X104.577 Y123.097 E20.91839
G1 X103.891 Y122.75 E20.95674
G1 X103.21 Y122.309 E20.99722
G1 X102.492 Y121.786 E21.04154
G1 X101.895 Y121.302 E21.07988
G1 X101.351 Y120.758 E21.11826
G1 X100.867 Y120.16 E21.15664
G1 X100.534 Y119.65 E21.18703
G1 X99.999 Y119.622 E21.21376
G1 X63.224 Y115.805 E23.05833
G1 X62.464 Y115.686 E23.09671
G1 X61.721 Y115.489 E23.13506
G1 X61.002 Y115.216 E23.17343
G1 X60.572 Y115.01 E23.19721
G1 X59.905 Y114.627 E23.23559
G1 X59.282 Y114.176 E23.27396
G1 X58.709 Y113.664 E23.31229
G1 X58.374 Y113.309 E23.33664
G1 X55.167 Y109.677 E23.57837
G1 X54.688 Y109.075 E23.61676
G1 X54.275 Y108.426 E23.65513
G1 X53.931 Y107.738 E23.69351
G1 X53.661 Y107.018 E23.73187
G1 X53.411 Y105.975 E23.78538
G1 X53.392 Y105.859 E23.79125
G1 X53.308 Y105.095 E23.82959
G1 X53.303 Y104.326 E23.86796
G1 X53.378 Y103.56 E23.90636
G1 X53.532 Y102.806 E23.94475
G1 X53.861 Y101.824 E23.99642
G1 X56.386 Y95.746 E24.32478
G1 X56.718 Y95.052 E24.36316
G1 X57.12 Y94.396 E24.40155
G1 X57.587 Y93.786 E24.43987
G1 X58.116 Y93.227 E24.47827
G1 X58.7 Y92.726 E24.51666
G1 X59.154 Y92.401 E24.54451
M205 X10 Y10
G0 F6000 X59.379 Y92.732
M205 X8 Y8
G1 F1200 X60.019 Y92.344 E24.58185
G1 X60.697 Y92.028 E24.61917
G1 X61.405 Y91.785 E24.65652
G1 X62.134 Y91.62 E24.69381
G1 X63.171 Y91.521 E24.74578
G1 X100.502 Y90.741 E26.60864
G1 X101.249 Y90.765 E26.64592
G1 X101.99 Y90.869 E26.68325
G1 X102.716 Y91.051 E26.72059
G1 X103.418 Y91.31 E26.75793
G1 X104.088 Y91.642 E26.79523
G1 X104.719 Y92.044 E26.83256
G1 X105.556 Y92.748 E26.88712
G1 X105.676 Y92.866 E26.89552
G1 X106.181 Y93.418 E26.93284
G1 X106.623 Y94.021 E26.97014
G1 X106.999 Y94.668 E27.00748
G1 X107.254 Y95.238 E27.03863
G1 X107.415 Y95.238 E27.04666
G1 X107.524 Y94.961 E27.06151
G1 X107.871 Y94.298 E27.09885
G1 X108.286 Y93.675 E27.13619
G1 X108.765 Y93.101 E27.17349
G1 X109.128 Y92.737 E27.19914
G1 X109.256 Y92.618 E27.20786
G1 X109.83 Y92.139 E27.24516
G1 X110.452 Y91.724 E27.28246
G1 X111.115 Y91.377 E27.3198
G1 X111.811 Y91.103 E27.35711
G1 X112.533 Y90.905 E27.39446
G1 X113.271 Y90.785 E27.43177
G1 X114.018 Y90.745 E27.46909
G1 X114.531 Y90.764 E27.4947
G1 X115.039 Y90.801 E27.52011
G1 X148.837 Y93.065 E29.21008
G1 X149.58 Y93.154 E29.24741
G1 X150.308 Y93.323 E29.2847
G1 X151.015 Y93.568 E29.32203
G1 X151.691 Y93.888 E29.35934
G1 X152.33 Y94.277 E29.39666
G1 X153.06 Y94.853 E29.44306
G1 X153.163 Y94.946 E29.44998
G1 X153.691 Y95.477 E29.48734
G1 X154.159 Y96.06 E29.52464
G1 X154.562 Y96.69 E29.56195
G1 X154.895 Y97.36 E29.59928
G1 X155.156 Y98.061 E29.63659
G1 X155.375 Y98.98 E29.68373
G1 X156.239 Y104.114 E29.94347
G1 X156.323 Y104.858 E29.98082
G1 X156.327 Y105.626 E30.01914
G1 X156.325 Y105.666 E30.02113
G1 X156.248 Y106.41 E30.05845
G1 X156.14 Y106.954 E30.08612
G1 X154.877 Y112.202 E30.35542
G1 X154.663 Y112.919 E30.39275
G1 X154.466 Y113.414 E30.41933
G1 X154.14 Y114.087 E30.45664
G1 X153.744 Y114.722 E30.49397
G1 X153.282 Y115.31 E30.53128
G1 X152.594 Y115.995 E30.57972
G1 X150.819 Y117.531 E30.69683
G1 X150.228 Y117.99 E30.73416
G1 X149.591 Y118.383 E30.7715
G1 X148.623 Y118.819 E30.82447
G1 X148.554 Y118.844 E30.82813
G1 X147.838 Y119.061 E30.86545
G1 X147.103 Y119.2 E30.90277
G1 X146.169 Y119.263 E30.94948
G1 X115.253 Y119.262 E32.49188
G1 X115.216 Y119.334 E32.49592
G1 X114.805 Y119.959 E32.53324
G1 X114.33 Y120.537 E32.57056
G1 X113.795 Y121.06 E32.60789
G1 X113.292 Y121.463 E32.64005
G1 X112.574 Y121.986 E32.68436
G1 X111.947 Y122.394 E32.72168
G1 X111.28 Y122.732 E32.75899
G1 X110.58 Y122.997 E32.79633
G1 X109.857 Y123.186 E32.83361
G1 X109.117 Y123.296 E32.87094
G1 X108.453 Y123.328 E32.9041
G1 X107.567 Y123.328 E32.94831
G1 X106.82 Y123.288 E32.98563
G1 X106.082 Y123.169 E33.02292
G1 X105.36 Y122.971 E33.06027
G1 X104.664 Y122.698 E33.09757
G1 X104.001 Y122.351 E33.13491
G1 X103.446 Y121.986 E33.16805
G1 X102.728 Y121.463 E33.21236
G1 X102.147 Y120.991 E33.24971
G1 X101.621 Y120.46 E33.287
G1 X101.154 Y119.875 E33.32434
G1 X100.763 Y119.262 E33.36062
G1 X100.04 Y119.225 E33.39674
G1 X63.265 Y115.408 E35.2413
G1 X62.526 Y115.291 E35.27863
G1 X61.804 Y115.096 E35.31594
G1 X60.82 Y114.687 E35.36911
G1 X60.753 Y114.653 E35.37286
G1 X60.105 Y114.28 E35.41016
G1 X59.501 Y113.839 E35.44747
G1 X58.947 Y113.336 E35.4848
G1 X58.674 Y113.044 E35.50474
G1 X55.467 Y109.412 E35.74647
G1 X55.002 Y108.826 E35.78379
G1 X54.603 Y108.193 E35.82113
G1 X54.274 Y107.522 E35.85841
G1 X54.018 Y106.819 E35.89574
G1 X53.806 Y105.91 E35.9423
G1 X53.787 Y105.794 E35.94817
G1 X53.706 Y105.051 E35.98546
G1 X53.704 Y104.303 E36.02277
G1 X53.783 Y103.559 E36.0601
G1 X53.94 Y102.827 E36.09745
G1 X54.231 Y101.977 E36.14227
G1 X56.756 Y95.899 E36.47063
G1 X57.079 Y95.225 E36.50792
G1 X57.473 Y94.589 E36.54524
G1 X57.932 Y93.998 E36.58258
G1 X58.452 Y93.46 E36.61991
G1 X59.282 Y92.798 E36.67287
G1 X59.379 Y92.732 E36.67873
M205 X10 Y10
G0 F6000 X59.604 Y93.062
M205 X8 Y8
G1 F1200 X60.226 Y92.687 E36.71496
G1 X60.886 Y92.383 E36.75122
G1 X61.575 Y92.153 E36.78745
G1 X62.285 Y92 E36.82369
G1 X63.179 Y91.92 E36.86847
G1 X100.51 Y91.14 E38.73133
G1 X101.236 Y91.165 E38.76757
G1 X101.955 Y91.27 E38.80382
G1 X102.658 Y91.452 E38.84005
G1 X103.337 Y91.711 E38.87631
G1 X103.983 Y92.043 E38.91254
G1 X104.588 Y92.444 E38.94875
G1 X105.276 Y93.033 E38.99394
G1 X105.396 Y93.151 E39.00233
G1 X105.885 Y93.688 E39.03857
G1 X106.312 Y94.276 E39.07482
G1 X106.672 Y94.906 E39.11102
G1 X106.96 Y95.573 E39.14727
G1 X106.98 Y95.638 E39.15066
G1 X107.685 Y95.638 E39.18584
G1 X107.924 Y95.05 E39.2175
G1 X108.269 Y94.411 E39.25373
G1 X108.683 Y93.814 E39.28998
G1 X109.4 Y93.03 E39.34298
G1 X109.528 Y92.911 E39.3517
G1 X110.087 Y92.447 E39.38795
G1 X110.693 Y92.046 E39.4242
G1 X111.339 Y91.715 E39.46041
G1 X112.018 Y91.457 E39.49665
G1 X112.721 Y91.275 E39.53288
G1 X113.44 Y91.171 E39.56912
G1 X114.502 Y91.162 E39.62211
G1 X115.051 Y91.203 E39.64958
G1 X148.81 Y93.464 E41.33759
G1 X149.531 Y93.552 E41.37383
G1 X150.238 Y93.719 E41.41007
G1 X150.922 Y93.963 E41.4463
G1 X151.576 Y94.28 E41.48256
G1 X152.19 Y94.668 E41.5188
G1 X152.792 Y95.15 E41.55727
G1 X152.895 Y95.243 E41.5642
G1 X153.407 Y95.759 E41.60046
G1 X153.858 Y96.328 E41.63669
G1 X154.245 Y96.943 E41.67294
G1 X154.561 Y97.597 E41.70918
G1 X154.804 Y98.281 E41.74539
G1 X154.98 Y99.047 E41.7846
G1 X155.844 Y104.181 E42.04434
G1 X155.925 Y104.903 E42.08059
G1 X155.928 Y105.606 E42.11566
G1 X155.926 Y105.646 E42.11766
G1 X155.85 Y106.368 E42.15388
G1 X155.751 Y106.86 E42.17892
G1 X154.488 Y112.108 E42.44821
G1 X154.155 Y113.121 E42.50141
G1 X154.097 Y113.259 E42.50888
G1 X153.78 Y113.912 E42.5451
G1 X153.392 Y114.527 E42.58137
G1 X152.939 Y115.095 E42.61762
G1 X152.332 Y115.693 E42.66013
G1 X150.557 Y117.229 E42.77724
G1 X149.982 Y117.673 E42.81348
G1 X149.362 Y118.052 E42.84974
G1 X148.486 Y118.443 E42.8976
G1 X148.417 Y118.468 E42.90126
G1 X147.722 Y118.678 E42.93748
G1 X147.007 Y118.81 E42.97375
G1 X146.169 Y118.863 E43.01565
G1 X115.009 Y118.862 E44.57022
G1 X114.849 Y119.169 E44.5875
G1 X114.445 Y119.773 E44.62375
G1 X113.977 Y120.328 E44.65997
G1 X113.451 Y120.829 E44.69621
G1 X113.057 Y121.14 E44.72125
G1 X112.339 Y121.663 E44.76557
G1 X111.729 Y122.057 E44.8018
G1 X111.08 Y122.383 E44.83803
G1 X110.398 Y122.635 E44.87431
G1 X109.694 Y122.81 E44.9105
G1 X108.974 Y122.907 E44.94674
G1 X108.453 Y122.928 E44.97276
G1 X107.567 Y122.928 E45.01696
G1 X106.842 Y122.888 E45.05319
G1 X106.125 Y122.769 E45.08945
G1 X105.426 Y122.571 E45.12569
G1 X104.753 Y122.298 E45.16192
G1 X104.114 Y121.953 E45.19815
G1 X103.681 Y121.663 E45.22415
G1 X102.963 Y121.14 E45.26847
G1 X102.4 Y120.68 E45.30474
G1 X101.892 Y120.162 E45.34094
G1 X101.443 Y119.591 E45.37718
G1 X101.06 Y118.974 E45.41341
