;FLAVOR:Marlin
;TIME:5548
;Filament used: 4.55704m
;Layer height: 0.2
;MINX:57.567
;MINY:78.658
;MINZ:0.3
;MAXX:152.433
;MAXY:131.342
;MAXZ:13.975
;Generated with Cura_SteamEngine 4.13.1
M82 ;absolute extrusion mode
G21                                        ; metric values 
G90                                        ; absolute positioning 
M82                                        ; set extruder to absolute mode 
M107                                       ; start with the fan off 
M140 S60.0           ; Start heating the bed 
G4 S60                                     ; wait 1 minute 
M104 S220.0         ; start heating the hot end 
M190 S60.0           ; wait for bed 
M109 S220.0         ; wait for hotend 
M300 S1000 P500                            ; BEEP heating done 
G28 X0 Y10 Z0                              ; move X/Y to min endstops 
M420 S1                                    ; Enable leveling 
M420 Z2.0                                  ; Set leveling fading height to 2 mm 
G0 Z0.15                                   ; lift nozzle a bit 
G92 E0                                     ; zero the extruded length 
G1 X50 E25 F500                            ; Extrude 25mm of filament in a 5cm line. 
G92 E0                                     ; zero the extruded length again 
G1 E-2 F500                                ; Retract a little 
G1 X120 F4000                              ; Quickly wipe away from the filament line`
G92 E0
G92 E0
G1 F2400 E-3
;LAYER_COUNT:69
;LAYER:0
M106 S76.5
M205 X10 Y10
G1 F600 Z0.375
G0 F6000 X81.704 Y80.786 Z0.375
M205 X8 Y8
;TYPE:SKIRT
G1 F600 Z0.3
G1 F2400 E0
G1 F1200 X82.308 Y80.278 E0.03937
G1 X82.961 Y79.833 E0.0788
G1 X83.786 Y79.396 E0.12538
G1 X83.865 Y79.36 E0.12971
G1 X84.599 Y79.07 E0.16908
G1 X85.359 Y78.855 E0.20849
G1 X86.136 Y78.718 E0.24785
G1 X87.099 Y78.658 E0.29599
G1 X116.139 Y78.658 E1.7448
G1 X116.928 Y78.698 E1.78421
G1 X117.708 Y78.817 E1.82358
G1 X118.796 Y79.125 E1.87999
G1 X118.865 Y79.15 E1.88365
G1 X119.593 Y79.456 E1.92305
G1 X120.286 Y79.834 E1.96243
G1 X120.938 Y80.28 E2.00184
G1 X121.326 Y80.597 E2.02684
G1 X149.715 Y105.283 E3.90375
G1 X150.284 Y105.831 E3.94317
G1 X150.795 Y106.433 E3.98256
G1 X151.242 Y107.084 E4.02196
G1 X151.695 Y107.935 E4.07006
G1 X151.731 Y108.014 E4.07439
G1 X152.021 Y108.748 E4.11376
G1 X152.236 Y109.508 E4.15317
G1 X152.373 Y110.285 E4.19253
G1 X152.433 Y111.248 E4.24067
G1 X152.433 Y116.617 E4.50853
G1 X152.393 Y117.406 E4.54794
G1 X152.274 Y118.186 E4.58731
G1 X152.076 Y118.951 E4.62673
G1 X151.889 Y119.479 E4.65467
G1 X151.861 Y119.55 E4.65848
G1 X151.535 Y120.269 E4.69787
G1 X151.137 Y120.951 E4.73726
G1 X150.673 Y121.59 E4.77666
G1 X150.27 Y122.05 E4.80717
G1 X146.804 Y125.712 E5.05873
G1 X146.047 Y126.413 E5.1102
G1 X146.026 Y126.43 E5.11155
G1 X145.237 Y126.991 E5.15985
G1 X140.154 Y130.152 E5.45848
G1 X139.463 Y130.534 E5.49787
G1 X138.737 Y130.845 E5.53727
G1 X138.138 Y131.039 E5.56868
G1 X138.088 Y131.053 E5.57127
G1 X137.318 Y131.227 E5.61066
G1 X136.534 Y131.323 E5.65006
G1 X135.985 Y131.342 E5.67747
G1 X112.018 Y131.342 E6.87319
G1 X111.229 Y131.302 E6.9126
G1 X110.449 Y131.183 E6.95197
G1 X110.128 Y131.1 E6.96851
G1 X109.829 Y131.178 E6.98392
G1 X109.049 Y131.3 E7.02331
G1 X108.238 Y131.342 E7.06383
G1 X87.445 Y131.341 E8.10119
G1 X86.656 Y131.301 E8.14061
G1 X85.875 Y131.181 E8.18003
G1 X85.111 Y130.984 E8.21939
G1 X84.642 Y130.81 E8.24435
G1 X83.494 Y130.81 E8.30162
G1 X82.82 Y131.04 E8.33715
G1 X82.051 Y131.219 E8.37654
G1 X81.267 Y131.319 E8.41598
G1 X80.672 Y131.342 E8.44568
G1 X74.08 Y131.342 E8.77456
G1 X73.291 Y131.302 E8.81397
G1 X72.511 Y131.183 E8.85334
G1 X71.541 Y130.917 E8.90352
G1 X71.48 Y130.896 E8.90674
G1 X70.747 Y130.602 E8.94614
G1 X70.048 Y130.235 E8.98552
G1 X69.32 Y129.747 E9.02925
G1 X65.482 Y126.85 E9.26915
G1 X65.008 Y126.461 E9.29975
G1 X61.606 Y123.446 E9.52653
G1 X60.841 Y122.667 E9.581
G1 X60.818 Y122.64 E9.58277
G1 X60.337 Y122.014 E9.62216
G1 X59.937 Y121.368 E9.66007
G1 X58.56 Y118.888 E9.80159
G1 X58.212 Y118.179 E9.84099
G1 X57.832 Y117.071 E9.89943
G1 X57.82 Y117.025 E9.9018
G1 X57.659 Y116.252 E9.94119
G1 X57.578 Y115.466 E9.98062
G1 X57.567 Y115.056 E10.00108
G1 X57.567 Y111.239 E10.19151
G1 X57.607 Y110.45 E10.23092
G1 X57.726 Y109.67 E10.27029
G1 X57.924 Y108.905 E10.30971
G1 X58.118 Y108.361 E10.33853
G1 X58.145 Y108.293 E10.34218
G1 X58.473 Y107.574 E10.3816
G1 X58.872 Y106.893 E10.42098
G1 X59.528 Y106.03 E10.47506
G1 X81.154 Y81.353 E12.11207
G1 X81.704 Y80.786 E12.15148
M205 X10 Y10
G0 F6000 X81.991 Y81.065
M205 X8 Y8
G1 F1200 X82.582 Y80.573 E12.18984
G1 X83.22 Y80.144 E12.2282
G1 X83.951 Y79.76 E12.2694
G1 X84.03 Y79.724 E12.27373
G1 X84.746 Y79.442 E12.31212
G1 X85.487 Y79.236 E12.35049
G1 X86.245 Y79.107 E12.38885
G1 X87.099 Y79.058 E12.43153
G1 X116.139 Y79.058 E13.88034
G1 X116.907 Y79.098 E13.9187
G1 X117.667 Y79.217 E13.95708
G1 X118.66 Y79.501 E14.00861
G1 X118.729 Y79.526 E14.01227
G1 X119.437 Y79.825 E14.05062
G1 X120.111 Y80.196 E14.089
G1 X120.743 Y80.635 E14.12739
G1 X121.064 Y80.899 E14.14812
G1 X149.453 Y105.585 E16.02504
G1 X150.006 Y106.119 E16.06339
G1 X150.501 Y106.708 E16.10178
G1 X150.932 Y107.345 E16.14015
G1 X151.331 Y108.1 E16.18275
G1 X151.367 Y108.179 E16.18708
G1 X151.649 Y108.895 E16.22548
G1 X151.855 Y109.636 E16.26385
G1 X151.984 Y110.394 E16.30221
G1 X152.033 Y111.248 E16.34488
G1 X152.033 Y116.617 E16.61274
G1 X151.993 Y117.385 E16.65111
G1 X151.874 Y118.145 E16.68949
G1 X151.676 Y118.888 E16.72785
G1 X151.489 Y119.403 E16.75519
G1 X151.17 Y120.103 E16.79357
G1 X150.78 Y120.766 E16.83194
G1 X150.324 Y121.385 E16.8703
G1 X149.979 Y121.775 E16.89628
G1 X146.513 Y125.437 E17.14783
G1 X145.795 Y126.102 E17.19665
G1 X145.774 Y126.119 E17.198
G1 X145.026 Y126.651 E17.2438
G1 X139.943 Y129.812 E17.54243
G1 X139.269 Y130.184 E17.58083
G1 X138.561 Y130.483 E17.61918
G1 X138.03 Y130.654 E17.64701
G1 X137.98 Y130.668 E17.6496
G1 X137.23 Y130.837 E17.68795
G1 X136.466 Y130.926 E17.72633
G1 X135.985 Y130.942 E17.75034
G1 X112.018 Y130.942 E18.94606
G1 X111.25 Y130.902 E18.98442
G1 X110.49 Y130.783 E19.0228
G1 X110.128 Y130.687 E19.04149
G1 X109.728 Y130.791 E19.06211
G1 X108.967 Y130.906 E19.1005
G1 X108.238 Y130.942 E19.13692
G1 X87.445 Y130.941 E20.17429
G1 X86.677 Y130.901 E20.21265
G1 X85.917 Y130.781 E20.25104
G1 X85.173 Y130.584 E20.28944
G1 X84.717 Y130.41 E20.31379
G1 X83.418 Y130.41 E20.37859
G1 X83.344 Y130.443 E20.38264
G1 X82.613 Y130.683 E20.42102
G1 X81.862 Y130.846 E20.45936
G1 X81.097 Y130.93 E20.49776
G1 X80.672 Y130.942 E20.51897
G1 X74.08 Y130.942 E20.84784
G1 X73.312 Y130.902 E20.88621
G1 X72.552 Y130.783 E20.92459
G1 X71.671 Y130.539 E20.9702
G1 X71.61 Y130.518 E20.97342
G1 X70.897 Y130.23 E21.01178
G1 X70.217 Y129.87 E21.05017
G1 X69.561 Y129.427 E21.08966
G1 X65.723 Y126.53 E21.32956
G1 X65.273 Y126.162 E21.35856
G1 X61.871 Y123.147 E21.58535
G1 X61.146 Y122.408 E21.637
G1 X61.123 Y122.381 E21.63877
G1 X60.655 Y121.77 E21.67717
G1 X60.286 Y121.174 E21.71214
G1 X58.909 Y118.694 E21.85366
G1 X58.571 Y118.003 E21.89204
G1 X58.219 Y116.97 E21.94649
G1 X58.207 Y116.924 E21.94886
G1 X58.051 Y116.171 E21.98722
G1 X57.967 Y115.056 E22.04301
G1 X57.967 Y111.239 E22.23344
G1 X58.007 Y110.471 E22.27181
G1 X58.126 Y109.711 E22.31018
G1 X58.324 Y108.968 E22.34855
G1 X58.516 Y108.44 E22.37658
G1 X58.837 Y107.741 E22.41495
G1 X59.228 Y107.079 E22.45331
G1 X59.829 Y106.294 E22.50263
G1 X81.455 Y81.617 E24.13964
G1 X81.991 Y81.065 E24.17802
M205 X10 Y10
G0 F6000 X82.278 Y81.345
M205 X8 Y8
G1 F1200 X82.854 Y80.868 E24.21534
G1 X83.479 Y80.456 E24.25268
G1 X84.117 Y80.124 E24.28856
G1 X84.196 Y80.088 E24.2929
G1 X84.893 Y79.815 E24.33024
G1 X85.614 Y79.617 E24.36754
G1 X86.353 Y79.498 E24.40489
G1 X87.099 Y79.458 E24.44216
G1 X116.139 Y79.458 E25.89097
G1 X116.886 Y79.498 E25.92829
G1 X117.624 Y79.617 E25.96559
G1 X118.524 Y79.877 E26.01232
G1 X118.593 Y79.902 E26.01598
G1 X119.281 Y80.194 E26.05327
G1 X119.935 Y80.558 E26.09061
G1 X120.801 Y81.201 E26.14443
G1 X149.19 Y105.887 E28.02134
G1 X149.728 Y106.407 E28.05867
G1 X150.207 Y106.982 E28.09601
G1 X150.621 Y107.604 E28.13328
G1 X150.967 Y108.266 E28.17055
G1 X151.003 Y108.345 E28.17488
G1 X151.276 Y109.042 E28.21223
G1 X151.474 Y109.763 E28.24953
G1 X151.593 Y110.502 E28.28687
G1 X151.633 Y111.248 E28.32415
G1 X151.633 Y116.617 E28.59201
G1 X151.593 Y117.364 E28.62933
G1 X151.474 Y118.102 E28.66662
G1 X151.276 Y118.824 E28.70397
G1 X151.117 Y119.256 E28.72694
G1 X150.806 Y119.936 E28.76424
G1 X150.424 Y120.579 E28.80156
G1 X149.975 Y121.178 E28.83891
G1 X149.689 Y121.5 E28.86039
G1 X146.223 Y125.162 E29.11195
G1 X145.543 Y125.791 E29.15816
G1 X145.522 Y125.808 E29.15951
G1 X144.815 Y126.311 E29.2028
G1 X139.732 Y129.472 E29.50143
G1 X139.076 Y129.833 E29.53878
G1 X138.386 Y130.121 E29.57608
G1 X137.872 Y130.283 E29.60297
G1 X137.142 Y130.446 E29.64029
G1 X136.399 Y130.53 E29.67759
G1 X135.985 Y130.542 E29.69826
G1 X112.018 Y130.542 E30.89397
G1 X111.271 Y130.502 E30.9313
G1 X110.533 Y130.383 E30.96859
G1 X110.13 Y130.272 E30.98944
G1 X109.627 Y130.403 E31.01538
G1 X108.887 Y130.512 E31.05269
G1 X108.238 Y130.542 E31.08511
G1 X87.445 Y130.541 E32.12247
G1 X86.698 Y130.501 E32.1598
G1 X85.959 Y130.381 E32.19715
G1 X85.238 Y130.184 E32.23444
G1 X84.795 Y130.01 E32.25818
G1 X83.327 Y130.01 E32.33142
G1 X83.123 Y130.099 E32.34252
G1 X82.409 Y130.323 E32.37986
G1 X81.676 Y130.47 E32.41716
G1 X80.672 Y130.542 E32.46737
G1 X74.08 Y130.542 E32.79625
G1 X73.333 Y130.502 E32.83357
G1 X72.595 Y130.383 E32.87087
G1 X71.801 Y130.161 E32.912
G1 X71.74 Y130.14 E32.91522
G1 X71.047 Y129.859 E32.95252
G1 X70.388 Y129.505 E32.98985
G1 X69.802 Y129.108 E33.02516
G1 X65.964 Y126.211 E33.26506
G1 X65.538 Y125.863 E33.2925
G1 X62.136 Y122.848 E33.51929
G1 X61.45 Y122.148 E33.56819
G1 X61.427 Y122.121 E33.56996
G1 X60.973 Y121.527 E33.60726
G1 X60.636 Y120.98 E33.63931
G1 X59.259 Y118.5 E33.78083
G1 X58.931 Y117.828 E33.81814
G1 X58.606 Y116.869 E33.86866
G1 X58.594 Y116.823 E33.87103
G1 X58.444 Y116.09 E33.90836
G1 X58.367 Y115.056 E33.96009
G1 X58.367 Y111.239 E34.15052
G1 X58.407 Y110.492 E34.18784
G1 X58.526 Y109.754 E34.22513
G1 X58.724 Y109.032 E34.26248
G1 X58.888 Y108.588 E34.2861
G1 X59.201 Y107.908 E34.32344
G1 X59.584 Y107.266 E34.36074
G1 X60.13 Y106.557 E34.40539
G1 X81.756 Y81.88 E36.04239
G1 X82.278 Y81.345 E36.07968
M205 X10 Y10
G0 F6000 X82.564 Y81.625
M205 X8 Y8
G1 F1200 X83.126 Y81.165 E36.11592
G1 X83.736 Y80.769 E36.1522
G1 X84.283 Y80.488 E36.18288
G1 X84.362 Y80.452 E36.18721
G1 X85.039 Y80.188 E36.22346
G1 X85.74 Y79.999 E36.25969
G1 X86.458 Y79.889 E36.29592
G1 X87.099 Y79.858 E36.32794
G1 X116.139 Y79.858 E37.77675
G1 X116.864 Y79.898 E37.81298
G1 X117.581 Y80.017 E37.84924
G1 X118.387 Y80.253 E37.89114
G1 X118.456 Y80.278 E37.8948
G1 X119.125 Y80.562 E37.93106
G1 X119.757 Y80.919 E37.96727
G1 X120.539 Y81.503 E38.01597
G1 X148.928 Y106.189 E39.89288
G1 X149.449 Y106.695 E39.92912
G1 X149.911 Y107.255 E39.96533
G1 X150.309 Y107.863 E40.00159
G1 X150.603 Y108.432 E40.03354
G1 X150.639 Y108.511 E40.03787
G1 X150.903 Y109.188 E40.07413
G1 X151.092 Y109.889 E40.11035
G1 X151.202 Y110.607 E40.14659
G1 X151.233 Y111.248 E40.1786
G1 X151.233 Y116.617 E40.44646
G1 X151.193 Y117.342 E40.48269
G1 X151.074 Y118.059 E40.51895
G1 X150.773 Y119.038 E40.57005
G1 X150.745 Y119.109 E40.57386
G1 X150.442 Y119.769 E40.61009
G1 X150.068 Y120.392 E40.64634
G1 X149.398 Y121.225 E40.69967
G1 X145.932 Y124.887 E40.95123
G1 X145.292 Y125.48 E40.99476
G1 X145.271 Y125.497 E40.99611
G1 X144.603 Y125.972 E41.037
G1 X139.52 Y129.133 E41.33563
G1 X138.883 Y129.482 E41.37187
G1 X138.212 Y129.759 E41.40808
G1 X137.765 Y129.898 E41.43144
G1 X137.055 Y130.055 E41.46771
G1 X135.985 Y130.142 E41.52127
G1 X112.018 Y130.142 E42.71699
G1 X111.293 Y130.102 E42.75322
G1 X110.576 Y129.983 E42.78948
G1 X110.136 Y129.858 E42.8123
G1 X109.527 Y130.015 E42.84367
G1 X108.808 Y130.117 E42.8799
G1 X108.238 Y130.142 E42.90837
G1 X87.445 Y130.141 E43.94574
G1 X86.719 Y130.101 E43.98201
G1 X86.003 Y129.982 E44.01822
G1 X85.304 Y129.784 E44.05447
G1 X84.875 Y129.61 E44.07756
G1 X83.244 Y129.609 E44.15894
G1 X82.904 Y129.753 E44.17736
G1 X82.208 Y129.961 E44.2136
G1 X81.493 Y130.091 E44.24985
G1 X80.672 Y130.142 E44.29089
G1 X74.08 Y130.142 E44.61977
G1 X73.355 Y130.102 E44.65599
G1 X72.638 Y129.983 E44.69225
G1 X71.932 Y129.783 E44.72886
G1 X71.871 Y129.762 E44.73208
G1 X71.198 Y129.488 E44.76833
G1 X70.559 Y129.142 E44.80459
G1 X70.043 Y128.789 E44.83578
G1 X66.205 Y125.892 E45.07568
G1 X65.804 Y125.563 E45.10156
G1 X62.402 Y122.548 E45.32835
G1 X61.755 Y121.889 E45.37442
G1 X61.732 Y121.862 E45.37619
G1 X61.292 Y121.284 E45.41243
G1 X60.986 Y120.786 E45.44159
G1 X59.609 Y118.306 E45.58311
G1 X59.292 Y117.652 E45.61937
G1 X58.993 Y116.768 E45.66593
G1 X58.981 Y116.722 E45.6683
G1 X58.836 Y116.01 E45.70455
G1 X58.767 Y115.056 E45.75227
G1 X58.767 Y111.239 E45.9427
G1 X58.807 Y110.514 E45.97893
G1 X58.926 Y109.797 E46.01519
G1 X59.233 Y108.803 E46.06709
G1 X59.26 Y108.735 E46.07074
G1 X59.565 Y108.076 E46.10697
G1 X59.94 Y107.454 E46.14321
G1 X60.43 Y106.821 E46.18314
G1 X82.056 Y82.144 E47.82015
G1 X82.564 Y81.625 E47.85638
M205 X10 Y10
G0 F6000 X82.85 Y81.905
M205 X8 Y8
G1 F1200 X83.398 Y81.462 E47.89154
G1 X83.991 Y81.084 E47.92662
G1 X84.449 Y80.852 E47.95223
G1 X84.528 Y80.816 E47.95657
G1 X85.184 Y80.561 E47.99168
G1 X85.865 Y80.382 E48.02681
G1 X86.562 Y80.281 E48.06195
G1 X87.099 Y80.258 E48.08876
G1 X116.139 Y80.258 E49.53757
G1 X116.842 Y80.298 E49.5727
G1 X117.536 Y80.417 E49.60783
G1 X118.251 Y80.629 E49.64504
G1 X118.32 Y80.654 E49.6487
G1 X118.967 Y80.931 E49.68381
G1 X119.579 Y81.279 E49.71894
G1 X120.276 Y81.804 E49.76247
G1 X148.665 Y106.49 E51.63939
G1 X149.169 Y106.982 E51.67452
G1 X149.615 Y107.527 E51.70966
G1 X149.995 Y108.119 E51.74475
G1 X150.239 Y108.598 E51.77157
G1 X150.275 Y108.677 E51.77591
G1 X150.53 Y109.333 E51.81102
G1 X150.709 Y110.014 E51.84615
G1 X150.81 Y110.711 E51.88128
G1 X150.833 Y111.248 E51.9081
G1 X150.833 Y116.617 E52.17596
G1 X150.793 Y117.32 E52.21109
G1 X150.674 Y118.014 E52.24622
G1 X150.401 Y118.892 E52.29209
G1 X150.373 Y118.963 E52.2959
G1 X150.078 Y119.602 E52.33101
G1 X149.712 Y120.203 E52.36612
G1 X149.108 Y120.95 E52.41405
G1 X145.642 Y124.612 E52.6656
G1 X145.04 Y125.169 E52.70652
G1 X145.019 Y125.186 E52.70787
G1 X144.392 Y125.632 E52.74625
G1 X139.309 Y128.793 E53.04488
G1 X138.691 Y129.13 E53.08
G1 X137.707 Y129.498 E53.13241
G1 X137.657 Y129.512 E53.135
G1 X136.969 Y129.663 E53.17015
G1 X135.985 Y129.742 E53.2194
G1 X112.018 Y129.742 E54.41511
G1 X111.315 Y129.702 E54.45024
G1 X110.621 Y129.583 E54.48537
G1 X110.11 Y129.453 E54.51168
G1 X109.428 Y129.627 E54.54679
G1 X108.73 Y129.722 E54.58194
G1 X108.238 Y129.742 E54.6065
G1 X87.445 Y129.741 E55.64387
G1 X86.742 Y129.701 E55.679
G1 X86.048 Y129.582 E55.71413
G1 X85.372 Y129.384 E55.74927
G1 X84.957 Y129.21 E55.77172
G1 X83.259 Y129.21 E55.85644
G1 X83.176 Y129.205 E55.86058
G1 X82.687 Y129.406 E55.88696
G1 X82.009 Y129.596 E55.92209
G1 X81.314 Y129.709 E55.95722
G1 X80.672 Y129.742 E55.98929
G1 X74.08 Y129.742 E56.31817
G1 X73.377 Y129.702 E56.3533
G1 X72.683 Y129.583 E56.38843
G1 X72.062 Y129.404 E56.42067
G1 X72.001 Y129.383 E56.42389
G1 X71.349 Y129.117 E56.45902
G1 X70.732 Y128.778 E56.49414
G1 X70.284 Y128.47 E56.52127
G1 X66.446 Y125.573 E56.76117
G1 X66.069 Y125.264 E56.78549
G1 X62.667 Y122.249 E57.01228
G1 X62.059 Y121.629 E57.0556
G1 X62.036 Y121.602 E57.05737
G1 X61.611 Y121.042 E57.09244
