;FLAVOR:Marlin
;TIME:6656
;Filament used: 4.91695m
;Layer height: 0.2
;MINX:57.562
;MINY:77.283
;MINZ:0.3
;MAXX:152.438
;MAXY:127.937
;MAXZ:24.775
;Generated with Cura_SteamEngine 4.13.1
M82 ;absolute extrusion mode
G21                                        ; metric values 
G90                                        ; absolute positioning 
M82                                        ; set extruder to absolute mode 
M107                                       ; start with the fan off 
M140 S60.0           ; Start heating the bed 
G4 S60                                     ; wait 1 minute 
M104 S220.0         ; start heating the hot end 
M190 S60.0           ; wait for bed 
M109 S220.0         ; wait for hotend 
M300 S1000 P500                            ; BEEP heating done 
G28 X0 Y10 Z0                              ; move X/Y to min endstops 
M420 S1                                    ; Enable leveling 
M420 Z2.0                                  ; Set leveling fading height to 2 mm 
G0 Z0.15                                   ; lift nozzle a bit 
G92 E0                                     ; zero the extruded length 
G1 X50 E25 F500                            ; Extrude 25mm of filament in a 5cm line. 
G92 E0                                     ; zero the extruded length again 
G1 E-2 F500                                ; Retract a little 
G1 X120 F4000                              ; Quickly wipe away from the filament line`
G92 E0
G92 E0
G1 F2400 E-3
;LAYER_COUNT:123
;LAYER:0
M106 S76.5
M205 X10 Y10
G1 F600 Z0.375
G0 F6000 X61.186 Y83.351 Z0.375
M205 X8 Y8
;TYPE:SKIRT
G1 F600 Z0.3
G1 F2400 E0
G1 F1200 X61.866 Y82.95 E0.03938
G1 X62.584 Y82.62 E0.07881
G1 X63.331 Y82.365 E0.11819
G1 X64.1 Y82.186 E0.15758
G1 X64.884 Y82.086 E0.19701
G1 X65.479 Y82.063 E0.22672
G1 X93.268 Y82.063 E1.61312
G1 X93.364 Y81.872 E1.62378
G1 X93.788 Y81.206 E1.66317
G1 X94.278 Y80.587 E1.70256
G1 X94.827 Y80.02 E1.74193
G1 X95.557 Y79.418 E1.78914
G1 X96.441 Y78.775 E1.84367
G1 X97.102 Y78.344 E1.88304
G1 X97.804 Y77.981 E1.92247
G1 X98.538 Y77.691 E1.96184
G1 X99.298 Y77.477 E2.00124
G1 X100.076 Y77.341 E2.04064
G1 X101.029 Y77.283 E2.08827
G1 X102.119 Y77.283 E2.14265
G1 X102.908 Y77.323 E2.18207
G1 X103.688 Y77.442 E2.22143
G1 X104.453 Y77.64 E2.26085
G1 X105.193 Y77.914 E2.30022
G1 X105.902 Y78.262 E2.33963
G1 X106.707 Y78.775 E2.38725
G1 X107.591 Y79.418 E2.44179
G1 X108.205 Y79.914 E2.48116
G1 X108.766 Y80.47 E2.52057
G1 X109.268 Y81.08 E2.55998
G1 X109.706 Y81.737 E2.59938
G1 X109.878 Y82.063 E2.61777
G1 X144.521 Y82.063 E4.34611
G1 X145.31 Y82.103 E4.38553
G1 X146.09 Y82.222 E4.42489
G1 X146.855 Y82.42 E4.46431
G1 X147.595 Y82.694 E4.50368
G1 X148.304 Y83.042 E4.54309
G1 X148.975 Y83.46 E4.58253
G1 X149.599 Y83.943 E4.62189
G1 X150.036 Y84.348 E4.65162
G1 X150.153 Y84.465 E4.65987
G1 X150.683 Y85.051 E4.69929
G1 X151.15 Y85.687 E4.73866
G1 X151.551 Y86.367 E4.77804
G1 X151.881 Y87.085 E4.81747
G1 X152.136 Y87.832 E4.85685
G1 X152.315 Y88.601 E4.89624
G1 X152.415 Y89.385 E4.93567
G1 X152.438 Y89.98 E4.96538
G1 X152.438 Y91.548 E5.0436
G1 X152.39 Y92.409 E5.08663
G1 X152.387 Y92.436 E5.08798
G1 X152.215 Y93.413 E5.13747
G1 X145.312 Y121.888 E6.59925
G1 X145.088 Y122.645 E6.63863
G1 X144.788 Y123.375 E6.67801
G1 X144.415 Y124.072 E6.71745
G1 X143.974 Y124.727 E6.75684
G1 X143.47 Y125.334 E6.7962
G1 X142.906 Y125.887 E6.83561
G1 X142.461 Y126.255 E6.86442
G1 X141.817 Y126.713 E6.90385
G1 X141.131 Y127.103 E6.94321
G1 X140.409 Y127.422 E6.98259
G1 X139.658 Y127.667 E7.022
G1 X138.886 Y127.834 E7.06141
G1 X138.101 Y127.922 E7.10082
G1 X137.622 Y127.937 E7.12473
G1 X135.761 Y127.937 E7.21757
G1 X135.061 Y127.902 E7.25254
G1 X134.963 Y127.914 E7.25747
G1 X134.368 Y127.937 E7.28717
G1 X131.378 Y127.937 E7.43635
G1 X130.589 Y127.897 E7.47576
G1 X129.809 Y127.778 E7.51512
G1 X129.408 Y127.674 E7.53579
G1 X128.807 Y127.814 E7.56658
G1 X128.023 Y127.914 E7.60601
G1 X127.428 Y127.937 E7.63572
G1 X124.468 Y127.937 E7.78339
G1 X123.756 Y127.901 E7.81896
G1 X123.654 Y127.914 E7.82409
G1 X123.059 Y127.937 E7.8538
G1 X87.189 Y127.937 E9.64336
G1 X86.48 Y127.901 E9.67878
G1 X86.378 Y127.914 E9.6839
G1 X85.783 Y127.937 E9.71361
G1 X82.817 Y127.937 E9.86159
G1 X82.028 Y127.897 E9.901
G1 X81.248 Y127.778 E9.94036
G1 X81.081 Y127.735 E9.94897
G1 X80.74 Y127.814 E9.96643
G1 X79.956 Y127.914 E10.00586
G1 X79.361 Y127.937 E10.03557
G1 X76.361 Y127.937 E10.18524
G1 X75.665 Y127.902 E10.22001
G1 X75.568 Y127.914 E10.22488
G1 X74.973 Y127.937 E10.25459
G1 X72.376 Y127.937 E10.38415
G1 X71.587 Y127.897 E10.42357
G1 X70.807 Y127.778 E10.46293
G1 X70.042 Y127.58 E10.50236
G1 X69.302 Y127.306 E10.54173
G1 X68.593 Y126.958 E10.58113
G1 X67.922 Y126.54 E10.62057
G1 X67.427 Y126.168 E10.65146
G1 X66.834 Y125.647 E10.69084
G1 X66.295 Y125.069 E10.73027
G1 X65.819 Y124.44 E10.76963
G1 X65.408 Y123.765 E10.80905
G1 X65.067 Y123.053 E10.84844
G1 X64.8 Y122.31 E10.88783
G1 X64.685 Y121.887 E10.9097
G1 X57.784 Y93.412 E12.37145
G1 X57.621 Y92.504 E12.41747
G1 X57.618 Y92.479 E12.41873
G1 X57.562 Y91.55 E12.46516
G1 X57.562 Y89.98 E12.54349
G1 X57.602 Y89.191 E12.5829
G1 X57.721 Y88.411 E12.62226
G1 X57.919 Y87.646 E12.66169
G1 X58.193 Y86.906 E12.70106
G1 X58.541 Y86.197 E12.74046
G1 X58.959 Y85.526 E12.7799
G1 X59.442 Y84.902 E12.81927
G1 X59.847 Y84.465 E12.84899
G1 X59.964 Y84.348 E12.85725
G1 X60.55 Y83.818 E12.89667
G1 X61.186 Y83.351 E12.93603
M205 X10 Y10
G0 F6000 X61.44 Y83.663
M205 X8 Y8
G1 F1200 X62.105 Y83.277 E12.97439
G1 X62.807 Y82.962 E13.01278
G1 X63.538 Y82.722 E13.05117
G1 X64.289 Y82.559 E13.08951
G1 X65.054 Y82.475 E13.1279
G1 X65.479 Y82.463 E13.14911
G1 X93.514 Y82.463 E14.54779
G1 X93.731 Y82.035 E14.57173
G1 X94.149 Y81.389 E14.61011
G1 X94.631 Y80.79 E14.64847
G1 X95.174 Y80.245 E14.68685
G1 X95.792 Y79.742 E14.72661
G1 X96.676 Y79.099 E14.78114
G1 X97.321 Y78.679 E14.81954
G1 X98.006 Y78.329 E14.85792
G1 X98.723 Y78.051 E14.89629
G1 X99.465 Y77.85 E14.93464
G1 X100.225 Y77.727 E14.97305
G1 X101.029 Y77.683 E15.01322
G1 X102.119 Y77.683 E15.0676
G1 X102.887 Y77.723 E15.10597
G1 X103.647 Y77.842 E15.14435
G1 X104.39 Y78.04 E15.18271
G1 X105.109 Y78.314 E15.2211
G1 X105.795 Y78.661 E15.25945
G1 X106.472 Y79.099 E15.29968
G1 X107.356 Y79.742 E15.35422
G1 X107.954 Y80.226 E15.3926
G1 X108.498 Y80.769 E15.43094
G1 X108.983 Y81.366 E15.46932
G1 X109.403 Y82.011 E15.50772
G1 X109.635 Y82.463 E15.53307
G1 X144.521 Y82.463 E17.27354
G1 X145.289 Y82.503 E17.3119
G1 X146.049 Y82.622 E17.35028
G1 X146.792 Y82.82 E17.38864
G1 X147.511 Y83.094 E17.42703
G1 X148.197 Y83.441 E17.46539
G1 X148.844 Y83.857 E17.50376
G1 X149.444 Y84.338 E17.54213
G1 X149.871 Y84.747 E17.57163
G1 X150.385 Y85.319 E17.60999
G1 X150.838 Y85.941 E17.64838
G1 X151.224 Y86.606 E17.68674
G1 X151.539 Y87.308 E17.72513
G1 X151.779 Y88.039 E17.76351
G1 X151.942 Y88.79 E17.80185
G1 X152.026 Y89.555 E17.84025
G1 X152.038 Y89.98 E17.86146
G1 X152.038 Y91.548 E17.93969
G1 X151.993 Y92.365 E17.98051
G1 X151.99 Y92.392 E17.98187
G1 X151.827 Y93.318 E18.02877
G1 X144.924 Y121.793 E19.49055
G1 X144.704 Y122.531 E19.52897
G1 X144.409 Y123.241 E19.56732
G1 X144.041 Y123.917 E19.60572
G1 X143.606 Y124.551 E19.64408
G1 X143.107 Y125.136 E19.68245
G1 X142.322 Y125.854 E19.73552
G1 X142.212 Y125.941 E19.74252
G1 X141.585 Y126.386 E19.78088
G1 X140.915 Y126.764 E19.81926
G1 X140.21 Y127.07 E19.8576
G1 X139.476 Y127.301 E19.89599
G1 X138.722 Y127.455 E19.93438
G1 X137.622 Y127.537 E19.98941
G1 X135.761 Y127.537 E20.08226
G1 X135.03 Y127.499 E20.11878
G1 X134.368 Y127.537 E20.15186
G1 X131.378 Y127.537 E20.30103
G1 X130.61 Y127.497 E20.3394
G1 X129.85 Y127.378 E20.37778
G1 X129.369 Y127.278 E20.40229
G1 X128.618 Y127.441 E20.44063
G1 X127.853 Y127.525 E20.47902
G1 X127.428 Y127.537 E20.50023
G1 X124.468 Y127.537 E20.64791
G1 X123.726 Y127.498 E20.68498
G1 X123.059 Y127.537 E20.71831
G1 X87.189 Y127.537 E22.50787
G1 X86.449 Y127.498 E22.54484
G1 X85.783 Y127.537 E22.57813
G1 X82.817 Y127.537 E22.7261
G1 X82.049 Y127.497 E22.76447
G1 X81.289 Y127.378 E22.80285
G1 X81.088 Y127.324 E22.81323
G1 X80.551 Y127.441 E22.84065
G1 X79.786 Y127.525 E22.87905
G1 X79.361 Y127.537 E22.90026
G1 X76.361 Y127.537 E23.04993
G1 X75.634 Y127.499 E23.08625
G1 X74.973 Y127.537 E23.11928
G1 X72.376 Y127.537 E23.24885
G1 X71.608 Y127.497 E23.28721
G1 X70.848 Y127.378 E23.32559
G1 X70.105 Y127.18 E23.36395
G1 X69.386 Y126.906 E23.40234
G1 X68.7 Y126.559 E23.4407
G1 X67.786 Y125.941 E23.49574
G1 X67.676 Y125.854 E23.50274
G1 X67.098 Y125.346 E23.54113
G1 X66.576 Y124.781 E23.57951
G1 X66.116 Y124.165 E23.61786
G1 X65.722 Y123.504 E23.65625
G1 X65.399 Y122.806 E23.69462
G1 X65.074 Y121.793 E23.7477
G1 X58.173 Y93.318 E25.20945
G1 X58.018 Y92.457 E25.25309
G1 X58.015 Y92.432 E25.25435
G1 X57.962 Y91.55 E25.29843
G1 X57.962 Y89.98 E25.37676
G1 X58.002 Y89.212 E25.41513
G1 X58.121 Y88.452 E25.45351
G1 X58.319 Y87.709 E25.49187
G1 X58.593 Y86.99 E25.53026
G1 X58.94 Y86.304 E25.56861
G1 X59.356 Y85.657 E25.60699
G1 X59.837 Y85.057 E25.64535
G1 X60.246 Y84.63 E25.67485
G1 X60.818 Y84.116 E25.71322
G1 X61.44 Y83.663 E25.75161
M205 X10 Y10
G0 F6000 X61.692 Y83.976
M205 X8 Y8
G1 F1200 X62.342 Y83.605 E25.78895
G1 X63.028 Y83.306 E25.82628
G1 X63.742 Y83.082 E25.86361
G1 X64.475 Y82.935 E25.90091
G1 X65.479 Y82.863 E25.95113
G1 X93.758 Y82.863 E27.36197
G1 X94.098 Y82.199 E27.39919
G1 X94.509 Y81.574 E27.43651
G1 X94.985 Y80.996 E27.47387
G1 X95.519 Y80.473 E27.51116
G1 X96.027 Y80.065 E27.54366
G1 X96.911 Y79.422 E27.5982
G1 X97.539 Y79.015 E27.63554
G1 X98.206 Y78.677 E27.67284
G1 X98.906 Y78.413 E27.71017
G1 X99.63 Y78.224 E27.7475
G1 X100.37 Y78.114 E27.78482
G1 X101.029 Y78.083 E27.81773
G1 X102.119 Y78.083 E27.87211
G1 X102.866 Y78.123 E27.90944
G1 X103.604 Y78.242 E27.94673
G1 X104.326 Y78.44 E27.98408
G1 X105.022 Y78.713 E28.02138
G1 X105.685 Y79.06 E28.05871
G1 X106.237 Y79.422 E28.09165
G1 X107.121 Y80.065 E28.14618
G1 X107.701 Y80.537 E28.18349
G1 X108.228 Y81.068 E28.22081
G1 X108.695 Y81.652 E28.25812
G1 X109.098 Y82.283 E28.29547
G1 X109.385 Y82.863 E28.32776
G1 X144.521 Y82.863 E30.0807
G1 X145.268 Y82.903 E30.11802
G1 X146.006 Y83.022 E30.15532
G1 X146.728 Y83.22 E30.19267
G1 X147.424 Y83.493 E30.22997
G1 X148.087 Y83.84 E30.2673
G1 X148.71 Y84.255 E30.30465
G1 X149.471 Y84.913 E30.35484
G1 X149.588 Y85.03 E30.36309
G1 X150.088 Y85.587 E30.40044
G1 X150.525 Y86.193 E30.43771
G1 X150.896 Y86.843 E30.47505
G1 X151.195 Y87.529 E30.51238
G1 X151.419 Y88.243 E30.54972
G1 X151.566 Y88.976 E30.58701
G1 X151.638 Y89.98 E30.63723
G1 X151.638 Y91.548 E30.71546
G1 X151.595 Y92.321 E30.75409
G1 X151.592 Y92.348 E30.75544
G1 X151.438 Y93.224 E30.79981
G1 X144.535 Y121.699 E32.26159
G1 X144.32 Y122.416 E32.29893
G1 X144.03 Y123.105 E32.33623
G1 X143.668 Y123.76 E32.37356
G1 X143.238 Y124.372 E32.41088
G1 X142.746 Y124.935 E32.44818
G1 X142.074 Y125.54 E32.49329
G1 X141.964 Y125.627 E32.50029
G1 X141.354 Y126.059 E32.53758
G1 X140.7 Y126.424 E32.57495
G1 X140.012 Y126.716 E32.61224
G1 X139.296 Y126.934 E32.64958
G1 X138.561 Y127.074 E32.6869
G1 X137.622 Y127.137 E32.73386
G1 X135.761 Y127.137 E32.8267
G1 X135.014 Y127.097 E32.86402
G1 X134.987 Y127.093 E32.86539
G1 X134.368 Y127.137 E32.89635
G1 X131.378 Y127.137 E33.04552
G1 X130.631 Y127.097 E33.08284
G1 X129.893 Y126.978 E33.12013
G1 X129.403 Y126.843 E33.14549
G1 X129.165 Y126.918 E33.15794
G1 X128.432 Y127.065 E33.19524
G1 X127.428 Y127.137 E33.24546
G1 X124.468 Y127.137 E33.39313
G1 X123.721 Y127.097 E33.43045
G1 X123.689 Y127.092 E33.43207
G1 X123.059 Y127.137 E33.46358
G1 X87.189 Y127.137 E35.25314
G1 X86.442 Y127.097 E35.29046
G1 X86.411 Y127.092 E35.29203
G1 X85.783 Y127.137 E35.32344
G1 X82.817 Y127.137 E35.47141
G1 X82.07 Y127.097 E35.50874
G1 X81.332 Y126.978 E35.54603
G1 X81.098 Y126.918 E35.55808
G1 X80.365 Y127.065 E35.59538
G1 X79.361 Y127.137 E35.6456
G1 X76.361 Y127.137 E35.79527
G1 X75.614 Y127.097 E35.83259
G1 X75.588 Y127.093 E35.8339
G1 X74.973 Y127.137 E35.86466
G1 X72.376 Y127.137 E35.99423
G1 X71.629 Y127.097 E36.03155
G1 X70.891 Y126.978 E36.06884
G1 X70.169 Y126.78 E36.10619
G1 X69.473 Y126.507 E36.14349
G1 X68.81 Y126.16 E36.18083
G1 X68.034 Y125.627 E36.2278
G1 X67.924 Y125.54 E36.23479
G1 X67.363 Y125.046 E36.27208
G1 X66.857 Y124.494 E36.30944
G1 X66.414 Y123.891 E36.34677
G1 X66.038 Y123.245 E36.38406
G1 X65.732 Y122.562 E36.4214
G1 X65.463 Y121.699 E36.4665
G1 X58.562 Y93.224 E37.92825
G1 X58.415 Y92.409 E37.96957
G1 X58.412 Y92.384 E37.97082
G1 X58.362 Y91.55 E38.01251
G1 X58.362 Y89.98 E38.09083
G1 X58.402 Y89.233 E38.12815
G1 X58.521 Y88.495 E38.16545
G1 X58.719 Y87.773 E38.2028
G1 X58.992 Y87.077 E38.2401
G1 X59.339 Y86.414 E38.27743
G1 X59.754 Y85.791 E38.31478
G1 X60.412 Y85.03 E38.36497
G1 X60.529 Y84.913 E38.37322
G1 X61.086 Y84.413 E38.41057
G1 X61.692 Y83.976 E38.44784
M205 X10 Y10
G0 F6000 X61.944 Y84.289
M205 X8 Y8
G1 F1200 X62.578 Y83.935 E38.48407
G1 X63.247 Y83.652 E38.52031
G1 X63.943 Y83.444 E38.55655
G1 X64.658 Y83.314 E38.59281
G1 X65.479 Y83.263 E38.63385
G1 X94.032 Y83.263 E40.05836
G1 X94.13 Y83.009 E40.07194
G1 X94.465 Y82.364 E40.1082
G1 X94.869 Y81.761 E40.14442
G1 X95.337 Y81.205 E40.18067
G1 X95.863 Y80.704 E40.21691
G1 X96.263 Y80.389 E40.24231
G1 X97.147 Y79.746 E40.29685
G1 X97.757 Y79.351 E40.33311
G1 X98.406 Y79.026 E40.36932
G1 X99.088 Y78.775 E40.40557
G1 X99.793 Y78.6 E40.44181
G1 X100.513 Y78.503 E40.47806
G1 X101.029 Y78.483 E40.50382
G1 X102.119 Y78.483 E40.5582
G1 X102.844 Y78.523 E40.59443
G1 X103.561 Y78.642 E40.63069
G1 X104.26 Y78.84 E40.66693
G1 X104.933 Y79.113 E40.70317
G1 X105.572 Y79.458 E40.7394
G1 X106.001 Y79.746 E40.76518
G1 X106.885 Y80.389 E40.81971
G1 X107.448 Y80.848 E40.85595
G1 X107.957 Y81.366 E40.89218
G1 X108.407 Y81.936 E40.92841
G1 X108.79 Y82.553 E40.96465
G1 X109.104 Y83.208 E41.00088
G1 X109.124 Y83.263 E41.0038
G1 X144.521 Y83.263 E42.76977
G1 X145.246 Y83.303 E42.80599
G1 X145.963 Y83.422 E42.84225
G1 X146.662 Y83.62 E42.8785
G1 X147.335 Y83.893 E42.91473
G1 X147.974 Y84.238 E42.95096
G1 X148.571 Y84.652 E42.98721
G1 X149.188 Y85.196 E43.02825
G1 X149.305 Y85.313 E43.0365
G1 X149.789 Y85.854 E43.07272
G1 X150.212 Y86.445 E43.10898
G1 X150.566 Y87.079 E43.1452
G1 X150.849 Y87.748 E43.18144
G1 X151.057 Y88.444 E43.21768
G1 X151.187 Y89.159 E43.25394
G1 X151.238 Y89.98 E43.29498
G1 X151.238 Y91.548 E43.37321
G1 X151.198 Y92.277 E43.40963
G1 X151.195 Y92.304 E43.41099
G1 X151.049 Y93.13 E43.45283
G1 X144.146 Y121.605 E44.91461
G1 X143.936 Y122.3 E44.95083
G1 X143.652 Y122.969 E44.98709
G1 X143.295 Y123.601 E45.0233
G1 X142.871 Y124.191 E45.05955
G1 X142.385 Y124.731 E45.09579
G1 X141.826 Y125.227 E45.13308
G1 X141.716 Y125.314 E45.14008
G1 X141.123 Y125.732 E45.17627
G1 X140.487 Y126.083 E45.21251
G1 X139.816 Y126.362 E45.24877
G1 X139.119 Y126.565 E45.28499
G1 X138.403 Y126.691 E45.32126
G1 X137.622 Y126.737 E45.36029
G1 X135.761 Y126.737 E45.45313
G1 X135.029 Y126.696 E45.48971
G1 X134.368 Y126.737 E45.52275
G1 X131.378 Y126.737 E45.67192
G1 X130.653 Y126.697 E45.70815
G1 X129.936 Y126.578 E45.74441
G1 X129.399 Y126.426 E45.77225
G1 X128.964 Y126.556 E45.7949
G1 X128.249 Y126.686 E45.83116
G1 X127.428 Y126.737 E45.8722
G1 X124.468 Y126.737 E46.01987
G1 X123.732 Y126.695 E46.05665
G1 X123.059 Y126.737 E46.09029
G1 X87.189 Y126.737 E47.87986
G1 X86.464 Y126.697 E47.91608
G1 X86.454 Y126.695 E47.91659
G1 X85.783 Y126.737 E47.95013
G1 X82.817 Y126.737 E48.09811
G1 X82.092 Y126.697 E48.13433
G1 X81.375 Y126.578 E48.17059
G1 X81.092 Y126.498 E48.18526
