;FLAVOR:Marlin
;TIME:3415
;Filament used: 2.3957m
;Layer height: 0.2
;MINX:52.874
;MINY:89.941
;MINZ:0.3
;MAXX:157.103
;MAXY:124.128
;MAXZ:7.175
;Generated with Cura_SteamEngine 4.13.1
M82 ;absolute extrusion mode
G21                                        ; metric values 
G90                                        ; absolute positioning 
M82                                        ; set extruder to absolute mode 
M107                                       ; start with the fan off 
M140 S60           ; Start heating the bed 
G4 S60                                     ; wait 1 minute 
M104 S210         ; start heating the hot end 
M190 S60           ; wait for bed 
M109 S210         ; wait for hotend 
M300 S1000 P500                            ; BEEP heating done 
G28 X0 Y10 Z0                              ; move X/Y to min endstops 
M420 S1                                    ; Enable leveling 
M420 Z2.0                                  ; Set leveling fading height to 2 mm 
G0 Z0.15                                   ; lift nozzle a bit 
G92 E0                                     ; zero the extruded length 
G1 X50 E25 F500                            ; Extrude 25mm of filament in a 5cm line. 
G92 E0                                     ; zero the extruded length again 
G1 E-2 F500                                ; Retract a little 
G1 X120 F4000                              ; Quickly wipe away from the filament line`
G92 E0
G92 E0
G1 F1500 E-6
;LAYER_COUNT:35
;LAYER:0
M106 S76.5
M205 X10 Y10
G1 F600 Z0.375
G0 F6000 X57.711 Y93.306 Z0.375
M205 X8 Y8
;TYPE:SKIRT
G1 F600 Z0.3
G1 F1500 E0
G1 F1200 X58.413 Y92.945 E0.03938
G1 X59.147 Y92.656 E0.07874
G1 X59.908 Y92.442 E0.11818
G1 X60.686 Y92.307 E0.15757
G1 X61.109 Y92.267 E0.17877
G1 X94.919 Y90.003 E1.86933
G1 X95.401 Y89.967 E1.89345
G1 X96.191 Y89.949 E1.93287
G1 X96.978 Y90.011 E1.97226
G1 X97.755 Y90.151 E2.01165
G1 X98.514 Y90.37 E2.05106
G1 X99.247 Y90.664 E2.09046
G1 X99.946 Y91.031 E2.12985
G1 X100.605 Y91.467 E2.16927
G1 X101.266 Y92.013 E2.21204
G1 X101.395 Y92.132 E2.2208
G1 X101.947 Y92.696 E2.26017
G1 X102.44 Y93.313 E2.29957
G1 X102.666 Y93.664 E2.3204
G1 X102.829 Y93.403 E2.33575
G1 X103.312 Y92.779 E2.37512
G1 X103.763 Y92.295 E2.40812
G1 X103.883 Y92.177 E2.41652
G1 X104.473 Y91.653 E2.45589
G1 X105.114 Y91.191 E2.49531
G1 X105.798 Y90.796 E2.53472
G1 X106.518 Y90.472 E2.57411
G1 X107.267 Y90.223 E2.61348
G1 X108.038 Y90.05 E2.65291
G1 X108.822 Y89.957 E2.69229
G1 X109.515 Y89.941 E2.72688
G1 X146.845 Y90.721 E4.58969
G1 X147.633 Y90.777 E4.6291
G1 X148.411 Y90.913 E4.6685
G1 X149.171 Y91.127 E4.70789
G1 X149.905 Y91.416 E4.74725
G1 X150.607 Y91.779 E4.78668
G1 X151.07 Y92.07 E4.81396
G1 X151.167 Y92.136 E4.81981
G1 X151.796 Y92.613 E4.8592
G1 X152.375 Y93.151 E4.89863
G1 X152.895 Y93.744 E4.93798
G1 X153.353 Y94.388 E4.9774
G1 X153.744 Y95.074 E5.0168
G1 X153.982 Y95.593 E5.04528
G1 X156.507 Y101.672 E5.37369
G1 X156.773 Y102.416 E5.41311
G1 X156.962 Y103.182 E5.45247
G1 X157.073 Y103.964 E5.49187
G1 X157.103 Y104.753 E5.53126
G1 X157.001 Y105.925 E5.58996
G1 X156.982 Y106.041 E5.59582
G1 X156.816 Y106.813 E5.63522
G1 X156.571 Y107.564 E5.67463
G1 X156.253 Y108.286 E5.71399
G1 X155.862 Y108.973 E5.75342
G1 X155.405 Y109.616 E5.79278
G1 X155.132 Y109.943 E5.81403
G1 X151.926 Y113.574 E6.05569
G1 X151.374 Y114.138 E6.09506
G1 X150.768 Y114.644 E6.13445
G1 X150.113 Y115.087 E6.1739
G1 X149.609 Y115.367 E6.20267
G1 X149.542 Y115.401 E6.20641
G1 X148.82 Y115.722 E6.24583
G1 X148.07 Y115.969 E6.28523
G1 X147.299 Y116.138 E6.32461
G1 X146.817 Y116.203 E6.34887
G1 X110.03 Y120.021 E8.19404
G1 X109.622 Y120.042 E8.21442
G1 X109.44 Y120.327 E8.23129
G1 X108.95 Y120.947 E8.27072
G1 X108.4 Y121.513 E8.31009
G1 X107.677 Y122.11 E8.35687
G1 X106.959 Y122.633 E8.40119
G1 X106.298 Y123.065 E8.44059
G1 X105.597 Y123.428 E8.47997
G1 X104.863 Y123.718 E8.51934
G1 X104.103 Y123.932 E8.55873
G1 X103.325 Y124.069 E8.59815
G1 X102.367 Y124.128 E8.64603
G1 X101.481 Y124.128 E8.69023
G1 X100.692 Y124.088 E8.72965
G1 X99.912 Y123.969 E8.76901
G1 X99.147 Y123.771 E8.80844
G1 X98.407 Y123.497 E8.8478
G1 X97.698 Y123.149 E8.88721
G1 X96.889 Y122.633 E8.93508
G1 X96.171 Y122.11 E8.9794
G1 X95.557 Y121.613 E9.01881
G1 X94.996 Y121.057 E9.05821
G1 X94.495 Y120.447 E9.09759
G1 X94.239 Y120.063 E9.12062
G1 X63.831 Y120.063 E10.63768
G1 X63.042 Y120.023 E10.67709
G1 X62.262 Y119.904 E10.71646
G1 X61.174 Y119.596 E10.77287
G1 X61.105 Y119.571 E10.77653
G1 X60.377 Y119.265 E10.81593
G1 X59.684 Y118.887 E10.85531
G1 X59.032 Y118.441 E10.89473
G1 X58.658 Y118.136 E10.9188
G1 X56.883 Y116.6 E11.03591
G1 X56.313 Y116.054 E11.07529
G1 X55.801 Y115.453 E11.11468
G1 X55.352 Y114.803 E11.15409
G1 X54.971 Y114.111 E11.1935
G1 X54.723 Y113.547 E11.22424
G1 X54.458 Y112.803 E11.26364
G1 X54.346 Y112.388 E11.28509
G1 X53.083 Y107.142 E11.55429
G1 X52.937 Y106.366 E11.59369
G1 X52.876 Y105.706 E11.62675
G1 X52.874 Y105.666 E11.62875
G1 X52.874 Y104.876 E11.66816
G1 X52.972 Y103.983 E11.71298
G1 X53.835 Y98.849 E11.97271
G1 X54.005 Y98.078 E12.0121
G1 X54.252 Y97.328 E12.0515
G1 X54.574 Y96.607 E12.09089
G1 X54.967 Y95.922 E12.13029
G1 X55.428 Y95.28 E12.16972
G1 X55.95 Y94.688 E12.2091
G1 X56.331 Y94.325 E12.23536
G1 X56.434 Y94.233 E12.24225
G1 X57.049 Y93.737 E12.28166
G1 X57.711 Y93.306 E12.32107
M205 X10 Y10
G0 F6000 X57.946 Y93.632
M205 X8 Y8
G1 F1200 X58.632 Y93.284 E12.35945
G1 X59.351 Y93.01 E12.39784
G1 X60.094 Y92.811 E12.43621
G1 X61.136 Y92.667 E12.48869
G1 X94.904 Y90.405 E14.17716
G1 X95.431 Y90.366 E14.20352
G1 X96.2 Y90.349 E14.2419
G1 X96.966 Y90.412 E14.28024
G1 X97.722 Y90.555 E14.31863
G1 X98.459 Y90.775 E14.357
G1 X99.169 Y91.07 E14.39536
G1 X99.845 Y91.438 E14.43376
G1 X100.479 Y91.873 E14.47212
G1 X100.995 Y92.307 E14.50576
G1 X101.124 Y92.426 E14.51451
G1 X101.661 Y92.976 E14.55286
G1 X102.138 Y93.579 E14.59122
G1 X102.551 Y94.228 E14.6296
G1 X102.668 Y94.463 E14.6427
G1 X102.81 Y94.181 E14.65845
G1 X103.226 Y93.534 E14.69682
G1 X103.707 Y92.934 E14.73519
G1 X104.164 Y92.463 E14.76793
G1 X104.739 Y91.953 E14.80628
G1 X105.365 Y91.505 E14.84468
G1 X106.033 Y91.125 E14.88302
G1 X106.738 Y90.816 E14.92143
G1 X107.471 Y90.582 E14.95981
G1 X108.224 Y90.426 E14.99818
G1 X108.989 Y90.348 E15.03654
G1 X109.507 Y90.341 E15.06239
G1 X146.837 Y91.121 E16.9252
G1 X147.604 Y91.177 E16.96356
G1 X148.361 Y91.312 E17.00193
G1 X149.1 Y91.525 E17.0403
G1 X149.813 Y91.814 E17.07868
G1 X150.492 Y92.175 E17.11704
G1 X150.942 Y92.467 E17.14381
G1 X151.554 Y92.932 E17.18215
G1 X152.115 Y93.458 E17.22052
G1 X152.619 Y94.04 E17.25893
G1 X153.059 Y94.671 E17.29731
G1 X153.431 Y95.344 E17.33567
G1 X153.613 Y95.746 E17.35769
G1 X156.138 Y101.825 E17.68609
G1 X156.396 Y102.55 E17.72449
G1 X156.577 Y103.298 E17.76288
G1 X156.679 Y104.06 E17.80124
G1 X156.702 Y104.829 E17.83962
G1 X156.607 Y105.86 E17.89127
G1 X156.588 Y105.976 E17.89714
G1 X156.424 Y106.728 E17.93554
G1 X156.183 Y107.458 E17.97389
G1 X155.868 Y108.16 E18.01228
G1 X155.482 Y108.825 E18.05064
G1 X154.832 Y109.678 E18.10414
G1 X151.626 Y113.309 E18.3458
G1 X151.088 Y113.858 E18.38415
G1 X150.495 Y114.349 E18.42256
G1 X149.855 Y114.775 E18.46092
G1 X149.361 Y115.044 E18.48898
G1 X148.658 Y115.356 E18.52735
G1 X147.926 Y115.593 E18.56574
G1 X147.174 Y115.753 E18.60409
G1 X146.776 Y115.805 E18.62412
G1 X109.989 Y119.623 E20.46929
G1 X109.396 Y119.654 E20.49891
G1 X109.079 Y120.144 E20.52803
G1 X108.597 Y120.743 E20.56639
G1 X108.054 Y121.288 E20.60477
G1 X107.442 Y121.786 E20.64413
G1 X106.724 Y122.309 E20.68845
G1 X106.08 Y122.729 E20.72681
G1 X105.395 Y123.08 E20.76521
G1 X104.678 Y123.358 E20.80358
G1 X103.936 Y123.56 E20.84194
G1 X103.176 Y123.684 E20.88036
G1 X102.367 Y123.728 E20.92078
G1 X101.481 Y123.728 E20.96498
G1 X100.713 Y123.688 E21.00335
G1 X99.953 Y123.569 E21.04173
G1 X99.21 Y123.371 E21.08009
G1 X98.491 Y123.097 E21.11848
G1 X97.805 Y122.75 E21.15683
G1 X97.124 Y122.309 E21.19731
G1 X96.406 Y121.786 E21.24163
G1 X95.809 Y121.302 E21.27997
G1 X95.265 Y120.758 E21.31835
G1 X94.781 Y120.16 E21.35673
G1 X94.457 Y119.663 E21.38633
G1 X63.831 Y119.663 E22.91427
G1 X63.063 Y119.623 E22.95264
G1 X62.303 Y119.504 E22.99102
G1 X61.31 Y119.22 E23.04254
G1 X61.241 Y119.195 E23.0462
G1 X60.533 Y118.896 E23.08455
G1 X59.859 Y118.525 E23.12293
G1 X59.227 Y118.086 E23.16132
G1 X58.92 Y117.834 E23.18114
G1 X57.145 Y116.298 E23.29825
G1 X56.59 Y115.765 E23.33664
G1 X56.094 Y115.177 E23.37501
G1 X55.661 Y114.541 E23.4134
G1 X55.15 Y113.534 E23.46974
G1 X55.092 Y113.394 E23.4773
G1 X54.835 Y112.669 E23.51567
G1 X54.735 Y112.294 E23.53504
G1 X53.472 Y107.048 E23.80424
G1 X53.331 Y106.292 E23.84261
G1 X53.275 Y105.686 E23.87297
G1 X53.273 Y105.646 E23.87497
G1 X53.275 Y104.876 E23.91338
G1 X53.366 Y104.049 E23.95489
G1 X54.229 Y98.915 E24.21462
G1 X54.396 Y98.164 E24.253
G1 X54.64 Y97.435 E24.29136
G1 X54.958 Y96.735 E24.32971
G1 X55.347 Y96.071 E24.36811
G1 X55.803 Y95.452 E24.40646
G1 X56.597 Y94.623 E24.46373
G1 X56.7 Y94.531 E24.47062
G1 X57.3 Y94.049 E24.50902
G1 X57.946 Y93.632 E24.54738
M205 X10 Y10
G0 F6000 X58.181 Y93.959
M205 X8 Y8
G1 F1200 X58.851 Y93.625 E24.58473
G1 X59.552 Y93.366 E24.62201
G1 X60.277 Y93.182 E24.65933
G1 X61.162 Y93.066 E24.70386
G1 X94.933 Y90.804 E26.39248
G1 X95.46 Y90.765 E26.41884
G1 X96.208 Y90.75 E26.45617
G1 X96.954 Y90.814 E26.49352
G1 X97.688 Y90.958 E26.53084
G1 X98.402 Y91.18 E26.56814
G1 X99.089 Y91.476 E26.60546
G1 X99.74 Y91.844 E26.64277
G1 X100.349 Y92.279 E26.68011
G1 X100.852 Y92.72 E26.71349
G1 X101.374 Y93.256 E26.75081
G1 X101.836 Y93.844 E26.78812
G1 X102.232 Y94.479 E26.82546
G1 X102.559 Y95.152 E26.86278
G1 X102.59 Y95.238 E26.86735
G1 X102.751 Y95.238 E26.87538
G1 X102.862 Y94.954 E26.89059
G1 X103.209 Y94.291 E26.92792
G1 X103.624 Y93.668 E26.96527
G1 X104.324 Y92.866 E27.01838
G1 X104.444 Y92.748 E27.02678
G1 X105.005 Y92.253 E27.0641
G1 X105.615 Y91.82 E27.10142
G1 X106.268 Y91.455 E27.13874
G1 X106.956 Y91.162 E27.17605
G1 X107.672 Y90.944 E27.21339
G1 X108.406 Y90.803 E27.25068
G1 X109.498 Y90.741 E27.30525
G1 X146.828 Y91.521 E29.16806
G1 X147.574 Y91.576 E29.20538
G1 X148.31 Y91.711 E29.24271
G1 X149.027 Y91.924 E29.28002
G1 X149.718 Y92.211 E29.31735
G1 X150.62 Y92.732 E29.36932
G1 X150.717 Y92.798 E29.37518
G1 X151.312 Y93.251 E29.41248
G1 X151.855 Y93.765 E29.44979
G1 X152.341 Y94.334 E29.48712
G1 X152.762 Y94.952 E29.52443
G1 X153.244 Y95.9 E29.57748
G1 X155.769 Y101.979 E29.90589
G1 X156.018 Y102.684 E29.94319
G1 X156.191 Y103.412 E29.98052
G1 X156.285 Y104.154 E30.01784
G1 X156.3 Y104.902 E30.05516
G1 X156.212 Y105.795 E30.09993
G1 X156.193 Y105.911 E30.10579
G1 X156.033 Y106.642 E30.14313
G1 X155.796 Y107.352 E30.18047
G1 X155.484 Y108.032 E30.2178
G1 X155.102 Y108.675 E30.25511
G1 X154.532 Y109.413 E30.30163
G1 X151.326 Y113.044 E30.54329
G1 X150.802 Y113.578 E30.58062
G1 X150.224 Y114.052 E30.61791
G1 X149.598 Y114.462 E30.65524
G1 X149.18 Y114.687 E30.67893
G1 X148.495 Y114.99 E30.7163
G1 X147.783 Y115.217 E30.75358
G1 X146.735 Y115.408 E30.80673
G1 X109.948 Y119.226 E32.65189
G1 X109.225 Y119.263 E32.68801
G1 X109.13 Y119.334 E32.69393
G1 X108.719 Y119.959 E32.73125
G1 X108.244 Y120.537 E32.76857
G1 X107.709 Y121.06 E32.8059
G1 X107.206 Y121.463 E32.83806
G1 X106.488 Y121.986 E32.88237
G1 X105.861 Y122.394 E32.91969
G1 X105.194 Y122.732 E32.957
G1 X104.494 Y122.997 E32.99434
G1 X103.771 Y123.186 E33.03162
G1 X103.031 Y123.296 E33.06895
G1 X102.367 Y123.328 E33.10211
G1 X101.481 Y123.328 E33.14632
G1 X100.734 Y123.288 E33.18364
G1 X99.996 Y123.169 E33.22093
G1 X99.274 Y122.971 E33.25828
G1 X98.578 Y122.698 E33.29558
G1 X97.915 Y122.351 E33.33292
G1 X97.36 Y121.986 E33.36606
G1 X96.642 Y121.463 E33.41037
G1 X96.061 Y120.991 E33.44772
G1 X95.535 Y120.46 E33.48501
G1 X95.068 Y119.875 E33.52235
G1 X94.678 Y119.263 E33.55856
G1 X63.831 Y119.263 E35.09752
G1 X63.084 Y119.223 E35.13484
G1 X62.346 Y119.104 E35.17214
G1 X61.446 Y118.844 E35.21887
G1 X61.377 Y118.819 E35.22254
G1 X60.689 Y118.527 E35.25982
G1 X60.035 Y118.163 E35.29717
G1 X59.181 Y117.531 E35.35017
G1 X57.406 Y115.995 E35.46728
G1 X56.868 Y115.476 E35.50457
G1 X56.388 Y114.903 E35.54186
G1 X55.971 Y114.281 E35.57922
G1 X55.52 Y113.381 E35.62945
G1 X55.462 Y113.241 E35.63701
G1 X55.123 Y112.2 E35.69163
G1 X53.86 Y106.954 E35.96083
G1 X53.724 Y106.219 E35.99812
G1 X53.675 Y105.666 E36.02582
G1 X53.673 Y105.626 E36.02782
G1 X53.675 Y104.878 E36.06514
G1 X53.761 Y104.116 E36.10339
G1 X54.624 Y98.982 E36.36312
G1 X54.787 Y98.252 E36.40044
G1 X55.027 Y97.543 E36.43778
G1 X55.342 Y96.864 E36.47513
G1 X55.727 Y96.223 E36.51243
G1 X56.178 Y95.626 E36.54976
G1 X56.864 Y94.921 E36.59884
G1 X56.967 Y94.829 E36.60573
G1 X57.551 Y94.362 E36.64303
G1 X58.181 Y93.959 E36.68034
M205 X10 Y10
G0 F6000 X58.415 Y94.286
M205 X8 Y8
G1 F1200 X59.068 Y93.968 E36.71658
G1 X59.752 Y93.723 E36.75283
G1 X60.458 Y93.555 E36.78903
G1 X61.189 Y93.465 E36.82578
G1 X94.963 Y91.203 E38.51454
G1 X95.49 Y91.164 E38.54091
G1 X96.216 Y91.15 E38.57714
G1 X96.939 Y91.217 E38.61336
G1 X97.651 Y91.362 E38.64961
G1 X98.343 Y91.584 E38.68587
G1 X99.005 Y91.882 E38.72209
G1 X99.631 Y92.25 E38.75832
G1 X100.452 Y92.895 E38.8104
G1 X100.581 Y93.014 E38.81916
G1 X101.087 Y93.535 E38.85539
G1 X101.533 Y94.109 E38.89166
G1 X101.913 Y94.728 E38.9279
G1 X102.222 Y95.385 E38.96412
G1 X102.309 Y95.638 E38.97747
G1 X103.021 Y95.638 E39.01299
G1 X103.262 Y95.043 E39.04502
G1 X103.607 Y94.404 E39.08125
G1 X104.021 Y93.807 E39.11749
G1 X104.604 Y93.151 E39.16128
G1 X104.724 Y93.033 E39.16967
G1 X105.27 Y92.553 E39.20594
G1 X105.864 Y92.136 E39.24215
G1 X106.501 Y91.787 E39.27839
G1 X107.172 Y91.509 E39.31462
G1 X107.87 Y91.307 E39.35088
G1 X108.586 Y91.184 E39.38712
G1 X109.49 Y91.14 E39.43227
G1 X146.82 Y91.92 E41.29508
G1 X147.544 Y91.976 E41.33131
G1 X148.258 Y92.11 E41.36755
G1 X148.953 Y92.322 E41.4038
G1 X149.62 Y92.609 E41.44003
G1 X150.395 Y93.062 E41.48482
G1 X150.492 Y93.128 E41.49067
G1 X151.069 Y93.569 E41.5269
G1 X151.594 Y94.071 E41.56314
G1 X152.061 Y94.628 E41.5994
G1 X152.464 Y95.232 E41.63563
G1 X152.874 Y96.053 E41.68141
G1 X155.399 Y102.132 E42.00982
G1 X155.64 Y102.817 E42.04605
G1 X155.805 Y103.525 E42.08232
G1 X155.891 Y104.246 E42.11854
G1 X155.897 Y104.973 E42.15481
G1 X155.817 Y105.731 E42.19284
G1 X155.798 Y105.847 E42.1987
G1 X155.642 Y106.556 E42.23492
G1 X155.408 Y107.244 E42.27118
G1 X155.1 Y107.902 E42.30742
G1 X154.722 Y108.522 E42.34365
G1 X154.232 Y109.148 E42.38331
G1 X151.026 Y112.779 E42.62497
G1 X150.516 Y113.297 E42.66124
G1 X149.953 Y113.755 E42.69745
G1 X149.066 Y114.297 E42.74931
G1 X148.999 Y114.331 E42.75305
G1 X148.334 Y114.623 E42.78929
G1 X147.641 Y114.841 E42.82553
G1 X146.693 Y115.01 E42.87358
G1 X109.906 Y118.828 E44.71874
G1 X109.225 Y118.863 E44.75276
G1 X108.923 Y118.863 E44.76783
G1 X108.763 Y119.169 E44.78506
G1 X108.359 Y119.773 E44.82131
G1 X107.891 Y120.328 E44.85753
G1 X107.365 Y120.829 E44.89377
G1 X106.971 Y121.14 E44.91881
G1 X106.253 Y121.663 E44.96313
G1 X105.643 Y122.057 E44.99936
G1 X104.994 Y122.383 E45.03559
G1 X104.312 Y122.635 E45.07187
G1 X103.608 Y122.81 E45.10806
G1 X102.888 Y122.907 E45.14431
G1 X102.367 Y122.928 E45.17032
G1 X101.481 Y122.928 E45.21452
G1 X100.756 Y122.888 E45.25075
G1 X100.039 Y122.769 E45.28701
G1 X99.34 Y122.571 E45.32325
G1 X98.667 Y122.298 E45.35949
G1 X98.028 Y121.953 E45.39572
G1 X97.595 Y121.663 E45.42172
G1 X96.877 Y121.14 E45.46603
G1 X96.314 Y120.68 E45.5023
G1 X95.806 Y120.162 E45.5385
G1 X95.357 Y119.591 E45.57474
G1 X94.974 Y118.974 E45.61097
