;FLAVOR:Marlin
;TIME:5904
;Filament used: 4.55708m
;Layer height: 0.2
;MINX:57.567
;MINY:78.658
;MINZ:0.3
;MAXX:152.433
;MAXY:131.342
;MAXZ:13.975
;Generated with Cura_SteamEngine 4.13.1
M82 ;absolute extrusion mode
G21                                        ; metric values 
G90                                        ; absolute positioning 
M82                                        ; set extruder to absolute mode 
M107                                       ; start with the fan off 
M140 S60           ; Start heating the bed 
G4 S60                                     ; wait 1 minute 
M104 S210         ; start heating the hot end 
M190 S60           ; wait for bed 
M109 S210         ; wait for hotend 
M300 S1000 P500                            ; BEEP heating done 
G28 X0 Y10 Z0                              ; move X/Y to min endstops 
M420 S1                                    ; Enable leveling 
M420 Z2.0                                  ; Set leveling fading height to 2 mm 
G0 Z0.15                                   ; lift nozzle a bit 
G92 E0                                     ; zero the extruded length 
G1 X50 E25 F500                            ; Extrude 25mm of filament in a 5cm line. 
G92 E0                                     ; zero the extruded length again 
G1 E-2 F500                                ; Retract a little 
G1 X120 F4000                              ; Quickly wipe away from the filament line`
G92 E0
G92 E0
G1 F1500 E-6
;LAYER_COUNT:69
;LAYER:0
M106 S76.5
M205 X10 Y10
G1 F600 Z0.375
G0 F6000 X88.674 Y80.597 Z0.375
M205 X8 Y8
;TYPE:SKIRT
G1 F600 Z0.3
G1 F1500 E0
G1 F1200 X89.295 Y80.11 E0.03937
G1 X89.963 Y79.688 E0.07879
G1 X90.669 Y79.335 E0.11817
G1 X91.135 Y79.15 E0.14319
G1 X91.204 Y79.125 E0.14685
G1 X91.959 Y78.893 E0.18625
G1 X92.734 Y78.74 E0.22566
G1 X93.861 Y78.658 E0.28204
G1 X122.901 Y78.658 E1.73085
G1 X123.69 Y78.698 E1.77026
G1 X124.47 Y78.817 E1.80963
G1 X125.235 Y79.015 E1.84905
G1 X126.135 Y79.36 E1.89714
G1 X126.214 Y79.396 E1.90147
G1 X126.916 Y79.76 E1.94092
G1 X127.576 Y80.192 E1.98028
G1 X128.19 Y80.689 E2.01969
G1 X128.846 Y81.353 E2.06625
G1 X150.472 Y106.03 E3.70326
G1 X150.962 Y106.65 E3.74269
G1 X151.386 Y107.315 E3.78203
G1 X151.855 Y108.293 E3.83615
G1 X151.882 Y108.361 E3.8398
G1 X152.136 Y109.108 E3.87916
G1 X152.313 Y109.878 E3.91858
G1 X152.412 Y110.661 E3.95795
G1 X152.433 Y111.239 E3.98681
G1 X152.433 Y115.056 E4.17724
G1 X152.393 Y115.845 E4.21665
G1 X152.274 Y116.625 E4.25602
G1 X152.168 Y117.071 E4.27889
G1 X151.931 Y117.824 E4.31827
G1 X151.44 Y118.888 E4.37673
G1 X150.063 Y121.368 E4.51825
G1 X149.646 Y122.038 E4.55763
G1 X149.182 Y122.64 E4.59555
G1 X149.159 Y122.667 E4.59732
G1 X148.394 Y123.447 E4.65182
G1 X144.987 Y126.466 E4.87893
G1 X144.513 Y126.854 E4.90949
G1 X140.68 Y129.747 E5.14907
G1 X140.026 Y130.19 E5.18848
G1 X139.331 Y130.565 E5.22788
G1 X138.52 Y130.896 E5.27158
G1 X138.459 Y130.917 E5.2748
G1 X137.7 Y131.136 E5.31421
G1 X136.923 Y131.277 E5.35361
G1 X135.92 Y131.342 E5.40376
G1 X129.328 Y131.342 E5.73263
G1 X128.539 Y131.302 E5.77205
G1 X127.759 Y131.183 E5.81141
G1 X126.994 Y130.985 E5.85083
G1 X126.521 Y130.81 E5.876
G1 X125.364 Y130.81 E5.93372
G1 X125.199 Y130.879 E5.94264
G1 X124.443 Y131.108 E5.98205
G1 X123.668 Y131.26 E6.02145
G1 X122.558 Y131.34 E6.07697
G1 X101.763 Y131.342 E7.11444
G1 X100.974 Y131.302 E7.15385
G1 X100.193 Y131.183 E7.19327
G1 X99.879 Y131.101 E7.20946
G1 X99.261 Y131.236 E7.24102
G1 X98.476 Y131.326 E7.28044
G1 X97.982 Y131.342 E7.3051
G1 X74.015 Y131.342 E8.50082
G1 X73.226 Y131.302 E8.54023
G1 X72.446 Y131.183 E8.57959
G1 X71.912 Y131.053 E8.60701
G1 X71.862 Y131.039 E8.6096
G1 X71.113 Y130.788 E8.64901
G1 X70.394 Y130.462 E8.6884
G1 X69.846 Y130.152 E8.71981
G1 X64.763 Y126.991 E9.01844
G1 X63.974 Y126.43 E9.06674
G1 X63.953 Y126.413 E9.06809
G1 X63.196 Y125.712 E9.11956
G1 X59.73 Y122.05 E9.37112
G1 X59.217 Y121.449 E9.41054
G1 X58.767 Y120.8 E9.44994
G1 X58.385 Y120.109 E9.48933
G1 X58.139 Y119.55 E9.5198
G1 X58.111 Y119.479 E9.52361
G1 X57.859 Y118.73 E9.56303
G1 X57.684 Y117.96 E9.60243
G1 X57.587 Y117.176 E9.64184
G1 X57.567 Y116.617 E9.66975
G1 X57.567 Y111.248 E9.93761
G1 X57.607 Y110.459 E9.97702
G1 X57.726 Y109.679 E10.01639
G1 X57.924 Y108.914 E10.05581
G1 X58.269 Y108.014 E10.1039
G1 X58.305 Y107.935 E10.10823
G1 X58.669 Y107.233 E10.14768
G1 X59.101 Y106.573 E10.18703
G1 X59.598 Y105.959 E10.22644
G1 X60.285 Y105.283 E10.27453
G1 X88.674 Y80.597 E12.15144
M205 X10 Y10
G0 F6000 X88.936 Y80.899
M205 X8 Y8
G1 F1200 X89.542 Y80.425 E12.18983
G1 X90.194 Y80.017 E12.2282
G1 X90.885 Y79.678 E12.2666
G1 X91.34 Y79.501 E12.29096
G1 X92.076 Y79.277 E12.32934
G1 X92.831 Y79.13 E12.36771
G1 X93.861 Y79.058 E12.41922
G1 X122.901 Y79.058 E13.86804
G1 X123.669 Y79.098 E13.9064
G1 X124.429 Y79.217 E13.94478
G1 X125.172 Y79.415 E13.98314
G1 X125.97 Y79.724 E14.02584
G1 X126.049 Y79.76 E14.03017
G1 X126.731 Y80.115 E14.06853
G1 X127.373 Y80.539 E14.10691
G1 X127.967 Y81.027 E14.14526
G1 X128.545 Y81.617 E14.18647
G1 X150.171 Y106.294 E15.82348
G1 X150.647 Y106.898 E15.86184
G1 X151.058 Y107.548 E15.90021
G1 X151.484 Y108.44 E15.94953
G1 X151.511 Y108.508 E15.95318
G1 X151.757 Y109.237 E15.99156
G1 X151.926 Y109.987 E16.02992
G1 X152.017 Y110.751 E16.0683
G1 X152.033 Y111.239 E16.09266
G1 X152.033 Y115.056 E16.28309
G1 X151.993 Y115.824 E16.32146
G1 X151.793 Y116.924 E16.37724
G1 X151.781 Y116.97 E16.37961
G1 X151.549 Y117.703 E16.41797
G1 X151.091 Y118.694 E16.47244
G1 X149.714 Y121.174 E16.61396
G1 X149.306 Y121.826 E16.65233
G1 X148.877 Y122.381 E16.68733
G1 X148.854 Y122.408 E16.68909
G1 X148.129 Y123.147 E16.74074
G1 X144.722 Y126.166 E16.96785
G1 X144.272 Y126.534 E16.99685
G1 X140.439 Y129.427 E17.23644
G1 X139.802 Y129.858 E17.27481
G1 X139.123 Y130.221 E17.31322
G1 X138.39 Y130.518 E17.35268
G1 X138.329 Y130.539 E17.3559
G1 X137.59 Y130.751 E17.39425
G1 X136.832 Y130.886 E17.43266
G1 X135.92 Y130.942 E17.47825
G1 X129.328 Y130.942 E17.80713
G1 X128.56 Y130.902 E17.84549
G1 X127.8 Y130.783 E17.88387
G1 X127.057 Y130.585 E17.92223
G1 X126.598 Y130.41 E17.94674
G1 X125.283 Y130.41 E18.01235
G1 X125.007 Y130.523 E18.02723
G1 X124.269 Y130.739 E18.06559
G1 X123.512 Y130.878 E18.10399
G1 X122.558 Y130.94 E18.15168
G1 X101.763 Y130.942 E19.18915
G1 X100.995 Y130.902 E19.22752
G1 X100.235 Y130.783 E19.2659
G1 X99.831 Y130.707 E19.28641
G1 X99.077 Y130.861 E19.3248
G1 X97.982 Y130.942 E19.37958
G1 X74.015 Y130.942 E20.5753
G1 X73.247 Y130.902 E20.61366
G1 X72.487 Y130.783 E20.65204
G1 X71.97 Y130.654 E20.67863
G1 X71.241 Y130.408 E20.71701
G1 X70.541 Y130.088 E20.75541
G1 X70.057 Y129.812 E20.78321
G1 X64.974 Y126.651 E21.08184
G1 X64.226 Y126.119 E21.12763
G1 X64.205 Y126.102 E21.12898
G1 X63.487 Y125.437 E21.1778
G1 X60.021 Y121.775 E21.42936
G1 X59.522 Y121.189 E21.46776
G1 X59.086 Y120.555 E21.50615
G1 X58.719 Y119.88 E21.54448
G1 X58.511 Y119.403 E21.57044
G1 X58.483 Y119.332 E21.57425
G1 X58.238 Y118.603 E21.61262
G1 X58.071 Y117.852 E21.651
G1 X57.982 Y117.088 E21.68937
G1 X57.967 Y116.617 E21.71288
G1 X57.967 Y111.248 E21.98074
G1 X58.007 Y110.48 E22.01911
G1 X58.126 Y109.72 E22.05749
G1 X58.324 Y108.977 E22.09585
G1 X58.633 Y108.179 E22.13854
G1 X58.669 Y108.1 E22.14288
G1 X59.024 Y107.418 E22.18123
G1 X59.448 Y106.776 E22.21962
G1 X59.936 Y106.182 E22.25797
G1 X60.547 Y105.585 E22.30059
G1 X88.936 Y80.899 E24.17751
M205 X10 Y10
G0 F6000 X89.199 Y81.201
M205 X8 Y8
G1 F1200 X89.789 Y80.741 E24.21483
G1 X90.424 Y80.346 E24.25214
G1 X91.407 Y79.902 E24.30595
G1 X91.476 Y79.877 E24.30961
G1 X92.192 Y79.66 E24.34694
G1 X92.927 Y79.521 E24.38426
G1 X93.861 Y79.458 E24.43096
G1 X122.901 Y79.458 E25.87977
G1 X123.648 Y79.498 E25.91709
G1 X124.386 Y79.617 E25.95439
G1 X125.108 Y79.815 E25.99174
G1 X125.804 Y80.088 E26.02904
G1 X125.883 Y80.124 E26.03337
G1 X126.546 Y80.47 E26.07068
G1 X127.168 Y80.885 E26.10799
G1 X127.743 Y81.364 E26.14532
G1 X128.244 Y81.88 E26.1812
G1 X149.87 Y106.557 E27.81821
G1 X150.333 Y107.146 E27.85559
G1 X150.73 Y107.78 E27.89291
G1 X151.112 Y108.588 E27.9375
G1 X151.139 Y108.656 E27.94115
G1 X151.377 Y109.365 E27.97846
G1 X151.539 Y110.095 E28.01576
G1 X151.622 Y110.839 E28.05311
G1 X151.633 Y111.239 E28.07308
G1 X151.633 Y115.056 E28.26351
G1 X151.593 Y115.803 E28.30083
G1 X151.406 Y116.823 E28.35256
G1 X151.394 Y116.869 E28.35494
G1 X151.167 Y117.582 E28.39227
G1 X150.741 Y118.5 E28.44276
G1 X149.364 Y120.98 E28.58428
G1 X148.966 Y121.614 E28.62162
G1 X148.573 Y122.121 E28.65363
G1 X148.55 Y122.148 E28.6554
G1 X147.863 Y122.848 E28.70433
G1 X144.456 Y125.867 E28.93144
G1 X144.031 Y126.215 E28.95884
G1 X140.198 Y129.108 E29.19843
G1 X139.578 Y129.526 E29.23573
G1 X138.916 Y129.876 E29.27309
G1 X138.26 Y130.14 E29.30837
G1 X138.199 Y130.161 E29.31159
G1 X137.479 Y130.366 E29.34894
G1 X136.742 Y130.494 E29.38626
G1 X135.92 Y130.542 E29.42733
G1 X129.328 Y130.542 E29.75621
G1 X128.581 Y130.502 E29.79353
G1 X127.843 Y130.383 E29.83083
G1 X127.121 Y130.185 E29.86818
G1 X126.675 Y130.01 E29.89208
G1 X125.202 Y130.01 E29.96557
G1 X124.816 Y130.165 E29.98632
G1 X124.096 Y130.369 E30.02366
G1 X123.359 Y130.494 E30.06095
G1 X122.558 Y130.54 E30.10098
G1 X101.763 Y130.542 E31.13844
G1 X101.016 Y130.502 E31.17577
G1 X100.277 Y130.383 E31.21311
G1 X99.869 Y130.274 E31.23418
G1 X99.631 Y130.345 E31.24657
G1 X98.896 Y130.482 E31.28387
G1 X97.982 Y130.542 E31.32957
G1 X74.015 Y130.542 E32.52529
G1 X73.268 Y130.502 E32.56261
G1 X72.53 Y130.383 E32.5999
G1 X72.078 Y130.269 E32.62316
G1 X71.369 Y130.029 E32.6605
G1 X70.69 Y129.715 E32.69783
G1 X70.268 Y129.472 E32.72212
G1 X65.185 Y126.311 E33.02075
G1 X64.478 Y125.808 E33.06404
G1 X64.457 Y125.791 E33.06539
G1 X63.777 Y125.162 E33.1116
G1 X60.311 Y121.5 E33.36315
G1 X59.827 Y120.93 E33.40046
G1 X59.406 Y120.311 E33.43781
G1 X59.053 Y119.652 E33.4751
G1 X58.855 Y119.185 E33.50041
G1 X58.618 Y118.476 E33.53771
G1 X58.458 Y117.745 E33.57504
G1 X58.378 Y117.001 E33.61237
G1 X58.367 Y116.617 E33.63154
G1 X58.367 Y111.248 E33.8994
G1 X58.407 Y110.501 E33.93672
G1 X58.526 Y109.763 E33.97401
G1 X58.724 Y109.041 E34.01137
G1 X58.997 Y108.345 E34.04866
G1 X59.033 Y108.266 E34.053
G1 X59.379 Y107.603 E34.09031
G1 X59.794 Y106.981 E34.12761
G1 X60.273 Y106.406 E34.16495
G1 X60.81 Y105.887 E34.20221
G1 X89.199 Y81.201 E36.07912
M205 X10 Y10
G0 F6000 X89.461 Y81.503
M205 X8 Y8
G1 F1200 X90.035 Y81.057 E36.11539
G1 X90.654 Y80.677 E36.15162
G1 X91.544 Y80.278 E36.20028
G1 X91.613 Y80.253 E36.20395
G1 X92.308 Y80.043 E36.24017
G1 X93.023 Y79.911 E36.27644
G1 X93.861 Y79.858 E36.31833
G1 X122.901 Y79.858 E37.76715
G1 X123.626 Y79.898 E37.80337
G1 X124.343 Y80.017 E37.83963
G1 X125.042 Y80.215 E37.87588
G1 X125.638 Y80.452 E37.90788
G1 X125.717 Y80.488 E37.91221
G1 X126.36 Y80.825 E37.94843
G1 X126.963 Y81.231 E37.98469
G1 X127.517 Y81.701 E38.02094
G1 X127.944 Y82.144 E38.05164
G1 X149.57 Y106.821 E39.68864
G1 X150.018 Y107.393 E39.72489
G1 X150.4 Y108.01 E39.76109
G1 X150.74 Y108.735 E39.80104
G1 X150.767 Y108.803 E39.80469
G1 X150.998 Y109.492 E39.84095
G1 X151.151 Y110.202 E39.87718
G1 X151.233 Y111.239 E39.92908
G1 X151.233 Y115.056 E40.11951
G1 X151.193 Y115.781 E40.15574
G1 X151.019 Y116.722 E40.20348
G1 X151.007 Y116.768 E40.20585
G1 X150.786 Y117.46 E40.24209
G1 X150.391 Y118.306 E40.28867
G1 X149.014 Y120.786 E40.4302
G1 X148.627 Y121.401 E40.46645
G1 X148.268 Y121.862 E40.4956
G1 X148.245 Y121.889 E40.49737
G1 X147.598 Y122.549 E40.54348
G1 X144.191 Y125.568 E40.77059
G1 X143.79 Y125.896 E40.79643
G1 X139.957 Y128.789 E41.03602
G1 X139.354 Y129.194 E41.07225
G1 X138.71 Y129.53 E41.10849
G1 X138.129 Y129.762 E41.13971
G1 X138.068 Y129.783 E41.14292
G1 X137.37 Y129.981 E41.17912
G1 X136.653 Y130.101 E41.21539
G1 X135.92 Y130.142 E41.25202
G1 X129.328 Y130.142 E41.58089
G1 X128.603 Y130.102 E41.61712
G1 X127.886 Y129.983 E41.65338
G1 X127.187 Y129.785 E41.68962
G1 X126.741 Y129.61 E41.71353
G1 X125.128 Y129.61 E41.794
G1 X124.627 Y129.807 E41.82086
G1 X123.926 Y129.996 E41.85708
G1 X123.208 Y130.108 E41.89333
G1 X122.558 Y130.14 E41.9258
G1 X101.763 Y130.142 E42.96327
G1 X101.037 Y130.102 E42.99954
G1 X100.321 Y129.983 E43.03576
G1 X99.862 Y129.859 E43.05948
G1 X99.434 Y129.98 E43.08167
G1 X98.718 Y130.101 E43.11789
G1 X97.982 Y130.142 E43.15467
G1 X74.015 Y130.142 E44.35039
G1 X73.29 Y130.102 E44.38661
G1 X72.235 Y129.898 E44.44022
G1 X72.185 Y129.884 E44.44281
G1 X71.498 Y129.65 E44.47902
G1 X70.84 Y129.341 E44.51529
G1 X70.48 Y129.133 E44.53603
G1 X65.397 Y125.972 E44.83466
G1 X64.729 Y125.497 E44.87555
G1 X64.708 Y125.48 E44.8769
G1 X64.068 Y124.887 E44.92043
G1 X60.602 Y121.225 E45.17198
G1 X60.132 Y120.671 E45.20823
G1 X59.726 Y120.068 E45.2445
G1 X59.255 Y119.109 E45.2978
G1 X59.227 Y119.038 E45.30161
G1 X58.998 Y118.349 E45.33783
G1 X58.847 Y117.639 E45.37405
G1 X58.767 Y116.617 E45.42519
G1 X58.767 Y111.248 E45.69305
G1 X58.807 Y110.523 E45.72928
G1 X58.926 Y109.806 E45.76554
G1 X59.124 Y109.107 E45.80178
G1 X59.361 Y108.511 E45.83378
G1 X59.397 Y108.432 E45.83811
G1 X59.734 Y107.789 E45.87433
G1 X60.14 Y107.186 E45.9106
G1 X60.61 Y106.632 E45.94684
G1 X61.072 Y106.189 E45.97878
G1 X89.461 Y81.503 E47.85569
M205 X10 Y10
G0 F6000 X89.724 Y81.804
M205 X8 Y8
G1 F1200 X90.28 Y81.373 E47.89079
G1 X90.882 Y81.008 E47.92591
G1 X91.68 Y80.654 E47.96947
G1 X91.749 Y80.629 E47.97313
G1 X92.423 Y80.427 E48.00823
G1 X93.116 Y80.303 E48.04336
G1 X93.861 Y80.258 E48.08059
G1 X122.901 Y80.258 E49.5294
G1 X123.604 Y80.298 E49.56453
G1 X124.298 Y80.417 E49.59966
G1 X124.973 Y80.615 E49.63476
G1 X125.472 Y80.816 E49.6616
G1 X125.551 Y80.852 E49.66593
G1 X126.174 Y81.18 E49.70105
G1 X126.756 Y81.576 E49.73617
G1 X127.289 Y82.036 E49.7713
G1 X127.643 Y82.408 E49.79692
G1 X149.269 Y107.085 E51.43392
G1 X149.702 Y107.64 E51.46904
G1 X150.069 Y108.24 E51.50413
G1 X150.368 Y108.883 E51.53951
G1 X150.395 Y108.951 E51.54316
G1 X150.618 Y109.619 E51.5783
G1 X150.763 Y110.308 E51.61342
G1 X150.833 Y111.239 E51.66
G1 X150.833 Y115.056 E51.85043
G1 X150.793 Y115.759 E51.88556
G1 X150.632 Y116.621 E51.92931
G1 X150.62 Y116.667 E51.93168
G1 X150.404 Y117.337 E51.9668
G1 X150.041 Y118.112 E52.0095
G1 X148.664 Y120.592 E52.15102
G1 X148.288 Y121.187 E52.18613
G1 X147.964 Y121.602 E52.2124
G1 X147.941 Y121.629 E52.21417
G1 X147.333 Y122.249 E52.25749
G1 X143.926 Y125.268 E52.4846
G1 X143.549 Y125.577 E52.50892
G1 X139.716 Y128.47 E52.7485
G1 X139.131 Y128.861 E52.78361
G1 X138.505 Y129.184 E52.81875
G1 X137.999 Y129.383 E52.84588
G1 X137.938 Y129.404 E52.8491
G1 X137.261 Y129.595 E52.88419
G1 X136.566 Y129.708 E52.91932
G1 X135.92 Y129.742 E52.95159
G1 X129.328 Y129.742 E53.28047
G1 X128.625 Y129.702 E53.3156
G1 X127.931 Y129.583 E53.35073
G1 X127.256 Y129.385 E53.38582
G1 X126.741 Y129.21 E53.41296
G1 X125.06 Y129.21 E53.49683
G1 X124.44 Y129.447 E53.52994
G1 X123.758 Y129.623 E53.56508
G1 X123.061 Y129.719 E53.60018
G1 X122.558 Y129.74 E53.6253
G1 X101.763 Y129.742 E54.66277
G1 X101.06 Y129.702 E54.6979
G1 X100.366 Y129.583 E54.73302
G1 X99.866 Y129.445 E54.7589
G1 X99.24 Y129.613 E54.79124
G1 X98.544 Y129.716 E54.82634
G1 X97.982 Y129.742 E54.85441
G1 X74.015 Y129.742 E56.05013
G1 X73.312 Y129.702 E56.08526
G1 X72.343 Y129.512 E56.13452
G1 X72.293 Y129.498 E56.13711
G1 X71.627 Y129.27 E56.17223
G1 X70.691 Y128.793 E56.22464
G1 X65.608 Y125.632 E56.52327
G1 X64.981 Y125.186 E56.56166
G1 X64.96 Y125.169 E56.56301
G1 X64.358 Y124.612 E56.60393
G1 X60.892 Y120.95 E56.85548
G1 X60.438 Y120.412 E56.8906
G1 X60.048 Y119.826 E56.92572
