;FLAVOR:Marlin
;TIME:7001
;Filament used: 4.91831m
;Layer height: 0.2
;MINX:57.562
;MINY:77.283
;MINZ:0.3
;MAXX:152.438
;MAXY:127.937
;MAXZ:24.7
;Generated with Cura_SteamEngine 4.13.1
M82 ;absolute extrusion mode
G21                                        ; metric values 
G90                                        ; absolute positioning 
M82                                        ; set extruder to absolute mode 
M107                                       ; start with the fan off 
M140 S60           ; Start heating the bed 
G4 S60                                     ; wait 1 minute 
M104 S210         ; start heating the hot end 
M190 S60           ; wait for bed 
M109 S210         ; wait for hotend 
M300 S1000 P500                            ; BEEP heating done 
G28 X0 Y10 Z0                              ; move X/Y to min endstops 
M420 S1                                    ; Enable leveling 
M420 Z2.0                                  ; Set leveling fading height to 2 mm 
G0 Z0.15                                   ; lift nozzle a bit 
G92 E0                                     ; zero the extruded length 
G1 X50 E25 F500                            ; Extrude 25mm of filament in a 5cm line. 
G92 E0                                     ; zero the extruded length again 
G1 E-2 F500                                ; Retract a little 
G1 X120 F4000                              ; Quickly wipe away from the filament line`
G92 E0
G92 E0
G1 F1500 E-6
;LAYER_COUNT:123
;LAYER:0
M106 S76.5
M205 X10 Y10
G1 F600 Z0.375
G0 F6000 X61.186 Y83.351 Z0.375
M205 X8 Y8
;TYPE:SKIRT
G1 F600 Z0.3
G1 F1500 E0
G1 F1200 X61.866 Y82.95 E0.03938
G1 X62.584 Y82.62 E0.07881
G1 X63.331 Y82.365 E0.11819
G1 X64.1 Y82.186 E0.15758
G1 X64.884 Y82.086 E0.19701
G1 X65.479 Y82.063 E0.22672
G1 X100.227 Y82.063 E1.9603
G1 X100.323 Y81.872 E1.97097
G1 X100.747 Y81.206 E2.01036
G1 X101.237 Y80.587 E2.04974
G1 X101.786 Y80.02 E2.08912
G1 X102.516 Y79.418 E2.13632
G1 X103.4 Y78.775 E2.19086
G1 X104.061 Y78.344 E2.23023
G1 X104.763 Y77.981 E2.26966
G1 X105.497 Y77.691 E2.30903
G1 X106.257 Y77.477 E2.34842
G1 X107.035 Y77.341 E2.38782
G1 X107.988 Y77.283 E2.43546
G1 X109.078 Y77.283 E2.48984
G1 X109.867 Y77.323 E2.52925
G1 X110.647 Y77.442 E2.56862
G1 X111.412 Y77.64 E2.60804
G1 X112.152 Y77.914 E2.64741
G1 X112.861 Y78.262 E2.68681
G1 X113.666 Y78.775 E2.73444
G1 X114.55 Y79.418 E2.78897
G1 X115.164 Y79.914 E2.82835
G1 X115.725 Y80.47 E2.86776
G1 X116.227 Y81.08 E2.90717
G1 X116.665 Y81.737 E2.94656
G1 X116.837 Y82.063 E2.96495
G1 X144.521 Y82.063 E4.34611
G1 X145.31 Y82.103 E4.38553
G1 X146.09 Y82.222 E4.42489
G1 X146.855 Y82.42 E4.46431
G1 X147.595 Y82.694 E4.50368
G1 X148.304 Y83.042 E4.54309
G1 X148.975 Y83.46 E4.58253
G1 X149.599 Y83.943 E4.62189
G1 X150.036 Y84.348 E4.65162
G1 X150.153 Y84.465 E4.65987
G1 X150.683 Y85.051 E4.69929
G1 X151.15 Y85.687 E4.73866
G1 X151.551 Y86.367 E4.77804
G1 X151.881 Y87.085 E4.81747
G1 X152.136 Y87.832 E4.85685
G1 X152.315 Y88.601 E4.89624
G1 X152.415 Y89.385 E4.93567
G1 X152.438 Y89.98 E4.96538
G1 X152.438 Y91.548 E5.0436
G1 X152.39 Y92.409 E5.08663
G1 X152.387 Y92.436 E5.08798
G1 X152.216 Y93.412 E5.13742
G1 X145.315 Y121.887 E6.59916
G1 X145.09 Y122.644 E6.63856
G1 X144.79 Y123.375 E6.67799
G1 X144.418 Y124.071 E6.71736
G1 X143.977 Y124.726 E6.75675
G1 X143.472 Y125.334 E6.79618
G1 X142.908 Y125.887 E6.83559
G1 X142.463 Y126.255 E6.8644
G1 X141.819 Y126.713 E6.90383
G1 X141.133 Y127.103 E6.9432
G1 X140.411 Y127.422 E6.98258
G1 X139.66 Y127.667 E7.02199
G1 X138.888 Y127.834 E7.06139
G1 X138.103 Y127.922 E7.1008
G1 X137.624 Y127.937 E7.12471
G1 X135.027 Y127.937 E7.25428
G1 X134.331 Y127.902 E7.28904
G1 X134.235 Y127.914 E7.29387
G1 X133.64 Y127.937 E7.32358
G1 X130.638 Y127.937 E7.47335
G1 X129.849 Y127.897 E7.51276
G1 X129.069 Y127.778 E7.55213
G1 X128.902 Y127.735 E7.56073
G1 X128.562 Y127.814 E7.57814
G1 X127.778 Y127.914 E7.61757
G1 X127.183 Y127.937 E7.64728
G1 X124.215 Y127.937 E7.79536
G1 X123.506 Y127.901 E7.83077
G1 X123.405 Y127.914 E7.83585
G1 X122.81 Y127.937 E7.86556
G1 X86.94 Y127.937 E9.65512
G1 X86.229 Y127.901 E9.69064
G1 X86.127 Y127.914 E9.69577
G1 X85.532 Y127.937 E9.72548
G1 X82.571 Y127.937 E9.8732
G1 X81.782 Y127.897 E9.91262
G1 X81.002 Y127.778 E9.95198
G1 X80.602 Y127.674 E9.9726
G1 X80.002 Y127.814 E10.00334
G1 X79.218 Y127.914 E10.04277
G1 X78.623 Y127.937 E10.07248
G1 X75.631 Y127.937 E10.22175
G1 X74.931 Y127.902 E10.25671
G1 X74.833 Y127.914 E10.26164
G1 X74.238 Y127.937 E10.29135
G1 X72.376 Y127.937 E10.38424
G1 X71.587 Y127.897 E10.42366
G1 X70.807 Y127.778 E10.46302
G1 X70.042 Y127.58 E10.50244
G1 X69.302 Y127.306 E10.54181
G1 X68.593 Y126.958 E10.58122
G1 X67.922 Y126.54 E10.62066
G1 X67.427 Y126.168 E10.65155
G1 X66.834 Y125.647 E10.69093
G1 X66.295 Y125.069 E10.73036
G1 X65.819 Y124.44 E10.76971
G1 X65.408 Y123.765 E10.80914
G1 X65.067 Y123.053 E10.84853
G1 X64.8 Y122.31 E10.88791
G1 X64.685 Y121.887 E10.90978
G1 X57.784 Y93.412 E12.37153
G1 X57.621 Y92.504 E12.41756
G1 X57.618 Y92.479 E12.41881
G1 X57.562 Y91.55 E12.46525
G1 X57.562 Y89.98 E12.54357
G1 X57.602 Y89.191 E12.58299
G1 X57.721 Y88.411 E12.62235
G1 X57.919 Y87.646 E12.66177
G1 X58.193 Y86.906 E12.70114
G1 X58.541 Y86.197 E12.74055
G1 X58.959 Y85.526 E12.77999
G1 X59.442 Y84.902 E12.81936
G1 X59.847 Y84.465 E12.84908
G1 X59.964 Y84.348 E12.85734
G1 X60.55 Y83.818 E12.89675
G1 X61.186 Y83.351 E12.93612
M205 X10 Y10
G0 F6000 X61.44 Y83.663
M205 X8 Y8
G1 F1200 X62.105 Y83.277 E12.97448
G1 X62.807 Y82.962 E13.01287
G1 X63.538 Y82.722 E13.05125
G1 X64.289 Y82.559 E13.08959
G1 X65.054 Y82.475 E13.12799
G1 X65.479 Y82.463 E13.1492
G1 X100.473 Y82.463 E14.89506
G1 X100.69 Y82.035 E14.919
G1 X101.108 Y81.389 E14.95739
G1 X101.59 Y80.79 E14.99574
G1 X102.133 Y80.245 E15.03413
G1 X102.751 Y79.742 E15.07388
G1 X103.635 Y79.099 E15.12842
G1 X104.28 Y78.679 E15.16682
G1 X104.965 Y78.329 E15.20519
G1 X105.682 Y78.051 E15.24356
G1 X106.424 Y77.85 E15.28191
G1 X107.184 Y77.727 E15.32032
G1 X107.988 Y77.683 E15.36049
G1 X109.078 Y77.683 E15.41487
G1 X109.846 Y77.723 E15.45324
G1 X110.606 Y77.842 E15.49162
G1 X111.349 Y78.04 E15.52998
G1 X112.068 Y78.314 E15.56837
G1 X112.754 Y78.661 E15.60672
G1 X113.431 Y79.099 E15.64695
G1 X114.315 Y79.742 E15.70149
G1 X114.913 Y80.226 E15.73987
G1 X115.457 Y80.769 E15.77822
G1 X115.942 Y81.366 E15.81659
G1 X116.362 Y82.011 E15.85499
G1 X116.594 Y82.463 E15.88034
G1 X144.521 Y82.463 E17.27362
G1 X145.289 Y82.503 E17.31199
G1 X146.049 Y82.622 E17.35037
G1 X146.792 Y82.82 E17.38873
G1 X147.511 Y83.094 E17.42712
G1 X148.197 Y83.441 E17.46547
G1 X148.844 Y83.857 E17.50385
G1 X149.444 Y84.338 E17.54221
G1 X149.871 Y84.747 E17.57171
G1 X150.385 Y85.319 E17.61008
G1 X150.838 Y85.941 E17.64847
G1 X151.224 Y86.606 E17.68683
G1 X151.539 Y87.308 E17.72522
G1 X151.779 Y88.039 E17.7636
G1 X151.942 Y88.79 E17.80194
G1 X152.026 Y89.555 E17.84034
G1 X152.038 Y89.98 E17.86155
G1 X152.038 Y91.548 E17.93978
G1 X151.993 Y92.365 E17.9806
G1 X151.99 Y92.392 E17.98195
G1 X151.827 Y93.318 E18.02886
G1 X144.926 Y121.793 E19.49061
G1 X144.706 Y122.53 E19.52898
G1 X144.411 Y123.24 E19.56734
G1 X144.044 Y123.916 E19.60572
G1 X143.608 Y124.55 E19.6441
G1 X143.109 Y125.136 E19.6825
G1 X142.324 Y125.854 E19.73558
G1 X142.214 Y125.941 E19.74257
G1 X141.587 Y126.386 E19.78093
G1 X140.917 Y126.764 E19.81931
G1 X140.212 Y127.07 E19.85766
G1 X139.478 Y127.301 E19.89605
G1 X138.724 Y127.455 E19.93444
G1 X137.624 Y127.537 E19.98947
G1 X135.027 Y127.537 E20.11904
G1 X134.3 Y127.499 E20.15536
G1 X133.64 Y127.537 E20.18834
G1 X130.638 Y127.537 E20.33811
G1 X129.87 Y127.497 E20.37648
G1 X129.11 Y127.378 E20.41485
G1 X128.909 Y127.325 E20.42522
G1 X128.373 Y127.441 E20.45259
G1 X127.608 Y127.525 E20.49098
G1 X127.183 Y127.537 E20.51219
G1 X124.215 Y127.537 E20.66027
G1 X123.476 Y127.499 E20.69718
G1 X122.81 Y127.537 E20.73046
G1 X86.94 Y127.537 E22.52003
G1 X86.199 Y127.498 E22.55705
G1 X85.532 Y127.537 E22.59038
G1 X82.571 Y127.537 E22.7381
G1 X81.803 Y127.497 E22.77647
G1 X81.043 Y127.378 E22.81485
G1 X80.564 Y127.278 E22.83926
G1 X79.813 Y127.441 E22.8776
G1 X79.048 Y127.525 E22.916
G1 X78.623 Y127.537 E22.93721
G1 X75.631 Y127.537 E23.08648
G1 X74.9 Y127.499 E23.123
G1 X74.238 Y127.537 E23.15608
G1 X72.376 Y127.537 E23.24898
G1 X71.608 Y127.497 E23.28735
G1 X70.848 Y127.378 E23.32572
G1 X70.105 Y127.18 E23.36409
G1 X69.386 Y126.906 E23.40247
G1 X68.7 Y126.559 E23.44083
G1 X67.786 Y125.941 E23.49587
G1 X67.676 Y125.854 E23.50287
G1 X67.098 Y125.346 E23.54126
G1 X66.576 Y124.781 E23.57964
G1 X66.116 Y124.165 E23.61799
G1 X65.722 Y123.504 E23.65638
G1 X65.399 Y122.806 E23.69476
G1 X65.074 Y121.793 E23.74783
G1 X58.173 Y93.318 E25.20958
G1 X58.018 Y92.457 E25.25323
G1 X58.015 Y92.432 E25.25448
G1 X57.962 Y91.55 E25.29857
G1 X57.962 Y89.98 E25.37689
G1 X58.002 Y89.212 E25.41526
G1 X58.121 Y88.452 E25.45364
G1 X58.319 Y87.709 E25.492
G1 X58.593 Y86.99 E25.53039
G1 X58.94 Y86.304 E25.56874
G1 X59.356 Y85.657 E25.60712
G1 X59.837 Y85.057 E25.64548
G1 X60.246 Y84.63 E25.67498
G1 X60.818 Y84.116 E25.71335
G1 X61.44 Y83.663 E25.75174
M205 X10 Y10
G0 F6000 X61.692 Y83.976
M205 X8 Y8
G1 F1200 X62.342 Y83.605 E25.78908
G1 X63.028 Y83.306 E25.82641
G1 X63.742 Y83.082 E25.86374
G1 X64.475 Y82.935 E25.90104
G1 X65.479 Y82.863 E25.95126
G1 X100.717 Y82.863 E27.70929
G1 X101.057 Y82.199 E27.74651
G1 X101.468 Y81.574 E27.78383
G1 X101.944 Y80.996 E27.82119
G1 X102.478 Y80.473 E27.85848
G1 X102.986 Y80.065 E27.89098
G1 X103.87 Y79.422 E27.94552
G1 X104.498 Y79.015 E27.98285
G1 X105.165 Y78.677 E28.02016
G1 X105.865 Y78.413 E28.05748
G1 X106.589 Y78.224 E28.09481
G1 X107.329 Y78.114 E28.13214
G1 X107.988 Y78.083 E28.16505
G1 X109.078 Y78.083 E28.21943
G1 X109.825 Y78.123 E28.25675
G1 X110.563 Y78.242 E28.29405
G1 X111.285 Y78.44 E28.3314
G1 X111.981 Y78.713 E28.3687
G1 X112.644 Y79.06 E28.40603
G1 X113.196 Y79.422 E28.43897
G1 X114.08 Y80.065 E28.4935
G1 X114.66 Y80.537 E28.53081
G1 X115.187 Y81.068 E28.56813
G1 X115.654 Y81.652 E28.60544
G1 X116.057 Y82.283 E28.64279
G1 X116.344 Y82.863 E28.67508
G1 X144.521 Y82.863 E30.08083
G1 X145.268 Y82.903 E30.11815
G1 X146.006 Y83.022 E30.15545
G1 X146.728 Y83.22 E30.1928
G1 X147.424 Y83.493 E30.2301
G1 X148.087 Y83.84 E30.26743
G1 X148.71 Y84.255 E30.30478
G1 X149.471 Y84.913 E30.35497
G1 X149.588 Y85.03 E30.36322
G1 X150.088 Y85.587 E30.40057
G1 X150.525 Y86.193 E30.43784
G1 X150.896 Y86.843 E30.47518
G1 X151.195 Y87.529 E30.51252
G1 X151.419 Y88.243 E30.54985
G1 X151.566 Y88.976 E30.58715
G1 X151.638 Y89.98 E30.63736
G1 X151.638 Y91.548 E30.71559
G1 X151.595 Y92.321 E30.75422
G1 X151.592 Y92.348 E30.75557
G1 X151.438 Y93.224 E30.79995
G1 X144.537 Y121.699 E32.2617
G1 X144.322 Y122.415 E32.29899
G1 X144.032 Y123.105 E32.33633
G1 X143.67 Y123.76 E32.37367
G1 X143.241 Y124.372 E32.41096
G1 X142.748 Y124.935 E32.44829
G1 X142.076 Y125.54 E32.4934
G1 X141.966 Y125.627 E32.5004
G1 X141.356 Y126.059 E32.53769
G1 X140.702 Y126.424 E32.57506
G1 X140.014 Y126.716 E32.61235
G1 X139.298 Y126.934 E32.64969
G1 X138.563 Y127.074 E32.68702
G1 X137.624 Y127.137 E32.73397
G1 X135.027 Y127.137 E32.86353
G1 X134.28 Y127.097 E32.90085
G1 X134.255 Y127.093 E32.90212
G1 X133.64 Y127.137 E32.93288
G1 X130.638 Y127.137 E33.08265
G1 X129.891 Y127.097 E33.11997
G1 X129.153 Y126.978 E33.15726
G1 X128.92 Y126.918 E33.16927
G1 X128.187 Y127.065 E33.20657
G1 X127.183 Y127.137 E33.25678
G1 X124.215 Y127.137 E33.40486
G1 X123.468 Y127.097 E33.44218
G1 X123.437 Y127.092 E33.44375
G1 X122.81 Y127.137 E33.47511
G1 X86.94 Y127.137 E35.26467
G1 X86.193 Y127.097 E35.30199
G1 X86.161 Y127.092 E35.30361
G1 X85.532 Y127.137 E35.33507
G1 X82.571 Y127.137 E35.48279
G1 X81.824 Y127.097 E35.52011
G1 X81.086 Y126.978 E35.55741
G1 X80.597 Y126.844 E35.5827
G1 X80.36 Y126.918 E35.59509
G1 X79.627 Y127.065 E35.63239
G1 X78.623 Y127.137 E35.68261
G1 X75.631 Y127.137 E35.83188
G1 X74.884 Y127.097 E35.8692
G1 X74.857 Y127.093 E35.87056
G1 X74.238 Y127.137 E35.90152
G1 X72.376 Y127.137 E35.99442
G1 X71.629 Y127.097 E36.03174
G1 X70.891 Y126.978 E36.06903
G1 X70.169 Y126.78 E36.10638
G1 X69.473 Y126.507 E36.14368
G1 X68.81 Y126.16 E36.18102
G1 X68.034 Y125.627 E36.22798
G1 X67.924 Y125.54 E36.23498
G1 X67.363 Y125.046 E36.27227
G1 X66.857 Y124.494 E36.30963
G1 X66.414 Y123.891 E36.34696
G1 X66.038 Y123.245 E36.38425
G1 X65.732 Y122.562 E36.42159
G1 X65.463 Y121.699 E36.46669
G1 X58.562 Y93.224 E37.92844
G1 X58.415 Y92.409 E37.96976
G1 X58.412 Y92.384 E37.97101
G1 X58.362 Y91.55 E38.01269
G1 X58.362 Y89.98 E38.09102
G1 X58.402 Y89.233 E38.12834
G1 X58.521 Y88.495 E38.16564
G1 X58.719 Y87.773 E38.20299
G1 X58.992 Y87.077 E38.24029
G1 X59.339 Y86.414 E38.27762
G1 X59.754 Y85.791 E38.31497
G1 X60.412 Y85.03 E38.36516
G1 X60.529 Y84.913 E38.37341
G1 X61.086 Y84.413 E38.41076
G1 X61.692 Y83.976 E38.44803
M205 X10 Y10
G0 F6000 X61.944 Y84.289
M205 X8 Y8
G1 F1200 X62.578 Y83.935 E38.48426
G1 X63.247 Y83.652 E38.5205
G1 X63.943 Y83.444 E38.55674
G1 X64.658 Y83.314 E38.593
G1 X65.479 Y83.263 E38.63403
G1 X100.991 Y83.263 E40.40574
G1 X101.089 Y83.009 E40.41932
G1 X101.424 Y82.364 E40.45558
G1 X101.828 Y81.761 E40.49179
G1 X102.296 Y81.205 E40.52805
G1 X102.822 Y80.704 E40.56429
G1 X103.222 Y80.389 E40.58969
G1 X104.106 Y79.746 E40.64423
G1 X104.716 Y79.351 E40.68048
G1 X105.365 Y79.026 E40.71669
G1 X106.047 Y78.775 E40.75295
G1 X106.752 Y78.6 E40.78919
G1 X107.472 Y78.503 E40.82544
G1 X107.988 Y78.483 E40.8512
G1 X109.078 Y78.483 E40.90558
G1 X109.803 Y78.523 E40.9418
G1 X110.52 Y78.642 E40.97806
G1 X111.219 Y78.84 E41.01431
G1 X111.892 Y79.113 E41.05054
G1 X112.531 Y79.458 E41.08677
G1 X112.96 Y79.746 E41.11255
G1 X113.844 Y80.389 E41.16709
G1 X114.407 Y80.848 E41.20333
G1 X114.916 Y81.366 E41.23956
G1 X115.366 Y81.936 E41.27579
G1 X115.749 Y82.553 E41.31202
G1 X116.063 Y83.208 E41.34826
G1 X116.083 Y83.263 E41.35118
G1 X144.521 Y83.263 E42.76996
G1 X145.246 Y83.303 E42.80618
G1 X145.963 Y83.422 E42.84244
G1 X146.662 Y83.62 E42.87869
G1 X147.335 Y83.893 E42.91492
G1 X147.974 Y84.238 E42.95115
G1 X148.571 Y84.652 E42.9874
G1 X149.188 Y85.196 E43.02843
G1 X149.305 Y85.313 E43.03669
G1 X149.789 Y85.854 E43.07291
G1 X150.212 Y86.445 E43.10916
G1 X150.566 Y87.079 E43.14539
G1 X150.849 Y87.748 E43.18163
G1 X151.057 Y88.444 E43.21787
G1 X151.187 Y89.159 E43.25413
G1 X151.238 Y89.98 E43.29517
G1 X151.238 Y91.548 E43.3734
G1 X151.198 Y92.277 E43.40982
G1 X151.195 Y92.304 E43.41118
G1 X151.049 Y93.13 E43.45302
G1 X144.148 Y121.605 E44.91477
G1 X143.939 Y122.3 E44.95098
G1 X143.654 Y122.968 E44.98721
G1 X143.297 Y123.601 E45.02347
G1 X142.873 Y124.191 E45.05972
G1 X142.387 Y124.731 E45.09596
G1 X141.828 Y125.227 E45.13325
G1 X141.718 Y125.314 E45.14024
G1 X141.125 Y125.732 E45.17644
G1 X140.489 Y126.083 E45.21268
G1 X139.818 Y126.362 E45.24894
G1 X139.121 Y126.565 E45.28515
G1 X138.405 Y126.691 E45.32142
G1 X137.624 Y126.737 E45.36046
G1 X135.027 Y126.737 E45.49002
G1 X134.297 Y126.696 E45.5265
G1 X133.64 Y126.737 E45.55934
G1 X130.638 Y126.737 E45.70911
G1 X129.913 Y126.697 E45.74534
G1 X129.196 Y126.578 E45.7816
G1 X128.913 Y126.498 E45.79627
G1 X128.719 Y126.556 E45.80637
G1 X128.004 Y126.686 E45.84263
G1 X127.183 Y126.737 E45.88367
G1 X124.215 Y126.737 E46.03174
G1 X123.49 Y126.697 E46.06797
G1 X123.48 Y126.695 E46.06847
G1 X122.81 Y126.737 E46.10197
G1 X86.94 Y126.737 E47.89153
G1 X86.204 Y126.695 E47.92831
G1 X85.532 Y126.737 E47.9619
G1 X82.571 Y126.737 E48.10962
G1 X81.846 Y126.697 E48.14585
G1 X81.129 Y126.578 E48.18211
G1 X80.593 Y126.426 E48.2099
