;FLAVOR:Marlin
;TIME:15411
;Filament used: 13.8628m
;Layer height: 0.2
;MINX:39.783
;MINY:48.319
;MINZ:0.3
;MAXX:170.205
;MAXY:161.728
;MAXZ:10.175
;Generated with Cura_SteamEngine 4.13.1
M82 ;absolute extrusion mode
G21                                        ; metric values 
G90                                        ; absolute positioning 
M82                                        ; set extruder to absolute mode 
M107                                       ; start with the fan off 
M140 S60.0           ; Start heating the bed 
G4 S60                                     ; wait 1 minute 
M104 S220.0         ; start heating the hot end 
M190 S60.0           ; wait for bed 
M109 S220.0         ; wait for hotend 
M300 S1000 P500                            ; BEEP heating done 
G28 X0 Y10 Z0                              ; move X/Y to min endstops 
M420 S1                                    ; Enable leveling 
M420 Z2.0                                  ; Set leveling fading height to 2 mm 
G0 Z0.15                                   ; lift nozzle a bit 
G92 E0                                     ; zero the extruded length 
G1 X50 E25 F500                            ; Extrude 25mm of filament in a 5cm line. 
G92 E0                                     ; zero the extruded length again 
G1 E-2 F500                                ; Retract a little 
G1 X120 F4000                              ; Quickly wipe away from the filament line`
G92 E0
G92 E0
G1 F2400 E-3
;LAYER_COUNT:50
;LAYER:0
M106 S76.5
M205 X10 Y10
G1 F600 Z0.375
G0 F6000 X79.64 Y65.189 Z0.375
M205 X8 Y8
;TYPE:SKIRT
G1 F600 Z0.3
G1 F2400 E0
G1 F1200 X80.196 Y64.628 E0.03941
G1 X80.805 Y64.126 E0.07878
G1 X81.462 Y63.688 E0.11817
G1 X82.16 Y63.318 E0.15759
G1 X83.085 Y62.957 E0.20713
G1 X87.213 Y61.64 E0.4233
G1 X87.144 Y61.267 E0.44223
G1 X87.079 Y60.48 E0.48162
G1 X87.094 Y59.69 E0.52104
G1 X87.173 Y59 E0.55569
G1 X87.212 Y58.756 E0.56802
G1 X87.376 Y57.983 E0.60744
G1 X87.617 Y57.231 E0.64684
G1 X87.933 Y56.508 E0.68621
G1 X88.321 Y55.82 E0.72561
G1 X88.776 Y55.174 E0.76503
G1 X89.294 Y54.578 E0.80443
G1 X89.869 Y54.038 E0.84378
G1 X90.497 Y53.558 E0.88322
G1 X91.169 Y53.145 E0.92257
G1 X91.88 Y52.801 E0.96197
G1 X92.577 Y52.545 E0.99902
G1 X104.894 Y48.677 E1.64311
G1 X105.658 Y48.479 E1.68248
G1 X106.439 Y48.359 E1.7219
G1 X107.228 Y48.319 E1.76132
G1 X108.016 Y48.359 E1.80068
G1 X108.797 Y48.478 E1.84009
G1 X109.562 Y48.675 E1.87951
G1 X110.302 Y48.949 E1.91887
G1 X111.011 Y49.296 E1.95826
G1 X111.682 Y49.714 E1.9977
G1 X112.307 Y50.196 E2.03707
G1 X112.681 Y50.539 E2.06239
G1 X112.852 Y50.706 E2.07432
G1 X113.388 Y51.285 E2.11368
G1 X113.863 Y51.916 E2.15308
G1 X114.272 Y52.592 E2.1925
G1 X114.481 Y53.032 E2.2168
G1 X126.754 Y49.19 E2.85841
G1 X127.518 Y48.993 E2.89777
G1 X128.299 Y48.874 E2.93718
G1 X128.836 Y48.838 E2.96403
G1 X129.626 Y48.847 E3.00345
G1 X130.41 Y48.937 E3.04282
G1 X130.848 Y49.022 E3.06508
G1 X136.599 Y50.316 E3.35917
G1 X146.219 Y51.925 E3.84578
G1 X163.483 Y54.547 E4.71696
G1 X164.257 Y54.705 E4.75638
G1 X165.011 Y54.941 E4.79579
G1 X165.737 Y55.251 E4.83518
G1 X166.428 Y55.633 E4.87457
G1 X167.077 Y56.083 E4.91397
G1 X167.677 Y56.597 E4.95338
G1 X168.222 Y57.168 E4.99277
G1 X168.558 Y57.587 E5.01956
G1 X168.656 Y57.718 E5.02772
G1 X169.096 Y58.373 E5.06709
G1 X169.468 Y59.07 E5.10651
G1 X169.768 Y59.8 E5.14588
G1 X169.992 Y60.558 E5.18531
G1 X170.138 Y61.334 E5.22471
G1 X170.205 Y62.12 E5.26406
G1 X170.193 Y62.91 E5.30348
G1 X170.127 Y63.526 E5.33439
G1 X168.633 Y73.676 E5.84623
G1 X168.478 Y74.45 E5.88561
G1 X168.247 Y75.205 E5.925
G1 X167.939 Y75.933 E5.96444
G1 X167.56 Y76.625 E6.0038
G1 X167.113 Y77.276 E6.0432
G1 X166.603 Y77.879 E6.0826
G1 X166.034 Y78.426 E6.12198
G1 X165.412 Y78.914 E6.16142
G1 X164.932 Y79.227 E6.19001
G1 X165.165 Y79.837 E6.22259
G1 X165.37 Y80.599 E6.26196
G1 X165.498 Y81.379 E6.30139
G1 X165.546 Y82.167 E6.34078
G1 X165.514 Y82.956 E6.38017
G1 X165.408 Y83.707 E6.41801
G1 X164.292 Y89.559 E6.71523
G1 X164.105 Y90.326 E6.75462
G1 X163.841 Y91.071 E6.79405
G1 X163.504 Y91.785 E6.83344
G1 X163.096 Y92.461 E6.87283
G1 X162.621 Y93.092 E6.91224
G1 X162.113 Y93.645 E6.9497
G1 X162.026 Y93.731 E6.9558
G1 X161.437 Y94.257 E6.9952
G1 X160.798 Y94.721 E7.0346
G1 X160.116 Y95.118 E7.07397
G1 X159.396 Y95.443 E7.11338
G1 X158.648 Y95.695 E7.15276
G1 X157.879 Y95.869 E7.19209
G1 X144.19 Y98.248 E7.88528
G1 X143.419 Y98.341 E7.92402
G1 X138.474 Y111.906 E8.64435
G1 X138.705 Y116.202 E8.85899
G1 X144.764 Y121.842 E9.27196
G1 X145.314 Y122.408 E9.31134
G1 X145.804 Y123.027 E9.35073
G1 X146.229 Y123.693 E9.39014
G1 X146.585 Y124.398 E9.42954
G1 X146.913 Y125.283 E9.47663
G1 X146.944 Y125.385 E9.48195
G1 X147.135 Y126.151 E9.52134
G1 X147.248 Y126.933 E9.56076
G1 X147.281 Y127.722 E9.60015
G1 X147.234 Y128.51 E9.63954
G1 X147.073 Y129.442 E9.68672
G1 X145.709 Y135.231 E9.98345
G1 X145.489 Y135.989 E10.02282
G1 X145.194 Y136.722 E10.06224
G1 X144.826 Y137.42 E10.10161
G1 X144.389 Y138.078 E10.14102
G1 X143.888 Y138.689 E10.18044
G1 X143.472 Y139.103 E10.20972
G1 X143.573 Y139.238 E10.21813
G1 X143.98 Y139.914 E10.2575
G1 X144.317 Y140.629 E10.29693
G1 X144.58 Y141.373 E10.3363
G1 X144.766 Y142.141 E10.37572
G1 X144.874 Y142.923 E10.41511
G1 X144.902 Y143.712 E10.4545
G1 X144.86 Y144.416 E10.48968
G1 X143.777 Y154.652 E11.00321
G1 X143.654 Y155.432 E11.0426
G1 X143.453 Y156.195 E11.08197
G1 X143.176 Y156.935 E11.12139
G1 X142.825 Y157.643 E11.16081
G1 X142.405 Y158.311 E11.20018
G1 X141.919 Y158.934 E11.2396
G1 X141.373 Y159.504 E11.27898
G1 X140.765 Y160.022 E11.31883
G1 X140.628 Y160.127 E11.32744
G1 X139.978 Y160.575 E11.36683
G1 X139.285 Y160.955 E11.40626
G1 X138.558 Y161.263 E11.44565
G1 X137.804 Y161.496 E11.48502
G1 X137.029 Y161.651 E11.52445
G1 X136.243 Y161.728 E11.56385
G1 X135.454 Y161.724 E11.60322
G1 X134.658 Y161.639 E11.64315
G1 X119.412 Y159.213 E12.41335
G1 X115.291 Y158.488 E12.6221
G1 X114.378 Y158.27 E12.66893
G1 X65.18 Y143.348 E15.23385
G1 X64.437 Y143.081 E15.27324
G1 X63.725 Y142.74 E15.31262
G1 X63.05 Y142.329 E15.35205
G1 X62.525 Y141.938 E15.38471
G1 X62.461 Y141.886 E15.38882
G1 X61.874 Y141.357 E15.42825
G1 X61.344 Y140.772 E15.46763
G1 X60.875 Y140.137 E15.50701
G1 X60.508 Y139.522 E15.54274
G1 X53.659 Y126.767 E16.26503
G1 X50.028 Y125.59 E16.45546
G1 X49.291 Y125.309 E16.49481
G1 X48.585 Y124.954 E16.53424
G1 X48.107 Y124.66 E16.56223
G1 X48.059 Y124.628 E16.56511
G1 X47.425 Y124.157 E16.60452
G1 X46.842 Y123.625 E16.64389
G1 X46.32 Y123.041 E16.68297
G1 X42.754 Y118.629 E16.96599
G1 X42.289 Y117.991 E17.00538
G1 X41.884 Y117.293 E17.04564
G1 X41.866 Y117.258 E17.04761
G1 X41.54 Y116.539 E17.08699
G1 X41.315 Y115.878 E17.12183
G1 X40.095 Y111.702 E17.33888
G1 X39.912 Y110.934 E17.37827
G1 X39.808 Y110.151 E17.41767
G1 X39.783 Y109.389 E17.45571
G1 X39.784 Y109.327 E17.4588
G1 X39.837 Y108.539 E17.49821
G1 X39.969 Y107.761 E17.53757
G1 X40.171 Y107.022 E17.5758
G1 X41.62 Y102.604 E17.80776
G1 X42.055 Y101.547 E17.86479
G1 X42.071 Y101.515 E17.86657
G1 X42.46 Y100.827 E17.906
G1 X42.948 Y100.142 E17.94796
G1 X45.979 Y96.339 E18.19059
G1 X46.502 Y95.747 E18.23
G1 X47.082 Y95.211 E18.2694
G1 X47.489 Y94.893 E18.29516
G1 X48.147 Y94.457 E18.33454
G1 X49.152 Y93.956 E18.39057
G1 X55.159 Y91.483 E18.71466
G1 X55.903 Y91.22 E18.75403
G1 X56.494 Y91.069 E18.78446
G1 X56.536 Y91.06 E18.78661
G1 X57.315 Y90.934 E18.82598
G1 X58.17 Y90.887 E18.8687
G1 X77.578 Y90.887 E19.83697
G1 X77.578 Y70.494 E20.85438
G1 X77.618 Y69.705 E20.89379
G1 X77.737 Y68.925 E20.93316
G1 X77.935 Y68.16 E20.97258
G1 X78.209 Y67.42 E21.01195
G1 X78.557 Y66.711 E21.05135
G1 X79.067 Y65.91 E21.09873
G1 X79.144 Y65.804 E21.10526
G1 X79.64 Y65.189 E21.14468
M205 X10 Y10
G0 F6000 X79.952 Y65.441
M205 X8 Y8
G1 F1200 X80.495 Y64.896 E21.18306
G1 X81.092 Y64.411 E21.22144
G1 X81.736 Y63.991 E21.25979
G1 X82.42 Y63.639 E21.29817
G1 X83.206 Y63.338 E21.34016
G1 X87.673 Y61.913 E21.57409
G1 X87.646 Y61.814 E21.57921
G1 X87.521 Y61.055 E21.61758
G1 X87.475 Y60.287 E21.65597
G1 X87.509 Y59.519 E21.69432
G1 X87.607 Y58.819 E21.72959
G1 X87.767 Y58.067 E21.76794
G1 X88.005 Y57.335 E21.80634
G1 X88.318 Y56.633 E21.84469
G1 X88.702 Y55.966 E21.88309
G1 X89.153 Y55.343 E21.92146
G1 X89.666 Y54.77 E21.95983
G1 X90.236 Y54.253 E21.99822
G1 X90.856 Y53.799 E22.03656
G1 X91.52 Y53.411 E22.07493
G1 X92.221 Y53.094 E22.11331
G1 X92.697 Y52.927 E22.13848
G1 X105.014 Y49.059 E22.78256
G1 X105.759 Y48.867 E22.82095
G1 X106.519 Y48.753 E22.85929
G1 X107.288 Y48.719 E22.89769
G1 X108.056 Y48.765 E22.93607
G1 X108.814 Y48.89 E22.9744
G1 X109.556 Y49.094 E23.01279
G1 X110.273 Y49.373 E23.05118
G1 X110.957 Y49.725 E23.08956
G1 X111.6 Y50.147 E23.12793
G1 X112.401 Y50.825 E23.18028
G1 X112.572 Y50.992 E23.19221
G1 X113.094 Y51.557 E23.23059
G1 X113.554 Y52.173 E23.26894
G1 X113.948 Y52.834 E23.30733
G1 X114.265 Y53.519 E23.34499
G1 X126.873 Y49.572 E24.00411
G1 X127.618 Y49.381 E24.04248
G1 X128.379 Y49.268 E24.08086
G1 X128.852 Y49.237 E24.10451
G1 X129.621 Y49.248 E24.14288
G1 X130.76 Y49.412 E24.20029
G1 X136.516 Y50.707 E24.49464
G1 X146.224 Y52.331 E24.9857
G1 X163.423 Y54.943 E25.8536
G1 X164.177 Y55.098 E25.892
G1 X164.91 Y55.33 E25.93036
G1 X165.615 Y55.637 E25.96872
G1 X166.285 Y56.016 E26.00713
G1 X166.911 Y56.462 E26.04548
G1 X167.488 Y56.97 E26.08383
G1 X168.237 Y57.826 E26.14058
G1 X168.335 Y57.957 E26.14874
G1 X168.764 Y58.596 E26.18714
G1 X169.123 Y59.276 E26.2255
G1 X169.41 Y59.99 E26.26389
G1 X169.621 Y60.729 E26.30223
G1 X169.755 Y61.487 E26.34064
G1 X169.809 Y62.254 E26.379
G1 X169.783 Y63.023 E26.41738
G1 X169.731 Y63.468 E26.43974
G1 X168.237 Y73.618 E26.95158
G1 X168.086 Y74.372 E26.98994
G1 X167.857 Y75.106 E27.0283
G1 X167.553 Y75.813 E27.0667
G1 X167.177 Y76.484 E27.10507
G1 X166.734 Y77.113 E27.14345
G1 X166.228 Y77.692 E27.18182
G1 X165.665 Y78.215 E27.22015
G1 X164.735 Y78.878 E27.27713
G1 X164.415 Y79.06 E27.2955
G1 X164.525 Y79.279 E27.30773
G1 X164.796 Y79.999 E27.34611
G1 X164.992 Y80.743 E27.38449
G1 X165.109 Y81.503 E27.42286
G1 X165.146 Y82.271 E27.46122
G1 X165.103 Y83.039 E27.49959
G1 X165.015 Y83.632 E27.5295
G1 X163.899 Y89.484 E27.82672
G1 X163.716 Y90.231 E27.86509
G1 X163.456 Y90.955 E27.90347
G1 X163.123 Y91.648 E27.94183
G1 X162.719 Y92.303 E27.98022
G1 X162.25 Y92.912 E28.01857
G1 X161.832 Y93.361 E28.04918
G1 X161.745 Y93.447 E28.05528
G1 X161.171 Y93.958 E28.09362
G1 X160.547 Y94.407 E28.13197
G1 X159.879 Y94.789 E28.17036
G1 X159.175 Y95.1 E28.20876
G1 X158.443 Y95.336 E28.24713
G1 X157.81 Y95.475 E28.27947
G1 X144.121 Y97.854 E28.97265
G1 X143.357 Y97.946 E29.01104
G1 X143.146 Y97.953 E29.02157
G1 X143.06 Y98.157 E29.03262
G1 X138.069 Y111.847 E29.75959
G1 X138.314 Y116.383 E29.98622
G1 X144.492 Y122.134 E30.40732
G1 X145.027 Y122.687 E30.44571
G1 X145.502 Y123.292 E30.48408
G1 X145.911 Y123.943 E30.52244
G1 X146.251 Y124.633 E30.56081
G1 X146.53 Y125.399 E30.60149
G1 X146.561 Y125.501 E30.6068
G1 X146.746 Y126.248 E30.6452
G1 X146.853 Y127.009 E30.68354
G1 X146.88 Y127.778 E30.72193
G1 X146.827 Y128.545 E30.76028
G1 X146.684 Y129.35 E30.80107
G1 X145.32 Y135.139 E31.0978
G1 X145.105 Y135.878 E31.1362
G1 X144.814 Y136.59 E31.17457
G1 X144.451 Y137.268 E31.21294
G1 X144.02 Y137.905 E31.25131
G1 X143.525 Y138.493 E31.28966
G1 X142.971 Y139.027 E31.32804
G1 X142.936 Y139.055 E31.33028
G1 X143.252 Y139.478 E31.35662
G1 X143.646 Y140.138 E31.39497
G1 X143.97 Y140.836 E31.43336
G1 X144.219 Y141.564 E31.47175
G1 X144.391 Y142.314 E31.51014
G1 X144.485 Y143.077 E31.54849
G1 X144.499 Y143.846 E31.58686
G1 X144.462 Y144.374 E31.61327
G1 X143.379 Y154.61 E32.1268
G1 X143.258 Y155.369 E32.16514
G1 X143.06 Y156.112 E32.2035
G1 X142.785 Y156.831 E32.24191
G1 X142.437 Y157.517 E32.28029
G1 X142.02 Y158.163 E32.31865
G1 X141.538 Y158.762 E32.357
G1 X140.996 Y159.308 E32.39539
G1 X140.521 Y159.704 E32.42624
G1 X140.384 Y159.809 E32.43485
G1 X139.751 Y160.245 E32.4732
G1 X139.075 Y160.612 E32.51157
G1 X138.365 Y160.908 E32.54995
G1 X137.627 Y161.127 E32.58836
G1 X136.872 Y161.27 E32.62669
G1 X136.105 Y161.333 E32.66509
G1 X135.336 Y161.316 E32.70346
G1 X134.721 Y161.244 E32.73435
G1 X119.481 Y158.819 E33.50425
G1 X115.36 Y158.094 E33.713
G1 X114.494 Y157.887 E33.75742
G1 X65.296 Y142.965 E36.32234
G1 X64.573 Y142.704 E36.36069
G1 X63.88 Y142.369 E36.39909
G1 X63.226 Y141.964 E36.43747
G1 X62.778 Y141.627 E36.46543
G1 X62.714 Y141.575 E36.46955
G1 X62.143 Y141.06 E36.50791
G1 X61.628 Y140.488 E36.54631
G1 X61.176 Y139.866 E36.58467
G1 X60.861 Y139.333 E36.61556
G1 X53.935 Y126.436 E37.3459
G1 X50.152 Y125.209 E37.54432
G1 X49.433 Y124.934 E37.58272
G1 X48.748 Y124.586 E37.62106
G1 X48.281 Y124.295 E37.64851
G1 X47.664 Y123.836 E37.68687
G1 X47.098 Y123.315 E37.72525
G1 X46.631 Y122.79 E37.76031
G1 X43.065 Y118.378 E38.04333
G1 X42.613 Y117.755 E38.08173
G1 X42.239 Y117.11 E38.11893
G1 X42.221 Y117.075 E38.12089
G1 X41.906 Y116.374 E38.15923
G1 X41.699 Y115.766 E38.19128
G1 X40.479 Y111.59 E38.40833
G1 X40.302 Y110.842 E38.44668
G1 X40.204 Y110.079 E38.48506
G1 X40.183 Y109.396 E38.51915
G1 X40.184 Y109.334 E38.52224
G1 X40.236 Y108.566 E38.56064
G1 X40.368 Y107.808 E38.59903
G1 X40.552 Y107.147 E38.63326
G1 X42.001 Y102.729 E38.86523
G1 X42.413 Y101.726 E38.91932
G1 X42.429 Y101.694 E38.92111
G1 X42.809 Y101.024 E38.95954
G1 X43.261 Y100.391 E38.99834
G1 X46.292 Y96.588 E39.24096
G1 X46.802 Y96.012 E39.27935
G1 X47.369 Y95.492 E39.31773
G1 X47.726 Y95.215 E39.34027
G1 X48.368 Y94.791 E39.37866
G1 X49.304 Y94.326 E39.4308
G1 X55.311 Y91.853 E39.75489
G1 X56.036 Y91.598 E39.79324
G1 X56.577 Y91.46 E39.82109
G1 X56.619 Y91.451 E39.82323
G1 X57.379 Y91.329 E39.86164
G1 X58.17 Y91.287 E39.90115
G1 X77.978 Y91.287 E40.88938
G1 X77.978 Y70.494 E41.92675
G1 X78.018 Y69.726 E41.96511
G1 X78.137 Y68.966 E42.00349
G1 X78.335 Y68.223 E42.04185
G1 X78.609 Y67.504 E42.08024
G1 X78.956 Y66.818 E42.1186
G1 X79.391 Y66.145 E42.15858
G1 X79.468 Y66.039 E42.16511
G1 X79.952 Y65.441 E42.20349
M205 X10 Y10
G0 F6000 X80.263 Y65.693
M205 X8 Y8
G1 F1200 X80.794 Y65.166 E42.24082
G1 X81.377 Y64.698 E42.27812
G1 X82.008 Y64.296 E42.31544
G1 X82.678 Y63.963 E42.35277
G1 X83.328 Y63.719 E42.38741
G1 X88.158 Y62.178 E42.64034
G1 X88.008 Y61.588 E42.67072
G1 X87.902 Y60.847 E42.70806
G1 X87.876 Y60.1 E42.74535
G1 X87.963 Y59.126 E42.79414
G1 X88.002 Y58.882 E42.80647
G1 X88.159 Y58.151 E42.84377
G1 X88.394 Y57.44 E42.88113
G1 X88.703 Y56.759 E42.91844
G1 X89.083 Y56.115 E42.95574
G1 X89.529 Y55.515 E42.99304
G1 X90.037 Y54.966 E43.03036
G1 X90.601 Y54.474 E43.0677
G1 X91.214 Y54.045 E43.10502
G1 X91.869 Y53.684 E43.14234
G1 X92.817 Y53.309 E43.1932
G1 X105.134 Y49.441 E43.83728
G1 X105.858 Y49.255 E43.87458
G1 X106.599 Y49.148 E43.91193
G1 X107.346 Y49.12 E43.94922
G1 X108.092 Y49.172 E43.98653
G1 X108.829 Y49.304 E44.02389
G1 X109.547 Y49.513 E44.06119
G1 X110.239 Y49.798 E44.09853
G1 X110.896 Y50.155 E44.13584
G1 X111.512 Y50.58 E44.17317
G1 X112.122 Y51.111 E44.21352
G1 X112.293 Y51.278 E44.22545
G1 X112.799 Y51.829 E44.26277
G1 X113.244 Y52.43 E44.30008
G1 X113.622 Y53.075 E44.33738
G1 X113.929 Y53.758 E44.37473
G1 X114.014 Y54.017 E44.38833
G1 X126.993 Y49.954 E45.06685
G1 X127.718 Y49.769 E45.10417
G1 X128.815 Y49.639 E45.15929
G1 X128.867 Y49.637 E45.16188
G1 X129.615 Y49.648 E45.19921
G1 X130.672 Y49.803 E45.2525
G1 X136.434 Y51.099 E45.54715
G1 X146.099 Y52.716 E46.03604
G1 X163.363 Y55.338 E46.90722
G1 X164.096 Y55.49 E46.94457
G1 X164.808 Y55.719 E46.98189
G1 X165.491 Y56.023 E47.01918
G1 X166.139 Y56.398 E47.05654
