;FLAVOR:Marlin
;TIME:17073
;Filament used: 15.5045m
;Layer height: 0.2
;MINX:39.874
;MINY:47.74
;MINZ:0.3
;MAXX:170.134
;MAXY:162.262
;MAXZ:10.175
;Generated with Cura_SteamEngine 4.13.1
M82 ;absolute extrusion mode
G21                                        ; metric values 
G90                                        ; absolute positioning 
M82                                        ; set extruder to absolute mode 
M107                                       ; start with the fan off 
M140 S60.0           ; Start heating the bed 
G4 S60                                     ; wait 1 minute 
M104 S220.0         ; start heating the hot end 
M190 S60.0           ; wait for bed 
M109 S220.0         ; wait for hotend 
M300 S1000 P500                            ; BEEP heating done 
G28 X0 Y10 Z0                              ; move X/Y to min endstops 
M420 S1                                    ; Enable leveling 
M420 Z2.0                                  ; Set leveling fading height to 2 mm 
G0 Z0.15                                   ; lift nozzle a bit 
G92 E0                                     ; zero the extruded length 
G1 X50 E25 F500                            ; Extrude 25mm of filament in a 5cm line. 
G92 E0                                     ; zero the extruded length again 
G1 E-2 F500                                ; Retract a little 
G1 X120 F4000                              ; Quickly wipe away from the filament line`
G92 E0
G92 E0
G1 F2400 E-3
;LAYER_COUNT:50
;LAYER:0
M106 S76.5
M205 X10 Y10
G1 F600 Z0.375
G0 F6000 X88.106 Y70.694 Z0.375
M205 X8 Y8
;TYPE:SKIRT
G1 F600 Z0.3
G1 F2400 E0
G1 F1200 X88.641 Y70.113 E0.0394
G1 X89.231 Y69.589 E0.07877
G1 X89.872 Y69.127 E0.11819
G1 X90.475 Y68.774 E0.15305
G1 X101.823 Y62.8 E0.79286
G1 X102.539 Y62.468 E0.83224
G1 X103.285 Y62.21 E0.87162
G1 X104.054 Y62.029 E0.91103
G1 X104.837 Y61.927 E0.95043
G1 X105.626 Y61.904 E0.98981
G1 X106.414 Y61.961 E1.02922
G1 X107.192 Y62.098 E1.06864
G1 X107.952 Y62.312 E1.10803
G1 X108.686 Y62.602 E1.1474
G1 X109.388 Y62.965 E1.18683
G1 X109.828 Y63.242 E1.21277
G1 X110.026 Y63.376 E1.2247
G1 X110.656 Y63.851 E1.26406
G1 X111.236 Y64.388 E1.30349
G1 X111.758 Y64.98 E1.34287
G1 X112.032 Y65.362 E1.36633
G1 X125.566 Y58.23 E2.12956
G1 X131.525 Y55.069 E2.46609
G1 X131.716 Y54.971 E2.4768
G1 X143.103 Y49.324 E3.11092
G1 X143.827 Y49.01 E3.15029
G1 X144.572 Y48.772 E3.18931
G1 X144.606 Y48.763 E3.19106
G1 X145.379 Y48.6 E3.23048
G1 X145.995 Y48.527 E3.26143
G1 X155.788 Y47.762 E3.75149
G1 X156.577 Y47.74 E3.79087
G1 X157.364 Y47.798 E3.83024
G1 X158.142 Y47.936 E3.86966
G1 X158.902 Y48.152 E3.90908
G1 X159.636 Y48.443 E3.94847
G1 X160.336 Y48.807 E3.98783
G1 X161.108 Y49.323 E4.03416
G1 X161.228 Y49.414 E4.04167
G1 X161.832 Y49.922 E4.08105
G1 X162.382 Y50.489 E4.12046
G1 X162.872 Y51.109 E4.15988
G1 X163.296 Y51.775 E4.19927
G1 X163.651 Y52.48 E4.23865
G1 X163.933 Y53.218 E4.27807
G1 X164.163 Y54.095 E4.3233
G1 X165.315 Y59.84 E4.61562
G1 X165.431 Y60.622 E4.65506
G1 X165.467 Y61.41 E4.69442
G1 X165.423 Y62.199 E4.73384
G1 X165.3 Y62.979 E4.77324
G1 X165.099 Y63.743 E4.81265
G1 X164.838 Y64.436 E4.8496
G1 X165.433 Y64.832 E4.88525
G1 X166.042 Y65.334 E4.92463
G1 X166.597 Y65.896 E4.96404
G1 X167.093 Y66.51 E5.00341
G1 X167.524 Y67.172 E5.04282
G1 X167.886 Y67.874 E5.08223
G1 X168.175 Y68.609 E5.12163
G1 X168.388 Y69.369 E5.16101
G1 X168.492 Y69.919 E5.18894
G1 X170.045 Y80.119 E5.70368
G1 X170.134 Y81.293 E5.76242
G1 X170.134 Y81.321 E5.76382
G1 X170.065 Y82.353 E5.81542
G1 X168.7 Y92.584 E6.33037
G1 X168.557 Y93.36 E6.36973
G1 X168.335 Y94.118 E6.40914
G1 X168.038 Y94.85 E6.44855
G1 X167.668 Y95.547 E6.48792
G1 X167.23 Y96.204 E6.52731
G1 X166.727 Y96.813 E6.56672
G1 X166.166 Y97.369 E6.60613
G1 X165.551 Y97.864 E6.64551
G1 X164.998 Y98.231 E6.67862
G1 X165.222 Y98.798 E6.70904
G1 X165.437 Y99.558 E6.74844
G1 X165.574 Y100.336 E6.78786
G1 X165.631 Y101.123 E6.82722
G1 X165.609 Y101.913 E6.86665
G1 X165.509 Y102.68 E6.90524
G1 X164.45 Y108.553 E7.20297
G1 X162.173 Y122.126 E7.88959
G1 X161.83 Y128.264 E8.1963
G1 X161.746 Y129.049 E8.23568
G1 X161.583 Y129.821 E8.27505
G1 X161.343 Y130.574 E8.31448
G1 X161.028 Y131.298 E8.35387
G1 X160.641 Y131.986 E8.39325
G1 X160.239 Y132.559 E8.42817
G1 X160.311 Y132.628 E8.43315
G1 X160.822 Y133.229 E8.4725
G1 X161.271 Y133.879 E8.51192
G1 X161.651 Y134.571 E8.55131
G1 X161.96 Y135.298 E8.59072
G1 X162.193 Y136.053 E8.63014
G1 X162.349 Y136.827 E8.66953
G1 X162.422 Y137.552 E8.70588
G1 X162.982 Y147.803 E9.21807
G1 X162.985 Y148.592 E9.25743
G1 X162.909 Y149.378 E9.29683
G1 X162.753 Y150.152 E9.33622
G1 X162.52 Y150.907 E9.37564
G1 X162.211 Y151.634 E9.41505
G1 X161.831 Y152.326 E9.45444
G1 X161.215 Y153.187 E9.50725
G1 X161.117 Y153.306 E9.51494
G1 X160.585 Y153.889 E9.55432
G1 X159.996 Y154.415 E9.59372
G1 X159.358 Y154.88 E9.6331
G1 X158.675 Y155.277 E9.67252
G1 X157.956 Y155.604 E9.71192
G1 X157.208 Y155.856 E9.7513
G1 X156.204 Y156.068 E9.8025
G1 X135.486 Y159.041 E10.84671
G1 X134.836 Y159.107 E10.87931
G1 X81.321 Y162.256 E13.5538
G1 X80.532 Y162.262 E13.59316
G1 X79.918 Y162.212 E13.6239
G1 X78.766 Y161.987 E13.68246
G1 X65.464 Y158.339 E14.3706
G1 X64.714 Y158.092 E14.40999
G1 X63.993 Y157.77 E14.44939
G1 X63.069 Y157.218 E14.50309
G1 X63.013 Y157.179 E14.50649
G1 X62.389 Y156.695 E14.54589
G1 X61.817 Y156.151 E14.58527
G1 X61.178 Y155.386 E14.635
G1 X54.334 Y146.038 E15.21301
G1 X50.118 Y144.671 E15.43413
G1 X49.381 Y144.39 E15.47348
G1 X48.675 Y144.036 E15.51288
G1 X48.198 Y143.742 E15.54083
G1 X48.15 Y143.71 E15.54371
G1 X47.516 Y143.239 E15.58312
G1 X46.933 Y142.707 E15.62249
G1 X46.41 Y142.122 E15.66164
G1 X42.845 Y137.71 E15.94463
G1 X42.38 Y137.072 E15.98402
G1 X41.976 Y136.375 E16.02421
G1 X41.958 Y136.34 E16.02618
G1 X41.632 Y135.621 E16.06556
G1 X41.407 Y134.962 E16.1003
G1 X40.186 Y130.786 E16.31737
G1 X40.003 Y130.018 E16.35676
G1 X39.899 Y129.235 E16.39616
G1 X39.874 Y128.471 E16.4343
G1 X39.875 Y128.409 E16.43739
G1 X39.928 Y127.621 E16.47679
G1 X40.06 Y126.843 E16.51616
G1 X40.262 Y126.104 E16.55439
G1 X41.711 Y121.686 E16.78635
G1 X42.146 Y120.629 E16.84338
G1 X42.162 Y120.597 E16.84516
G1 X42.551 Y119.909 E16.88459
G1 X43.041 Y119.222 E16.92669
G1 X46.074 Y115.419 E17.16938
G1 X46.597 Y114.827 E17.20879
G1 X47.468 Y114.06 E17.26669
G1 X47.509 Y114.029 E17.26925
G1 X48.162 Y113.585 E17.30865
G1 X48.857 Y113.21 E17.34805
G1 X49.244 Y113.038 E17.36918
G1 X55.251 Y110.565 E17.69327
G1 X55.995 Y110.302 E17.73264
G1 X56.586 Y110.151 E17.76307
G1 X56.628 Y110.142 E17.76521
G1 X57.407 Y110.016 E17.80458
G1 X58.262 Y109.969 E17.8473
G1 X77.669 Y109.969 E18.81552
G1 X77.669 Y88.248 E19.89919
G1 X77.709 Y87.459 E19.9386
G1 X77.828 Y86.679 E19.97797
G1 X78.026 Y85.914 E20.01739
G1 X78.3 Y85.174 E20.05676
G1 X78.648 Y84.465 E20.09616
G1 X78.909 Y84.027 E20.1216
G1 X79.36 Y83.379 E20.16099
G1 X79.874 Y82.78 E20.20037
G1 X80.447 Y82.236 E20.23978
G1 X81.071 Y81.753 E20.27915
G1 X81.901 Y81.249 E20.3276
G1 X86.821 Y78.666 E20.60483
G1 X86.686 Y78.308 E20.62392
G1 X86.483 Y77.545 E20.66331
G1 X86.358 Y76.766 E20.70267
G1 X86.313 Y76.049 E20.73851
G1 X86.309 Y75.802 E20.75083
G1 X86.336 Y75.013 E20.79022
G1 X86.443 Y74.231 E20.8296
G1 X86.629 Y73.463 E20.86902
G1 X86.891 Y72.718 E20.90842
G1 X87.227 Y72.004 E20.94779
G1 X87.633 Y71.327 E20.98717
G1 X88.106 Y70.694 E21.0266
M205 X10 Y10
G0 F6000 X88.504 Y70.843
M205 X8 Y8
G1 F1200 X89.036 Y70.287 E21.06499
G1 X89.623 Y69.79 E21.10336
G1 X90.258 Y69.356 E21.14173
G1 X90.661 Y69.128 E21.16483
G1 X102.009 Y63.154 E21.80465
G1 X102.707 Y62.831 E21.84302
G1 X103.435 Y62.583 E21.88139
G1 X104.185 Y62.412 E21.91977
G1 X104.949 Y62.319 E21.95816
G1 X105.718 Y62.307 E21.99653
G1 X106.484 Y62.374 E22.0349
G1 X107.239 Y62.52 E22.07326
G1 X107.975 Y62.744 E22.11164
G1 X108.683 Y63.043 E22.14999
G1 X109.604 Y63.574 E22.20302
G1 X109.802 Y63.708 E22.21495
G1 X110.415 Y64.171 E22.25328
G1 X110.978 Y64.696 E22.29168
G1 X111.482 Y65.276 E22.33002
G1 X111.906 Y65.88 E22.36684
G1 X125.752 Y58.584 E23.14765
G1 X131.713 Y55.422 E23.4843
G1 X131.893 Y55.329 E23.4944
G1 X143.28 Y49.682 E24.12853
G1 X143.986 Y49.377 E24.16689
G1 X144.674 Y49.158 E24.20292
G1 X144.708 Y49.149 E24.20467
G1 X145.461 Y48.991 E24.24306
G1 X146.026 Y48.925 E24.27144
G1 X155.819 Y48.16 E24.7615
G1 X156.588 Y48.141 E24.79988
G1 X157.354 Y48.2 E24.8382
G1 X158.111 Y48.34 E24.87661
G1 X158.849 Y48.557 E24.91499
G1 X159.56 Y48.849 E24.95334
G1 X160.237 Y49.214 E24.99171
G1 X160.866 Y49.642 E25.02967
G1 X160.986 Y49.733 E25.03718
G1 X161.574 Y50.229 E25.07556
G1 X162.107 Y50.783 E25.11391
G1 X162.58 Y51.39 E25.1523
G1 X162.988 Y52.042 E25.19068
G1 X163.325 Y52.733 E25.22903
G1 X163.589 Y53.456 E25.26743
G1 X163.771 Y54.174 E25.30439
G1 X164.923 Y59.919 E25.59671
G1 X165.034 Y60.68 E25.63508
G1 X165.067 Y61.449 E25.67348
G1 X165.019 Y62.216 E25.71182
G1 X164.892 Y62.975 E25.75021
G1 X164.687 Y63.716 E25.78857
G1 X164.406 Y64.432 E25.82694
G1 X164.322 Y64.597 E25.83618
G1 X164.571 Y64.737 E25.85043
G1 X165.21 Y65.165 E25.8888
G1 X165.802 Y65.657 E25.92721
G1 X166.339 Y66.207 E25.96556
G1 X166.816 Y66.81 E26.00391
G1 X167.228 Y67.46 E26.04231
G1 X167.57 Y68.149 E26.08068
G1 X167.839 Y68.869 E26.11903
G1 X168.097 Y69.979 E26.17589
G1 X169.65 Y80.179 E26.69063
G1 X169.734 Y81.293 E26.74637
G1 X169.734 Y81.321 E26.74776
G1 X169.669 Y82.3 E26.79671
G1 X168.304 Y92.531 E27.31166
G1 X168.163 Y93.287 E27.35003
G1 X167.944 Y94.024 E27.38839
G1 X167.65 Y94.735 E27.42677
G1 X167.283 Y95.411 E27.46515
G1 X166.848 Y96.045 E27.50351
G1 X166.35 Y96.632 E27.54191
G1 X165.794 Y97.163 E27.58027
G1 X165.186 Y97.633 E27.61861
G1 X164.629 Y97.986 E27.65151
G1 X164.482 Y98.065 E27.65983
G1 X164.576 Y98.248 E27.6701
G1 X164.856 Y98.964 E27.70845
G1 X165.06 Y99.706 E27.74685
G1 X165.186 Y100.464 E27.78518
G1 X165.233 Y101.232 E27.82357
G1 X165.199 Y102.001 E27.86197
G1 X165.116 Y102.609 E27.89259
G1 X164.057 Y108.482 E28.19032
G1 X161.774 Y122.091 E28.87876
G1 X161.43 Y128.241 E29.18606
G1 X161.348 Y129.006 E29.22445
G1 X161.186 Y129.758 E29.26283
G1 X160.947 Y130.489 E29.3012
G1 X160.634 Y131.191 E29.33954
G1 X160.249 Y131.857 E29.37792
G1 X159.797 Y132.48 E29.41632
G1 X159.697 Y132.593 E29.42385
G1 X160.033 Y132.917 E29.44714
G1 X160.529 Y133.504 E29.48548
G1 X160.962 Y134.14 E29.52386
G1 X161.326 Y134.818 E29.56226
G1 X161.618 Y135.53 E29.60065
G1 X161.834 Y136.268 E29.63901
G1 X161.972 Y137.024 E29.67735
G1 X162.023 Y137.573 E29.70486
G1 X162.583 Y147.824 E30.21705
G1 X162.585 Y148.594 E30.25546
G1 X162.507 Y149.359 E30.29383
G1 X162.35 Y150.112 E30.3322
G1 X162.116 Y150.844 E30.37054
G1 X161.807 Y151.549 E30.40895
G1 X161.427 Y152.217 E30.44729
G1 X160.906 Y152.932 E30.49142
G1 X160.808 Y153.051 E30.49912
G1 X160.289 Y153.619 E30.5375
G1 X159.714 Y154.129 E30.57585
G1 X159.089 Y154.577 E30.61421
G1 X158.42 Y154.958 E30.65262
G1 X157.716 Y155.268 E30.691
G1 X156.984 Y155.502 E30.72934
G1 X156.147 Y155.672 E30.77195
G1 X135.429 Y158.645 E31.81616
G1 X134.813 Y158.707 E31.84705
G1 X81.298 Y161.856 E34.52154
G1 X80.529 Y161.861 E34.55991
G1 X79.964 Y161.814 E34.58819
G1 X78.872 Y161.601 E34.6437
G1 X65.57 Y157.953 E35.33184
G1 X64.84 Y157.712 E35.3702
G1 X64.139 Y157.396 E35.40856
G1 X63.298 Y156.889 E35.45755
G1 X63.242 Y156.85 E35.46096
G1 X62.634 Y156.379 E35.49933
G1 X62.079 Y155.846 E35.53772
G1 X61.5 Y155.15 E35.58288
G1 X54.579 Y145.698 E36.16735
G1 X50.242 Y144.291 E36.39482
G1 X49.524 Y144.016 E36.43318
G1 X48.838 Y143.668 E36.47156
G1 X48.372 Y143.377 E36.49897
G1 X47.755 Y142.918 E36.53733
G1 X47.189 Y142.397 E36.57571
G1 X46.721 Y141.871 E36.61084
G1 X43.156 Y137.459 E36.89383
G1 X42.705 Y136.836 E36.9322
G1 X42.331 Y136.192 E36.96935
G1 X42.313 Y136.157 E36.97132
G1 X41.998 Y135.456 E37.00966
G1 X41.791 Y134.85 E37.04161
G1 X40.57 Y130.674 E37.25867
G1 X40.393 Y129.925 E37.29707
G1 X40.295 Y129.162 E37.33545
G1 X40.274 Y128.478 E37.36959
G1 X40.275 Y128.416 E37.37268
G1 X40.327 Y127.648 E37.41109
G1 X40.459 Y126.89 E37.44947
G1 X40.643 Y126.229 E37.4837
G1 X42.092 Y121.811 E37.71567
G1 X42.504 Y120.808 E37.76977
G1 X42.52 Y120.776 E37.77155
G1 X42.9 Y120.106 E37.80998
G1 X43.354 Y119.471 E37.84893
G1 X46.387 Y115.668 E38.09161
G1 X46.897 Y115.092 E38.12999
G1 X47.709 Y114.379 E38.1839
G1 X47.75 Y114.348 E38.18647
G1 X48.387 Y113.917 E38.22484
G1 X49.396 Y113.408 E38.28122
G1 X55.403 Y110.935 E38.60531
G1 X56.128 Y110.68 E38.64366
G1 X56.669 Y110.542 E38.67151
G1 X56.711 Y110.533 E38.67365
G1 X57.471 Y110.411 E38.71206
G1 X58.262 Y110.369 E38.75157
G1 X78.069 Y110.369 E39.73975
G1 X78.069 Y88.248 E40.84337
G1 X78.109 Y87.48 E40.88174
G1 X78.228 Y86.72 E40.92012
G1 X78.426 Y85.977 E40.95848
G1 X78.7 Y85.258 E40.99687
G1 X79.19 Y84.332 E41.04913
G1 X79.248 Y84.239 E41.0546
G1 X79.688 Y83.608 E41.09298
G1 X80.192 Y83.027 E41.13135
G1 X80.753 Y82.501 E41.16972
G1 X81.366 Y82.036 E41.20811
G1 X82.087 Y81.603 E41.25007
G1 X87.323 Y78.854 E41.54511
G1 X87.277 Y78.758 E41.55042
G1 X87.019 Y78.033 E41.58881
G1 X86.839 Y77.286 E41.62714
G1 X86.736 Y76.523 E41.66555
G1 X86.709 Y75.796 E41.70185
G1 X86.737 Y75.027 E41.74024
G1 X86.844 Y74.266 E41.77858
G1 X87.029 Y73.519 E41.81697
G1 X87.291 Y72.796 E41.85534
G1 X87.627 Y72.104 E41.89372
G1 X88.033 Y71.451 E41.93208
G1 X88.504 Y70.843 E41.97045
M205 X10 Y10
G0 F6000 X88.902 Y70.996
M205 X8 Y8
G1 F1200 X89.431 Y70.467 E42.00777
G1 X90.014 Y69.998 E42.0451
G1 X90.847 Y69.482 E42.09399
G1 X102.195 Y63.508 E42.7338
G1 X102.875 Y63.195 E42.77115
G1 X103.584 Y62.957 E42.80846
G1 X104.314 Y62.796 E42.84576
G1 X105.058 Y62.713 E42.88311
G1 X105.806 Y62.711 E42.92042
G1 X106.55 Y62.788 E42.95774
G1 X107.282 Y62.944 E42.99508
G1 X107.992 Y63.178 E43.03238
G1 X108.674 Y63.486 E43.06971
G1 X109.379 Y63.905 E43.11063
G1 X109.577 Y64.039 E43.12255
G1 X110.174 Y64.491 E43.15991
G1 X110.718 Y65.003 E43.19718
G1 X111.205 Y65.571 E43.23451
G1 X111.628 Y66.188 E43.27183
G1 X111.75 Y66.415 E43.28469
G1 X125.921 Y58.947 E44.08385
G1 X131.9 Y55.775 E44.42152
G1 X132.071 Y55.688 E44.43109
G1 X143.458 Y50.041 E45.06521
G1 X144.145 Y49.745 E45.10253
G1 X144.777 Y49.545 E45.13561
G1 X144.811 Y49.536 E45.13736
G1 X145.543 Y49.384 E45.17466
G1 X146.057 Y49.324 E45.20048
G1 X155.85 Y48.559 E45.69054
G1 X156.598 Y48.541 E45.72787
G1 X157.343 Y48.603 E45.76517
G1 X158.078 Y48.743 E45.80249
G1 X158.793 Y48.962 E45.8398
G1 X159.481 Y49.255 E45.87711
G1 X160.134 Y49.62 E45.91443
G1 X160.625 Y49.96 E45.94423
G1 X160.745 Y50.051 E45.95174
G1 X161.316 Y50.535 E45.98908
G1 X161.832 Y51.076 E46.02638
G1 X162.287 Y51.669 E46.06367
G1 X162.677 Y52.308 E46.10102
G1 X162.996 Y52.985 E46.13836
G1 X163.241 Y53.691 E46.17564
G1 X163.378 Y54.253 E46.2045
G1 X164.53 Y59.998 E46.49683
G1 X164.638 Y60.738 E46.53414
G1 X164.666 Y61.486 E46.57148
G1 X164.614 Y62.232 E46.60879
G1 X164.483 Y62.968 E46.64609
G1 X164.274 Y63.687 E46.68344
G1 X163.989 Y64.378 E46.72073
G1 X163.784 Y64.771 E46.74285
G1 X164.366 Y65.081 E46.77574
G1 X164.987 Y65.498 E46.81306
G1 X165.56 Y65.978 E46.85036
G1 X166.079 Y66.518 E46.88772
G1 X166.537 Y67.109 E46.92502
G1 X166.929 Y67.746 E46.96234
G1 X167.251 Y68.421 E46.99965
G1 X167.499 Y69.127 E47.03698
G1 X167.701 Y70.039 E47.08359
G1 X169.254 Y80.239 E47.59833
G1 X169.334 Y81.293 E47.65107
G1 X169.334 Y81.321 E47.65246
G1 X169.273 Y82.247 E47.69876
G1 X167.908 Y92.478 E48.21371
G1 X167.769 Y93.213 E48.25103
G1 X167.553 Y93.929 E48.28834
G1 X167.262 Y94.618 E48.32566
G1 X166.899 Y95.272 E48.36297
G1 X166.468 Y95.884 E48.40032
G1 X165.974 Y96.446 E48.43765
