;FLAVOR:Marlin
;TIME:10110
;Filament used: 7.6704m
;Layer height: 0.2
;MINX:67.339
;MINY:65.617
;MINZ:0.3
;MAXX:136.763
;MAXY:144.383
;MAXZ:41.975
;Generated with Cura_SteamEngine 4.13.1
M82 ;absolute extrusion mode
G21                                        ; metric values 
G90                                        ; absolute positioning 
M82                                        ; set extruder to absolute mode 
M107                                       ; start with the fan off 
M140 S60.0           ; Start heating the bed 
G4 S60                                     ; wait 1 minute 
M104 S220.0         ; start heating the hot end 
M190 S60.0           ; wait for bed 
M109 S220.0         ; wait for hotend 
M300 S1000 P500                            ; BEEP heating done 
G28 X0 Y10 Z0                              ; move X/Y to min endstops 
M420 S1                                    ; Enable leveling 
M420 Z2.0                                  ; Set leveling fading height to 2 mm 
G0 Z0.15                                   ; lift nozzle a bit 
G92 E0                                     ; zero the extruded length 
G1 X50 E25 F500                            ; Extrude 25mm of filament in a 5cm line. 
G92 E0                                     ; zero the extruded length again 
G1 E-2 F500                                ; Retract a little 
G1 X120 F4000                              ; Quickly wipe away from the filament line`
G92 E0
G92 E0
G1 F2400 E-3
;LAYER_COUNT:209
;LAYER:0
M106 S76.5
M205 X10 Y10
G1 F600 Z0.375
G0 F6000 X75.114 Y68.456 Z0.375
M205 X8 Y8
;TYPE:SKIRT
G1 F600 Z0.3
G1 F2400 E0
G1 F1200 X75.519 Y68.019 E0.02973
G1 X75.636 Y67.902 E0.03798
G1 X76.222 Y67.372 E0.0774
G1 X76.858 Y66.905 E0.11677
G1 X77.538 Y66.504 E0.15615
G1 X78.256 Y66.174 E0.19557
G1 X79.003 Y65.919 E0.23495
G1 X79.772 Y65.74 E0.27434
G1 X80.556 Y65.64 E0.31378
G1 X81.151 Y65.617 E0.34348
G1 X118.699 Y65.617 E2.21676
G1 X119.488 Y65.657 E2.25617
G1 X120.268 Y65.776 E2.29554
G1 X121.033 Y65.974 E2.33496
G1 X121.773 Y66.248 E2.37433
G1 X122.482 Y66.596 E2.41373
G1 X123.153 Y67.014 E2.45317
G1 X123.777 Y67.497 E2.49254
G1 X124.214 Y67.902 E2.52227
G1 X124.331 Y68.019 E2.53052
G1 X124.861 Y68.605 E2.56994
G1 X125.328 Y69.241 E2.60931
G1 X125.729 Y69.921 E2.64869
G1 X126.059 Y70.639 E2.68811
G1 X126.314 Y71.386 E2.72749
G1 X126.493 Y72.155 E2.76689
G1 X126.593 Y72.939 E2.80632
G1 X126.616 Y73.534 E2.83602
G1 X126.616 Y83.569 E3.33667
G1 X126.576 Y84.358 E3.37609
G1 X126.411 Y85.346 E3.42606
G1 X126.385 Y85.445 E3.43117
G1 X126.878 Y85.664 E3.45808
G1 X127.782 Y86.139 E3.50903
G1 X128.876 Y86.808 E3.573
G1 X129.708 Y87.394 E3.62377
G1 X130.712 Y88.205 E3.68816
G1 X131.462 Y88.896 E3.73904
G1 X132.345 Y89.824 E3.80295
G1 X132.996 Y90.605 E3.85368
G1 X133.745 Y91.632 E3.91709
G1 X134.288 Y92.487 E3.96762
G1 X134.905 Y93.616 E4.03181
G1 X135.337 Y94.549 E4.08311
G1 X135.807 Y95.767 E4.14824
G1 X136.113 Y96.748 E4.19951
G1 X136.412 Y97.989 E4.26319
G1 X136.584 Y98.977 E4.31323
G1 X136.721 Y100.244 E4.37681
G1 X136.763 Y101.282 E4.42863
G1 X136.73 Y102.576 E4.49321
G1 X136.64 Y103.578 E4.5434
G1 X136.441 Y104.855 E4.60788
G1 X136.216 Y105.857 E4.65912
G1 X135.858 Y107.073 E4.72236
G1 X135.507 Y108.031 E4.77326
G1 X134.98 Y109.22 E4.83815
G1 X134.504 Y110.127 E4.88925
G1 X133.836 Y111.22 E4.95316
G1 X133.249 Y112.053 E5.004
G1 X132.438 Y113.057 E5.06839
G1 X131.747 Y113.807 E5.11927
G1 X130.819 Y114.69 E5.18317
G1 X130.03 Y115.347 E5.2344
G1 X128.988 Y116.105 E5.29868
G1 X128.134 Y116.645 E5.34909
G1 X127.019 Y117.253 E5.41245
G1 X126.093 Y117.682 E5.46337
G1 X124.875 Y118.152 E5.5285
G1 X123.895 Y118.458 E5.57972
G1 X122.655 Y118.757 E5.64336
G1 X121.656 Y118.93 E5.69394
G1 X120.374 Y119.067 E5.75826
G1 X120.265 Y119.071 E5.7637
G1 X120.581 Y119.608 E5.79479
G1 X120.911 Y120.326 E5.83421
G1 X121.166 Y121.073 E5.87359
G1 X121.345 Y121.842 E5.91298
G1 X121.445 Y122.626 E5.95242
G1 X121.468 Y123.221 E5.98212
G1 X121.468 Y128.904 E6.26565
G1 X121.428 Y129.693 E6.30506
G1 X121.309 Y130.473 E6.34443
G1 X121.111 Y131.238 E6.38385
G1 X120.837 Y131.978 E6.42322
G1 X120.489 Y132.687 E6.46262
G1 X120.071 Y133.358 E6.50206
G1 X119.588 Y133.982 E6.54143
G1 X119.183 Y134.419 E6.57116
G1 X119.066 Y134.536 E6.57941
G1 X118.48 Y135.066 E6.61883
G1 X117.844 Y135.533 E6.6582
G1 X117.164 Y135.934 E6.69758
G1 X116.446 Y136.264 E6.737
G1 X115.699 Y136.519 E6.77638
G1 X114.93 Y136.698 E6.81577
G1 X114.146 Y136.798 E6.85521
G1 X113.551 Y136.821 E6.88491
G1 X111.377 Y136.821 E6.99337
G1 X111.355 Y137.255 E7.01505
G1 X111.236 Y138.035 E7.05442
G1 X111.038 Y138.8 E7.09384
G1 X110.764 Y139.54 E7.13321
G1 X110.416 Y140.249 E7.17261
G1 X109.998 Y140.92 E7.21205
G1 X109.515 Y141.544 E7.25142
G1 X109.11 Y141.981 E7.28115
G1 X108.993 Y142.098 E7.2894
G1 X108.407 Y142.628 E7.32882
G1 X107.771 Y143.095 E7.36819
G1 X107.091 Y143.496 E7.40757
G1 X106.373 Y143.826 E7.447
G1 X105.626 Y144.081 E7.48638
G1 X104.857 Y144.26 E7.52577
G1 X104.073 Y144.36 E7.5652
G1 X103.478 Y144.383 E7.5949
G1 X83.84 Y144.383 E8.57465
G1 X83.051 Y144.343 E8.61406
G1 X82.271 Y144.224 E8.65343
G1 X81.506 Y144.026 E8.69285
G1 X80.766 Y143.752 E8.73222
G1 X80.057 Y143.404 E8.77162
G1 X79.386 Y142.986 E8.81106
G1 X78.762 Y142.503 E8.85043
G1 X78.325 Y142.098 E8.88016
G1 X78.208 Y141.981 E8.88841
G1 X77.678 Y141.395 E8.92783
G1 X77.211 Y140.759 E8.9672
G1 X76.81 Y140.079 E9.00658
G1 X76.48 Y139.361 E9.046
G1 X76.225 Y138.614 E9.08538
G1 X76.046 Y137.845 E9.12477
G1 X75.946 Y137.061 E9.16421
G1 X75.923 Y136.466 E9.19391
G1 X75.923 Y133.065 E9.36359
G1 X75.351 Y132.917 E9.39307
G1 X74.611 Y132.643 E9.43243
G1 X73.902 Y132.295 E9.47184
G1 X73.094 Y131.78 E9.51964
G1 X71.252 Y130.439 E9.63331
G1 X70.638 Y129.942 E9.67272
G1 X70.077 Y129.386 E9.71213
G1 X69.576 Y128.776 E9.75151
G1 X69.138 Y128.119 E9.7909
G1 X68.77 Y127.421 E9.83027
G1 X68.426 Y126.548 E9.87708
G1 X67.722 Y124.386 E9.99052
G1 X67.516 Y123.624 E10.0299
G1 X67.388 Y122.845 E10.06929
G1 X67.339 Y122.056 E10.10873
G1 X67.371 Y121.267 E10.14812
G1 X67.482 Y120.485 E10.18753
G1 X67.722 Y119.556 E10.2354
G1 X68.426 Y117.394 E10.34883
G1 X68.708 Y116.656 E10.38825
G1 X69.064 Y115.951 E10.42765
G1 X69.489 Y115.285 E10.46707
G1 X69.979 Y114.666 E10.50645
G1 X70.529 Y114.1 E10.54583
G1 X71.252 Y113.503 E10.59261
G1 X73.094 Y112.162 E10.70628
G1 X73.249 Y112.061 E10.71551
G1 X73.234 Y111.678 E10.73463
G1 X73.234 Y73.534 E12.63764
G1 X73.274 Y72.745 E12.67706
G1 X73.393 Y71.965 E12.71642
G1 X73.591 Y71.2 E12.75584
G1 X73.865 Y70.46 E12.79521
G1 X74.213 Y69.751 E12.83462
G1 X74.631 Y69.08 E12.87406
G1 X75.114 Y68.456 E12.91342
M205 X10 Y10
G0 F6000 X75.509 Y68.611
M205 X8 Y8
G1 F1200 X75.918 Y68.184 E12.94292
G1 X76.49 Y67.67 E12.98129
G1 X77.112 Y67.217 E13.01968
G1 X77.777 Y66.831 E13.05804
G1 X78.479 Y66.516 E13.09643
G1 X79.21 Y66.276 E13.13481
G1 X79.961 Y66.113 E13.17315
G1 X80.726 Y66.029 E13.21155
G1 X81.151 Y66.017 E13.23276
G1 X118.699 Y66.017 E15.10604
G1 X119.467 Y66.057 E15.1444
G1 X120.227 Y66.176 E15.18278
G1 X120.97 Y66.374 E15.22115
G1 X121.689 Y66.648 E15.25953
G1 X122.375 Y66.995 E15.29789
G1 X123.022 Y67.411 E15.33626
G1 X123.622 Y67.892 E15.37463
G1 X124.049 Y68.301 E15.40413
G1 X124.563 Y68.873 E15.44249
G1 X125.016 Y69.495 E15.48088
G1 X125.402 Y70.16 E15.51924
G1 X125.717 Y70.862 E15.55763
G1 X125.957 Y71.593 E15.59602
G1 X126.12 Y72.344 E15.63436
G1 X126.204 Y73.109 E15.67275
G1 X126.216 Y73.534 E15.69396
G1 X126.216 Y83.569 E16.19461
G1 X126.176 Y84.337 E16.23298
G1 X126.021 Y85.255 E16.27943
G1 X125.904 Y85.669 E16.30089
G1 X126.715 Y86.029 E16.34516
G1 X127.574 Y86.48 E16.39356
G1 X128.668 Y87.149 E16.45754
G1 X129.457 Y87.705 E16.50569
G1 X130.461 Y88.516 E16.57008
G1 X131.172 Y89.172 E16.61835
G1 X132.055 Y90.1 E16.68225
G1 X132.673 Y90.841 E16.73039
G1 X133.422 Y91.868 E16.79381
G1 X133.937 Y92.679 E16.84174
G1 X134.554 Y93.808 E16.90593
G1 X134.964 Y94.693 E16.95459
G1 X135.434 Y95.911 E17.01972
G1 X135.724 Y96.842 E17.06837
G1 X136.023 Y98.083 E17.13205
G1 X136.186 Y99.02 E17.1795
G1 X136.323 Y100.287 E17.24308
G1 X136.364 Y101.272 E17.29227
G1 X136.331 Y102.566 E17.35685
G1 X136.245 Y103.516 E17.40444
G1 X136.046 Y104.793 E17.46891
G1 X135.833 Y105.744 E17.51754
G1 X135.475 Y106.96 E17.58078
G1 X135.141 Y107.869 E17.62909
G1 X134.614 Y109.058 E17.69398
G1 X134.163 Y109.918 E17.74242
G1 X133.495 Y111.011 E17.80633
G1 X132.938 Y111.802 E17.8546
G1 X132.127 Y112.806 E17.91899
G1 X131.471 Y113.517 E17.96725
G1 X130.543 Y114.4 E18.03116
G1 X129.795 Y115.023 E18.07972
G1 X128.753 Y115.781 E18.14401
G1 X127.943 Y116.294 E18.19184
G1 X126.828 Y116.902 E18.2552
G1 X125.949 Y117.309 E18.30353
G1 X124.731 Y117.779 E18.36866
G1 X123.802 Y118.069 E18.41722
G1 X122.562 Y118.368 E18.48085
G1 X121.613 Y118.532 E18.5289
G1 X120.331 Y118.669 E18.59323
G1 X119.519 Y118.702 E18.63377
G1 X119.868 Y119.182 E18.66338
G1 X120.254 Y119.847 E18.70174
G1 X120.569 Y120.549 E18.74013
G1 X120.809 Y121.28 E18.77851
G1 X120.972 Y122.031 E18.81685
G1 X121.056 Y122.796 E18.85525
G1 X121.068 Y123.221 E18.87646
G1 X121.068 Y128.904 E19.15998
G1 X121.028 Y129.672 E19.19835
G1 X120.909 Y130.432 E19.23673
G1 X120.711 Y131.175 E19.27509
G1 X120.437 Y131.894 E19.31348
G1 X120.09 Y132.58 E19.35183
G1 X119.674 Y133.227 E19.39021
G1 X119.193 Y133.827 E19.42858
G1 X118.784 Y134.254 E19.45807
G1 X118.212 Y134.768 E19.49644
G1 X117.59 Y135.221 E19.53483
G1 X116.925 Y135.607 E19.57319
G1 X116.223 Y135.922 E19.61158
G1 X115.492 Y136.162 E19.64996
G1 X114.741 Y136.325 E19.6883
G1 X113.976 Y136.409 E19.7267
G1 X113.551 Y136.421 E19.74791
G1 X110.995 Y136.421 E19.87543
G1 X110.995 Y136.466 E19.87767
G1 X110.955 Y137.234 E19.91604
G1 X110.836 Y137.994 E19.95442
G1 X110.638 Y138.737 E19.99278
G1 X110.364 Y139.456 E20.03117
G1 X110.017 Y140.142 E20.06952
G1 X109.601 Y140.789 E20.1079
G1 X109.12 Y141.389 E20.14627
G1 X108.711 Y141.816 E20.17576
G1 X108.139 Y142.33 E20.21413
G1 X107.517 Y142.783 E20.25252
G1 X106.852 Y143.169 E20.29088
G1 X106.15 Y143.484 E20.32927
G1 X105.419 Y143.724 E20.36765
G1 X104.668 Y143.887 E20.40599
G1 X103.903 Y143.971 E20.44439
G1 X103.478 Y143.983 E20.4656
G1 X83.84 Y143.983 E21.44534
G1 X83.072 Y143.943 E21.48371
G1 X82.312 Y143.824 E21.52209
G1 X81.569 Y143.626 E21.56045
G1 X80.85 Y143.352 E21.59884
G1 X80.164 Y143.005 E21.63719
G1 X79.517 Y142.589 E21.67557
G1 X78.917 Y142.108 E21.71393
G1 X78.49 Y141.699 E21.74343
G1 X77.976 Y141.127 E21.7818
G1 X77.523 Y140.505 E21.82019
G1 X77.137 Y139.84 E21.85855
G1 X76.822 Y139.138 E21.89694
G1 X76.582 Y138.407 E21.93532
G1 X76.419 Y137.656 E21.97366
G1 X76.335 Y136.891 E22.01206
G1 X76.323 Y136.466 E22.03327
G1 X76.323 Y132.741 E22.21911
G1 X76.157 Y132.715 E22.22749
G1 X75.414 Y132.517 E22.26586
G1 X74.695 Y132.243 E22.30424
G1 X74.009 Y131.896 E22.3426
G1 X73.33 Y131.457 E22.38294
G1 X71.488 Y130.116 E22.49661
G1 X70.89 Y129.631 E22.53502
G1 X70.346 Y129.087 E22.5734
G1 X69.862 Y128.49 E22.61175
G1 X69.442 Y127.846 E22.6501
G1 X69.091 Y127.161 E22.6885
G1 X68.807 Y126.424 E22.72791
G1 X68.103 Y124.262 E22.84135
G1 X67.903 Y123.519 E22.87973
G1 X67.781 Y122.76 E22.91809
G1 X67.739 Y121.992 E22.95646
G1 X67.777 Y121.224 E22.99482
G1 X67.894 Y120.464 E23.03318
G1 X68.103 Y119.68 E23.07366
G1 X68.807 Y117.518 E23.1871
G1 X69.082 Y116.8 E23.22546
G1 X69.431 Y116.114 E23.26386
G1 X69.849 Y115.469 E23.30221
G1 X70.332 Y114.87 E23.34059
G1 X70.875 Y114.325 E23.37898
G1 X71.488 Y113.826 E23.41841
G1 X73.33 Y112.485 E23.53208
G1 X73.655 Y112.233 E23.5526
G1 X73.634 Y111.678 E23.58031
G1 X73.634 Y73.534 E25.48332
G1 X73.674 Y72.766 E25.52169
G1 X73.793 Y72.006 E25.56007
G1 X73.991 Y71.263 E25.59843
G1 X74.265 Y70.544 E25.63682
G1 X74.612 Y69.858 E25.67517
G1 X75.028 Y69.211 E25.71355
G1 X75.509 Y68.611 E25.75191
M205 X10 Y10
G0 F6000 X75.426 Y69.345
M205 X8 Y8
G1 F1200 X76.084 Y68.584 E25.8021
G1 X76.201 Y68.467 E25.81036
G1 X76.758 Y67.967 E25.8477
G1 X77.364 Y67.53 E25.88497
G1 X78.014 Y67.159 E25.92231
G1 X78.7 Y66.86 E25.95965
G1 X79.414 Y66.636 E25.99698
G1 X80.147 Y66.489 E26.03428
G1 X81.151 Y66.417 E26.0845
G1 X118.699 Y66.417 E27.95777
G1 X119.446 Y66.457 E27.9951
G1 X120.184 Y66.576 E28.03239
G1 X120.906 Y66.774 E28.06974
G1 X121.602 Y67.047 E28.10704
G1 X122.265 Y67.394 E28.14437
G1 X122.888 Y67.809 E28.18172
G1 X123.649 Y68.467 E28.23191
G1 X123.766 Y68.584 E28.24017
G1 X124.266 Y69.141 E28.27751
G1 X124.703 Y69.747 E28.31478
G1 X125.074 Y70.397 E28.35212
G1 X125.373 Y71.083 E28.38946
G1 X125.597 Y71.797 E28.42679
G1 X125.744 Y72.53 E28.46409
G1 X125.816 Y73.534 E28.51431
G1 X125.816 Y83.569 E29.01495
G1 X125.776 Y84.316 E29.05228
G1 X125.632 Y85.164 E29.09519
G1 X125.621 Y85.211 E29.0976
G1 X125.422 Y85.893 E29.13304
G1 X126.553 Y86.395 E29.19477
G1 X127.365 Y86.821 E29.24052
G1 X128.459 Y87.49 E29.3045
G1 X129.206 Y88.017 E29.35011
G1 X130.21 Y88.828 E29.4145
G1 X130.882 Y89.448 E29.46011
G1 X131.765 Y90.376 E29.52402
G1 X132.35 Y91.076 E29.56953
G1 X133.099 Y92.103 E29.63295
G1 X133.586 Y92.871 E29.67832
G1 X134.203 Y94 E29.74251
G1 X134.591 Y94.837 E29.78853
G1 X135.061 Y96.055 E29.85367
G1 X135.335 Y96.935 E29.89965
G1 X135.634 Y98.176 E29.96334
G1 X135.788 Y99.063 E30.00825
G1 X135.925 Y100.33 E30.07183
G1 X135.964 Y101.261 E30.11832
G1 X135.931 Y102.555 E30.1829
G1 X135.85 Y103.455 E30.22798
G1 X135.651 Y104.732 E30.29246
G1 X135.449 Y105.631 E30.33843
G1 X135.091 Y106.847 E30.40167
G1 X134.776 Y107.706 E30.44732
G1 X134.249 Y108.895 E30.5122
G1 X133.822 Y109.709 E30.55806
G1 X133.154 Y110.802 E30.62197
G1 X132.626 Y111.551 E30.66769
G1 X131.815 Y112.555 E30.73208
G1 X131.195 Y113.227 E30.77769
G1 X130.267 Y114.11 E30.8416
G1 X129.56 Y114.7 E30.88754
G1 X128.518 Y115.458 E30.95183
G1 X127.751 Y115.943 E30.9971
G1 X126.636 Y116.551 E31.06046
G1 X125.805 Y116.936 E31.10615
G1 X124.587 Y117.406 E31.17129
G1 X123.708 Y117.68 E31.21722
G1 X122.468 Y117.979 E31.28086
G1 X121.571 Y118.134 E31.32627
G1 X120.289 Y118.271 E31.3906
G1 X119.37 Y118.309 E31.43648
G1 X118.636 Y118.291 E31.47311
G1 X119.118 Y118.828 E31.50911
G1 X119.555 Y119.434 E31.54639
G1 X119.926 Y120.084 E31.58373
G1 X120.225 Y120.77 E31.62106
G1 X120.449 Y121.484 E31.6584
G1 X120.596 Y122.217 E31.69569
G1 X120.668 Y123.221 E31.74591
G1 X120.668 Y128.904 E32.02944
G1 X120.628 Y129.651 E32.06676
G1 X120.509 Y130.389 E32.10405
G1 X120.311 Y131.111 E32.14141
G1 X120.038 Y131.807 E32.1787
G1 X119.691 Y132.47 E32.21604
G1 X119.276 Y133.093 E32.25338
G1 X118.618 Y133.854 E32.30357
G1 X118.501 Y133.971 E32.31183
G1 X117.944 Y134.471 E32.34917
G1 X117.338 Y134.908 E32.38645
G1 X116.688 Y135.279 E32.42379
G1 X116.002 Y135.578 E32.46112
G1 X115.288 Y135.802 E32.49845
G1 X114.555 Y135.949 E32.53575
G1 X113.551 Y136.021 E32.58597
G1 X110.595 Y136.021 E32.73345
G1 X110.595 Y136.466 E32.75565
G1 X110.555 Y137.213 E32.79297
G1 X110.436 Y137.951 E32.83026
G1 X110.238 Y138.673 E32.86761
G1 X109.965 Y139.369 E32.90491
G1 X109.618 Y140.032 E32.94225
G1 X109.203 Y140.655 E32.97959
G1 X108.545 Y141.416 E33.02978
G1 X108.428 Y141.533 E33.03804
G1 X107.871 Y142.033 E33.07538
G1 X107.265 Y142.47 E33.11266
G1 X106.615 Y142.841 E33.14999
G1 X105.929 Y143.14 E33.18733
G1 X105.215 Y143.364 E33.22466
G1 X104.482 Y143.511 E33.26196
G1 X103.478 Y143.583 E33.31218
G1 X83.84 Y143.583 E34.29192
G1 X83.093 Y143.543 E34.32924
G1 X82.355 Y143.424 E34.36654
G1 X81.633 Y143.226 E34.40389
G1 X80.937 Y142.953 E34.44119
G1 X80.274 Y142.606 E34.47852
G1 X79.651 Y142.191 E34.51587
G1 X78.89 Y141.533 E34.56606
G1 X78.773 Y141.416 E34.57431
