;FLAVOR:Marlin
;TIME:9496
;Filament used: 7.34619m
;Layer height: 0.2
;MINX:68.87
;MINY:76.908
;MINZ:0.3
;MAXX:141.13
;MAXY:134.941
;MAXZ:41.975
;Generated with Cura_SteamEngine 4.13.1
M82 ;absolute extrusion mode
G21                                        ; metric values 
G90                                        ; absolute positioning 
M82                                        ; set extruder to absolute mode 
M107                                       ; start with the fan off 
M140 S60.0           ; Start heating the bed 
G4 S60                                     ; wait 1 minute 
M104 S220.0         ; start heating the hot end 
M190 S60.0           ; wait for bed 
M109 S220.0         ; wait for hotend 
M300 S1000 P500                            ; BEEP heating done 
G28 X0 Y10 Z0                              ; move X/Y to min endstops 
M420 S1                                    ; Enable leveling 
M420 Z2.0                                  ; Set leveling fading height to 2 mm 
G0 Z0.15                                   ; lift nozzle a bit 
G92 E0                                     ; zero the extruded length 
G1 X50 E25 F500                            ; Extrude 25mm of filament in a 5cm line. 
G92 E0                                     ; zero the extruded length again 
G1 E-2 F500                                ; Retract a little 
G1 X120 F4000                              ; Quickly wipe away from the filament line`
G92 E0
G92 E0
G1 F2400 E-3
;LAYER_COUNT:209
;LAYER:0
M106 S76.5
M205 X10 Y10
G1 F600 Z0.375
G0 F6000 X71.272 Y79.193 Z0.375
M205 X8 Y8
;TYPE:SKIRT
G1 F600 Z0.3
G1 F2400 E0
G1 F1200 X71.858 Y78.663 E0.03942
G1 X72.494 Y78.196 E0.07878
G1 X73.174 Y77.795 E0.11817
G1 X73.892 Y77.465 E0.15759
G1 X74.639 Y77.21 E0.19697
G1 X75.408 Y77.031 E0.23636
G1 X76.192 Y76.931 E0.27579
G1 X76.787 Y76.908 E0.3055
G1 X114.334 Y76.908 E2.17873
G1 X115.123 Y76.948 E2.21814
G1 X115.903 Y77.067 E2.25751
G1 X116.668 Y77.265 E2.29693
G1 X117.408 Y77.539 E2.3363
G1 X118.117 Y77.887 E2.3757
G1 X118.788 Y78.305 E2.41514
G1 X119.412 Y78.788 E2.45451
G1 X119.849 Y79.193 E2.48424
G1 X119.966 Y79.31 E2.49249
G1 X120.496 Y79.896 E2.53191
G1 X120.963 Y80.532 E2.57128
G1 X121.364 Y81.212 E2.61066
G1 X121.694 Y81.93 E2.65008
G1 X121.949 Y82.677 E2.68946
G1 X122.128 Y83.446 E2.72886
G1 X122.228 Y84.23 E2.76829
G1 X122.251 Y84.825 E2.79799
G1 X122.251 Y94.86 E3.29864
G1 X122.211 Y95.649 E3.33806
G1 X122.079 Y96.438 E3.37797
G1 X123.14 Y96.438 E3.4309
G1 X123.929 Y96.478 E3.47031
G1 X124.709 Y96.597 E3.50968
G1 X125.474 Y96.795 E3.5491
G1 X126.214 Y97.069 E3.58847
G1 X126.923 Y97.417 E3.62787
G1 X127.594 Y97.835 E3.66731
G1 X128.218 Y98.318 E3.70668
G1 X128.655 Y98.723 E3.73641
G1 X128.772 Y98.84 E3.74466
G1 X129.302 Y99.426 E3.78408
G1 X129.769 Y100.062 E3.82345
G1 X130.17 Y100.742 E3.86283
G1 X130.5 Y101.46 E3.90226
G1 X130.755 Y102.207 E3.94163
G1 X130.934 Y102.976 E3.98103
G1 X131.034 Y103.76 E4.02046
G1 X131.044 Y104.013 E4.03309
G1 X133.213 Y104.013 E4.1413
G1 X134.002 Y104.053 E4.18071
G1 X134.782 Y104.172 E4.22008
G1 X135.547 Y104.37 E4.2595
G1 X136.287 Y104.644 E4.29887
G1 X136.996 Y104.992 E4.33827
G1 X137.667 Y105.41 E4.37771
G1 X138.291 Y105.893 E4.41708
G1 X138.728 Y106.298 E4.44681
G1 X138.845 Y106.415 E4.45506
G1 X139.375 Y107.001 E4.49448
G1 X139.842 Y107.637 E4.53385
G1 X140.243 Y108.317 E4.57323
G1 X140.573 Y109.035 E4.61266
G1 X140.828 Y109.782 E4.65204
G1 X141.007 Y110.551 E4.69143
G1 X141.107 Y111.335 E4.73086
G1 X141.13 Y111.93 E4.76056
G1 X141.13 Y117.613 E5.04409
G1 X141.09 Y118.402 E5.0835
G1 X140.971 Y119.182 E5.12287
G1 X140.773 Y119.947 E5.16229
G1 X140.499 Y120.687 E5.20166
G1 X140.416 Y120.856 E5.21105
G1 X140.587 Y121.487 E5.24367
G1 X140.715 Y122.266 E5.28306
G1 X140.764 Y123.055 E5.3225
G1 X140.732 Y123.844 E5.36189
G1 X140.621 Y124.625 E5.40125
G1 X140.381 Y125.555 E5.44917
G1 X139.577 Y128.024 E5.57871
G1 X139.294 Y128.762 E5.61814
G1 X138.939 Y129.467 E5.65752
G1 X138.514 Y130.133 E5.69694
G1 X138.024 Y130.752 E5.73633
G1 X137.474 Y131.318 E5.7757
G1 X136.753 Y131.914 E5.82237
G1 X134.65 Y133.446 E5.95218
G1 X133.989 Y133.878 E5.99157
G1 X133.287 Y134.241 E6.031
G1 X132.553 Y134.531 E6.07037
G1 X131.793 Y134.745 E6.10977
G1 X131.015 Y134.882 E6.14918
G1 X130.057 Y134.941 E6.19706
G1 X127.457 Y134.941 E6.32678
G1 X126.668 Y134.901 E6.36619
G1 X125.888 Y134.782 E6.40556
G1 X125.123 Y134.584 E6.44498
G1 X124.383 Y134.31 E6.48435
G1 X123.674 Y133.962 E6.52375
G1 X122.864 Y133.446 E6.57167
G1 X122.378 Y133.092 E6.60166
G1 X103.502 Y133.092 E7.54339
G1 X102.713 Y133.052 E7.5828
G1 X101.933 Y132.933 E7.62217
G1 X101.168 Y132.735 E7.66159
G1 X100.558 Y132.509 E7.69405
G1 X100.232 Y132.596 E7.71088
G1 X99.452 Y132.722 E7.7503
G1 X98.604 Y132.768 E7.79267
G1 X78.803 Y132.768 E8.78054
G1 X78.014 Y132.728 E8.81996
G1 X77.234 Y132.609 E8.85932
G1 X76.412 Y132.393 E8.90172
G1 X76.353 Y132.374 E8.90482
G1 X75.615 Y132.094 E8.9442
G1 X74.908 Y131.741 E8.98362
G1 X74.235 Y131.314 E9.02339
G1 X72.771 Y130.277 E9.11289
G1 X71.883 Y129.544 E9.17034
G1 X71.859 Y129.521 E9.172
G1 X71.317 Y128.946 E9.21142
G1 X70.743 Y128.181 E9.25913
G1 X70.173 Y127.316 E9.31082
G1 X69.772 Y126.635 E9.35024
G1 X69.443 Y125.918 E9.3896
G1 X69.196 Y125.203 E9.42734
G1 X69.18 Y125.148 E9.4302
G1 X68.999 Y124.379 E9.46961
G1 X68.895 Y123.596 E9.50902
G1 X68.87 Y122.969 E9.54033
G1 X68.87 Y84.825 E11.44334
G1 X68.91 Y84.036 E11.48275
G1 X69.029 Y83.256 E11.52212
G1 X69.227 Y82.491 E11.56154
G1 X69.501 Y81.751 E11.60091
G1 X69.849 Y81.042 E11.64031
G1 X70.267 Y80.371 E11.67975
G1 X70.75 Y79.747 E11.71912
G1 X71.155 Y79.31 E11.74884
G1 X71.272 Y79.193 E11.7571
M205 X10 Y10
G0 F6000 X71.554 Y79.475
M205 X8 Y8
G1 F1200 X72.126 Y78.961 E11.79547
G1 X72.748 Y78.508 E11.83386
G1 X73.413 Y78.122 E11.87222
G1 X74.115 Y77.807 E11.9106
G1 X74.846 Y77.567 E11.94899
G1 X75.597 Y77.404 E11.98733
G1 X76.362 Y77.32 E12.02572
G1 X76.787 Y77.308 E12.04694
G1 X114.334 Y77.308 E13.92016
G1 X115.102 Y77.348 E13.95853
G1 X115.862 Y77.467 E13.99691
G1 X116.605 Y77.665 E14.03527
G1 X117.324 Y77.939 E14.07366
G1 X118.01 Y78.286 E14.11201
G1 X118.657 Y78.702 E14.15039
G1 X119.257 Y79.183 E14.18875
G1 X119.684 Y79.592 E14.21825
G1 X120.198 Y80.164 E14.25662
G1 X120.651 Y80.786 E14.29501
G1 X121.037 Y81.451 E14.33337
G1 X121.352 Y82.153 E14.37176
G1 X121.592 Y82.884 E14.41014
G1 X121.755 Y83.635 E14.44848
G1 X121.839 Y84.4 E14.48688
G1 X121.851 Y84.825 E14.50809
G1 X121.851 Y94.86 E15.00874
G1 X121.811 Y95.628 E15.0471
G1 X121.656 Y96.546 E15.09355
G1 X121.574 Y96.838 E15.10868
G1 X123.14 Y96.838 E15.18681
G1 X123.908 Y96.878 E15.22518
G1 X124.668 Y96.997 E15.26356
G1 X125.411 Y97.195 E15.30192
G1 X126.13 Y97.469 E15.34031
G1 X126.816 Y97.816 E15.37866
G1 X127.463 Y98.232 E15.41704
G1 X128.063 Y98.713 E15.4554
G1 X128.49 Y99.122 E15.4849
G1 X129.004 Y99.694 E15.52327
G1 X129.457 Y100.316 E15.56166
G1 X129.843 Y100.981 E15.60002
G1 X130.158 Y101.683 E15.6384
G1 X130.398 Y102.414 E15.67679
G1 X130.561 Y103.165 E15.71513
G1 X130.645 Y103.93 E15.75353
G1 X130.657 Y104.413 E15.77763
G1 X133.213 Y104.413 E15.90515
G1 X133.981 Y104.453 E15.94352
G1 X134.741 Y104.572 E15.9819
G1 X135.484 Y104.77 E16.02026
G1 X136.203 Y105.044 E16.05864
G1 X136.889 Y105.391 E16.097
G1 X137.536 Y105.807 E16.13537
G1 X138.136 Y106.288 E16.17374
G1 X138.563 Y106.697 E16.20324
G1 X139.077 Y107.269 E16.2416
G1 X139.53 Y107.891 E16.27999
G1 X139.916 Y108.556 E16.31836
G1 X140.231 Y109.258 E16.35674
G1 X140.471 Y109.989 E16.39513
G1 X140.634 Y110.74 E16.43347
G1 X140.718 Y111.505 E16.47186
G1 X140.73 Y111.93 E16.49307
G1 X140.73 Y117.613 E16.7766
G1 X140.69 Y118.381 E16.81497
G1 X140.571 Y119.141 E16.85335
G1 X140.373 Y119.884 E16.89171
G1 X140.099 Y120.603 E16.9301
G1 X140 Y120.849 E16.94333
G1 X140.2 Y121.591 E16.98167
G1 X140.322 Y122.351 E17.02007
G1 X140.364 Y123.119 E17.05844
G1 X140.326 Y123.887 E17.0968
G1 X140.209 Y124.647 E17.13517
G1 X140 Y125.431 E17.17565
G1 X139.196 Y127.9 E17.30519
G1 X138.92 Y128.618 E17.34357
G1 X138.572 Y129.304 E17.38194
G1 X138.153 Y129.949 E17.42032
G1 X137.671 Y130.548 E17.45868
G1 X137.128 Y131.093 E17.49706
G1 X136.517 Y131.59 E17.53635
G1 X134.414 Y133.122 E17.66616
G1 X133.77 Y133.542 E17.70452
G1 X133.085 Y133.893 E17.74292
G1 X132.368 Y134.171 E17.78128
G1 X131.626 Y134.373 E17.81965
G1 X130.867 Y134.497 E17.85802
G1 X130.057 Y134.541 E17.89849
G1 X127.457 Y134.541 E18.0282
G1 X126.689 Y134.501 E18.06657
G1 X125.929 Y134.382 E18.10495
G1 X125.186 Y134.184 E18.14331
G1 X124.467 Y133.91 E18.1817
G1 X123.781 Y133.563 E18.22005
G1 X123.1 Y133.122 E18.26053
G1 X122.51 Y132.692 E18.29695
G1 X103.502 Y132.692 E19.24527
G1 X102.734 Y132.652 E19.28363
G1 X101.974 Y132.533 E19.32201
G1 X101.231 Y132.335 E19.36037
G1 X100.584 Y132.088 E19.39492
G1 X100.129 Y132.209 E19.41841
G1 X99.369 Y132.328 E19.45679
G1 X98.604 Y132.368 E19.49501
G1 X78.803 Y132.368 E20.48289
G1 X78.035 Y132.328 E20.52125
G1 X77.275 Y132.209 E20.55963
G1 X76.535 Y132.012 E20.59784
G1 X76.476 Y131.993 E20.60093
G1 X75.757 Y131.719 E20.63932
G1 X75.07 Y131.373 E20.67769
G1 X74.467 Y130.988 E20.71339
G1 X73.003 Y129.951 E20.80289
G1 X72.16 Y129.255 E20.85743
G1 X72.136 Y129.232 E20.85909
G1 X71.609 Y128.671 E20.89749
G1 X71.077 Y127.961 E20.94175
G1 X70.507 Y127.096 E20.99344
G1 X70.118 Y126.432 E21.03183
G1 X69.799 Y125.732 E21.07021
G1 X69.581 Y125.091 E21.10399
G1 X69.565 Y125.036 E21.10684
G1 X69.388 Y124.287 E21.14524
G1 X69.291 Y123.524 E21.18361
G1 X69.27 Y122.969 E21.21132
G1 X69.27 Y84.825 E23.11433
G1 X69.31 Y84.057 E23.1527
G1 X69.429 Y83.297 E23.19108
G1 X69.627 Y82.554 E23.22944
G1 X69.901 Y81.835 E23.26783
G1 X70.248 Y81.149 E23.30618
G1 X70.664 Y80.502 E23.34456
G1 X71.145 Y79.902 E23.38292
G1 X71.554 Y79.475 E23.41242
M205 X10 Y10
G0 F6000 X71.837 Y79.758
M205 X8 Y8
G1 F1200 X72.394 Y79.258 E23.44977
G1 X73 Y78.821 E23.48704
G1 X73.65 Y78.45 E23.52438
G1 X74.336 Y78.151 E23.56171
G1 X75.05 Y77.927 E23.59905
G1 X75.783 Y77.78 E23.63635
G1 X76.787 Y77.708 E23.68656
G1 X114.334 Y77.708 E25.55979
G1 X115.081 Y77.748 E25.59711
G1 X115.819 Y77.867 E25.63441
G1 X116.541 Y78.065 E25.67176
G1 X117.237 Y78.338 E25.70906
G1 X117.9 Y78.685 E25.74639
G1 X118.523 Y79.1 E25.78374
G1 X119.284 Y79.758 E25.83393
G1 X119.401 Y79.875 E25.84218
G1 X119.901 Y80.432 E25.87953
G1 X120.338 Y81.038 E25.9168
G1 X120.709 Y81.688 E25.95414
G1 X121.008 Y82.374 E25.99147
G1 X121.232 Y83.088 E26.02881
G1 X121.379 Y83.821 E26.0661
G1 X121.451 Y84.825 E26.11632
G1 X121.451 Y94.86 E26.61697
G1 X121.411 Y95.607 E26.65429
G1 X121.267 Y96.455 E26.6972
G1 X121.256 Y96.502 E26.69961
G1 X121.047 Y97.22 E26.73692
G1 X121.039 Y97.238 E26.7379
G1 X123.14 Y97.238 E26.84272
G1 X123.887 Y97.278 E26.88004
G1 X124.625 Y97.397 E26.91734
G1 X125.347 Y97.595 E26.95469
G1 X126.043 Y97.868 E26.99199
G1 X126.706 Y98.215 E27.02932
G1 X127.329 Y98.63 E27.06667
G1 X128.09 Y99.288 E27.11686
G1 X128.207 Y99.405 E27.12511
G1 X128.707 Y99.962 E27.16246
G1 X129.144 Y100.568 E27.19973
G1 X129.515 Y101.218 E27.23707
G1 X129.814 Y101.904 E27.27441
G1 X130.038 Y102.618 E27.31174
G1 X130.185 Y103.351 E27.34904
G1 X130.257 Y104.355 E27.39925
G1 X130.257 Y104.813 E27.4221
G1 X133.213 Y104.813 E27.56958
G1 X133.96 Y104.853 E27.6069
G1 X134.698 Y104.972 E27.6442
G1 X135.42 Y105.17 E27.68155
G1 X136.116 Y105.443 E27.71885
G1 X136.779 Y105.79 E27.75618
G1 X137.402 Y106.205 E27.79353
G1 X138.163 Y106.863 E27.84372
G1 X138.28 Y106.98 E27.85197
G1 X138.78 Y107.537 E27.88931
G1 X139.217 Y108.143 E27.92659
G1 X139.588 Y108.793 E27.96393
G1 X139.887 Y109.479 E28.00126
G1 X140.111 Y110.193 E28.0386
G1 X140.258 Y110.926 E28.07589
G1 X140.33 Y111.93 E28.12611
G1 X140.33 Y117.613 E28.40964
G1 X140.29 Y118.36 E28.44696
G1 X140.171 Y119.098 E28.48425
G1 X139.973 Y119.82 E28.5216
G1 X139.7 Y120.516 E28.5589
G1 X139.559 Y120.786 E28.5741
G1 X139.62 Y120.973 E28.58391
G1 X139.813 Y121.695 E28.6212
G1 X139.928 Y122.434 E28.65851
G1 X139.964 Y123.182 E28.69587
G1 X139.919 Y123.928 E28.73316
G1 X139.796 Y124.666 E28.77048
G1 X139.62 Y125.307 E28.80365
G1 X138.816 Y127.776 E28.93319
G1 X138.547 Y128.474 E28.97051
G1 X138.204 Y129.14 E29.00789
G1 X137.793 Y129.764 E29.04517
G1 X137.318 Y130.342 E29.08249
G1 X136.783 Y130.865 E29.11982
G1 X136.282 Y131.267 E29.15186
G1 X134.179 Y132.799 E29.28167
G1 X133.551 Y133.206 E29.31901
G1 X132.884 Y133.545 E29.35633
G1 X132.185 Y133.81 E29.39363
G1 X131.461 Y133.999 E29.43096
G1 X130.721 Y134.109 E29.46828
G1 X130.057 Y134.141 E29.50145
G1 X127.457 Y134.141 E29.63116
G1 X126.71 Y134.101 E29.66849
G1 X125.972 Y133.982 E29.70578
G1 X125.25 Y133.784 E29.74313
G1 X124.554 Y133.511 E29.78043
G1 X123.891 Y133.164 E29.81776
G1 X123.335 Y132.799 E29.85095
G1 X122.639 Y132.292 E29.89391
G1 X103.502 Y132.292 E30.84865
G1 X102.755 Y132.252 E30.88598
G1 X102.017 Y132.133 E30.92327
G1 X101.295 Y131.935 E30.96062
G1 X100.612 Y131.667 E30.99723
G1 X100.026 Y131.822 E31.02747
G1 X99.287 Y131.935 E31.06476
G1 X98.604 Y131.968 E31.09888
G1 X78.803 Y131.968 E32.08675
G1 X78.056 Y131.928 E32.12408
G1 X77.318 Y131.809 E32.16137
G1 X76.657 Y131.631 E32.19552
G1 X76.598 Y131.612 E32.19861
G1 X75.899 Y131.345 E32.23595
G1 X75.233 Y131.005 E32.27325
G1 X74.698 Y130.661 E32.30498
G1 X73.234 Y129.624 E32.39449
G1 X72.437 Y128.966 E32.44605
G1 X72.413 Y128.943 E32.44771
G1 X71.901 Y128.397 E32.48505
G1 X71.411 Y127.741 E32.52591
G1 X70.841 Y126.876 E32.57759
G1 X70.463 Y126.23 E32.61493
G1 X70.157 Y125.548 E32.65222
G1 X69.965 Y124.979 E32.68218
G1 X69.949 Y124.924 E32.68504
G1 X69.778 Y124.196 E32.72235
G1 X69.687 Y123.453 E32.75969
G1 X69.67 Y122.969 E32.78385
G1 X69.67 Y84.825 E34.68687
G1 X69.71 Y84.078 E34.72419
G1 X69.829 Y83.34 E34.76148
G1 X70.027 Y82.618 E34.79883
G1 X70.3 Y81.922 E34.83613
G1 X70.647 Y81.259 E34.87347
G1 X71.062 Y80.636 E34.91081
G1 X71.72 Y79.875 E34.961
G1 X71.837 Y79.758 E34.96926
M205 X10 Y10
G0 F6000 X72.12 Y80.041
M205 X8 Y8
G1 F1200 X72.661 Y79.557 E35.00547
G1 X73.252 Y79.134 E35.04173
G1 X73.886 Y78.78 E35.07796
G1 X74.555 Y78.497 E35.1142
G1 X75.251 Y78.289 E35.15044
G1 X75.966 Y78.159 E35.1867
G1 X76.787 Y78.108 E35.22774
G1 X114.334 Y78.108 E37.10096
G1 X115.059 Y78.148 E37.13719
G1 X115.776 Y78.267 E37.17345
G1 X116.475 Y78.465 E37.20969
G1 X117.148 Y78.738 E37.24593
G1 X117.787 Y79.083 E37.28216
G1 X118.384 Y79.497 E37.3184
G1 X119.001 Y80.041 E37.35944
G1 X119.118 Y80.158 E37.3677
G1 X119.602 Y80.699 E37.40391
G1 X120.025 Y81.29 E37.44017
G1 X120.379 Y81.924 E37.4764
G1 X120.662 Y82.593 E37.51264
G1 X120.87 Y83.289 E37.54888
G1 X121 Y84.004 E37.58514
G1 X121.051 Y84.825 E37.62617
G1 X121.051 Y94.86 E38.12682
G1 X121.011 Y95.585 E38.16305
G1 X120.877 Y96.364 E38.20248
G1 X120.866 Y96.411 E38.20489
G1 X120.662 Y97.108 E38.24112
G1 X120.44 Y97.638 E38.26979
G1 X123.14 Y97.638 E38.4045
G1 X123.865 Y97.678 E38.44072
G1 X124.582 Y97.797 E38.47698
G1 X125.281 Y97.995 E38.51323
G1 X125.954 Y98.268 E38.54946
G1 X126.593 Y98.613 E38.58569
G1 X127.19 Y99.027 E38.62193
G1 X127.807 Y99.571 E38.66297
G1 X127.924 Y99.688 E38.67123
G1 X128.408 Y100.229 E38.70744
G1 X128.831 Y100.82 E38.7437
G1 X129.185 Y101.454 E38.77993
G1 X129.468 Y102.123 E38.81617
G1 X129.676 Y102.819 E38.85241
G1 X129.806 Y103.534 E38.88867
G1 X129.857 Y104.355 E38.92971
G1 X129.857 Y105.213 E38.97251
G1 X133.213 Y105.213 E39.13994
G1 X133.938 Y105.253 E39.17617
G1 X134.655 Y105.372 E39.21243
G1 X135.354 Y105.57 E39.24867
G1 X136.027 Y105.843 E39.28491
G1 X136.666 Y106.188 E39.32114
G1 X137.263 Y106.602 E39.35738
