;FLAVOR:Marlin
;TIME:15853
;Filament used: 13.6904m
;Layer height: 0.2
;MINX:51.836
;MINY:45.464
;MINZ:0.3
;MAXX:158.164
;MAXY:164.556
;MAXZ:15.575
;Generated with Cura_SteamEngine 4.13.1
M82 ;absolute extrusion mode
G21                                        ; metric values 
G90                                        ; absolute positioning 
M82                                        ; set extruder to absolute mode 
M107                                       ; start with the fan off 
M140 S60.0           ; Start heating the bed 
G4 S60                                     ; wait 1 minute 
M104 S220.0         ; start heating the hot end 
M190 S60.0           ; wait for bed 
M109 S220.0         ; wait for hotend 
M300 S1000 P500                            ; BEEP heating done 
G28 X0 Y10 Z0                              ; move X/Y to min endstops 
M420 S1                                    ; Enable leveling 
M420 Z2.0                                  ; Set leveling fading height to 2 mm 
G0 Z0.15                                   ; lift nozzle a bit 
G92 E0                                     ; zero the extruded length 
G1 X50 E25 F500                            ; Extrude 25mm of filament in a 5cm line. 
G92 E0                                     ; zero the extruded length again 
G1 E-2 F500                                ; Retract a little 
G1 X120 F4000                              ; Quickly wipe away from the filament line`
G92 E0
G92 E0
G1 F2400 E-3
;LAYER_COUNT:77
;LAYER:0
M106 S76.5
M205 X10 Y10
G1 F600 Z0.375
G0 F6000 X72.815 Y53.562 Z0.375
M205 X8 Y8
;TYPE:SKIRT
G1 F600 Z0.3
G1 F2400 E0
G1 F1200 X73.165 Y53.096 E0.02908
G1 X73.255 Y52.985 E0.03621
G1 X73.783 Y52.397 E0.07563
G1 X74.368 Y51.866 E0.11505
G1 X75.003 Y51.397 E0.15443
G1 X75.682 Y50.994 E0.19383
G1 X76.399 Y50.662 E0.23325
G1 X77.145 Y50.405 E0.27261
G1 X77.688 Y50.268 E0.30055
G1 X95.928 Y46.381 E1.23098
G1 X96.95 Y46.233 E1.2825
G1 X106.821 Y45.466 E1.77645
G1 X107.996 Y45.464 E1.83507
G1 X117.764 Y46.181 E2.32371
G1 X118.429 Y46.258 E2.35711
G1 X119.079 Y46.39 E2.3902
G1 X134.21 Y50.12 E3.16769
G1 X134.966 Y50.347 E3.20707
G1 X135.695 Y50.65 E3.24645
G1 X136.39 Y51.025 E3.28585
G1 X137.044 Y51.469 E3.32529
G1 X137.649 Y51.976 E3.36467
G1 X138.445 Y52.834 E3.42306
G1 X138.531 Y52.942 E3.42995
G1 X138.991 Y53.584 E3.46935
G1 X139.384 Y54.269 E3.50875
G1 X139.705 Y54.99 E3.54813
G1 X139.952 Y55.741 E3.58757
G1 X140.122 Y56.512 E3.62696
G1 X140.213 Y57.296 E3.66633
G1 X140.228 Y57.694 E3.6862
G1 X140.307 Y63.451 E3.97345
G1 X140.278 Y64.24 E4.01284
G1 X140.169 Y65.022 E4.05223
G1 X139.982 Y65.789 E4.09162
G1 X139.718 Y66.534 E4.13105
G1 X139.38 Y67.247 E4.17042
G1 X138.972 Y67.923 E4.20981
G1 X138.497 Y68.555 E4.24925
G1 X138.556 Y69.285 E4.28579
G1 X138.822 Y70.007 E4.32418
G1 X139.072 Y71.057 E4.37803
G1 X139.256 Y72.17 E4.43431
G1 X139.345 Y72.954 E4.47367
G1 X139.354 Y73.744 E4.51309
G1 X139.284 Y74.531 E4.55251
G1 X139.209 Y74.97 E4.57473
G1 X139.506 Y75.505 E4.60526
G1 X139.818 Y76.231 E4.64468
G1 X140.054 Y76.984 E4.68405
G1 X140.22 Y77.798 E4.72549
G1 X140.552 Y80.035 E4.83832
G1 X141.793 Y83.913 E5.04146
G1 X150.252 Y83.919 E5.46348
G1 X151.041 Y83.96 E5.5029
G1 X151.822 Y84.08 E5.54232
G1 X152.586 Y84.278 E5.5817
G1 X153.326 Y84.553 E5.62108
G1 X154.035 Y84.901 E5.66048
G1 X154.705 Y85.319 E5.69988
G1 X155.329 Y85.802 E5.73925
G1 X155.786 Y86.227 E5.77039
G1 X155.903 Y86.345 E5.77868
G1 X156.43 Y86.933 E5.81807
G1 X156.895 Y87.572 E5.8575
G1 X157.292 Y88.254 E5.89687
G1 X157.619 Y88.973 E5.93627
G1 X157.872 Y89.721 E5.97567
G1 X158.047 Y90.491 E6.01506
G1 X158.144 Y91.275 E6.05448
G1 X158.164 Y91.876 E6.08448
G1 X158.108 Y103.151 E6.64699
G1 X158.122 Y115.11 E7.24363
G1 X158.083 Y115.899 E7.28304
G1 X157.964 Y116.679 E7.32241
G1 X157.767 Y117.444 E7.36182
G1 X157.494 Y118.185 E7.40122
G1 X157.147 Y118.894 E7.4406
G1 X156.731 Y119.565 E7.47999
G1 X156.248 Y120.19 E7.51939
G1 X155.861 Y120.611 E7.54792
G1 X155.745 Y120.728 E7.55614
G1 X155.161 Y121.26 E7.59556
G1 X154.527 Y121.73 E7.63493
G1 X153.848 Y122.133 E7.67432
G1 X153.132 Y122.466 E7.71372
G1 X152.386 Y122.725 E7.75312
G1 X151.618 Y122.907 E7.79249
G1 X150.835 Y123.011 E7.8319
G1 X150.558 Y123.023 E7.84573
G1 X150.503 Y126.427 E8.01558
G1 X150.45 Y127.215 E8.05498
G1 X150.225 Y128.369 E8.11364
G1 X150.214 Y128.409 E8.11571
G1 X149.966 Y129.159 E8.15512
G1 X149.627 Y129.913 E8.19636
G1 X145.835 Y137.274 E8.60947
G1 X145.468 Y137.912 E8.64619
G1 X144.772 Y138.844 E8.70422
G1 X139.567 Y144.827 E9.09986
G1 X138.989 Y145.423 E9.14128
G1 X138.489 Y145.852 E9.17415
G1 X132.361 Y150.671 E9.56309
G1 X131.716 Y151.127 E9.6025
G1 X131.276 Y151.387 E9.628
G1 X126.184 Y154.166 E9.91741
G1 X118.617 Y161.548 E10.44481
G1 X118.024 Y162.07 E10.48423
G1 X117.382 Y162.53 E10.52363
G1 X116.424 Y163.054 E10.57811
G1 X116.363 Y163.082 E10.58146
G1 X115.629 Y163.375 E10.62089
G1 X114.87 Y163.592 E10.66027
G1 X113.872 Y163.756 E10.71073
G1 X106.114 Y164.519 E11.09964
G1 X105.333 Y164.556 E11.13865
G1 X104.568 Y164.518 E11.17687
G1 X96.815 Y163.754 E11.56554
G1 X96.034 Y163.637 E11.60494
G1 X95.269 Y163.442 E11.64432
G1 X94.528 Y163.17 E11.6837
G1 X94.07 Y162.958 E11.70888
G1 X93.38 Y162.574 E11.74828
G1 X92.732 Y162.122 E11.7877
G1 X92.134 Y161.607 E11.82707
G1 X91.785 Y161.252 E11.8519
G1 X85.201 Y154.122 E12.33609
G1 X79.456 Y151.05 E12.66111
G1 X78.699 Y150.589 E12.70533
G1 X78.17 Y150.191 E12.73836
G1 X72.123 Y145.229 E13.12861
G1 X71.541 Y144.699 E13.16788
G1 X71.026 Y144.132 E13.2061
G1 X66.064 Y138.085 E13.59635
G1 X65.592 Y137.446 E13.63598
G1 X65.204 Y136.797 E13.67371
G1 X62.12 Y131.029 E14.00002
G1 X55.091 Y124.425 E14.4812
G1 X54.544 Y123.856 E14.52058
G1 X54.057 Y123.235 E14.55995
G1 X53.455 Y122.229 E14.61844
G1 X53.423 Y122.165 E14.62201
G1 X53.107 Y121.442 E14.66137
G1 X52.864 Y120.69 E14.7008
G1 X52.699 Y119.918 E14.74019
G1 X52.638 Y119.442 E14.76413
G1 X51.874 Y111.689 E15.1528
G1 X51.836 Y110.904 E15.19201
G1 X51.874 Y110.139 E15.23022
G1 X52.638 Y102.385 E15.61895
G1 X52.755 Y101.604 E15.65834
G1 X52.95 Y100.839 E15.69773
G1 X53.222 Y100.098 E15.73711
G1 X53.455 Y99.598 E15.76463
G1 X53.844 Y98.91 E15.80406
G1 X54.3 Y98.265 E15.84347
G1 X55.091 Y97.402 E15.90188
G1 X62.12 Y90.798 E16.38305
G1 X65.204 Y85.03 E16.70937
G1 X65.604 Y84.363 E16.74817
G1 X66.064 Y83.743 E16.78669
G1 X70.802 Y77.967 E17.1594
G1 X71.442 Y77.02 E17.21642
G1 X71.437 Y69.033 E17.6149
G1 X71.424 Y58.017 E18.16449
G1 X71.463 Y57.228 E18.2039
G1 X71.582 Y56.448 E18.24326
G1 X71.779 Y55.683 E18.28267
G1 X72.052 Y54.942 E18.32207
G1 X72.399 Y54.233 E18.36145
G1 X72.815 Y53.562 E18.40084
M205 X10 Y10
G0 F6000 X73.213 Y53.692
M205 X8 Y8
G1 F1200 X73.566 Y53.236 E18.42961
G1 X74.081 Y52.665 E18.46797
G1 X74.652 Y52.15 E18.50634
G1 X75.274 Y51.697 E18.54473
G1 X75.939 Y51.311 E18.58309
G1 X76.641 Y50.997 E18.62145
G1 X77.372 Y50.756 E18.65985
G1 X77.772 Y50.66 E18.68038
G1 X96.012 Y46.773 E19.61081
G1 X96.981 Y46.632 E19.65966
G1 X106.852 Y45.865 E20.15361
G1 X107.967 Y45.863 E20.20924
G1 X117.735 Y46.58 E20.69788
G1 X118.366 Y46.654 E20.72957
G1 X118.983 Y46.778 E20.76097
G1 X134.114 Y50.508 E21.53846
G1 X134.85 Y50.731 E21.57683
G1 X135.56 Y51.029 E21.61524
G1 X136.234 Y51.398 E21.65358
G1 X136.866 Y51.836 E21.69194
G1 X137.45 Y52.338 E21.73036
G1 X138.132 Y53.083 E21.78075
G1 X138.218 Y53.191 E21.78764
G1 X138.665 Y53.817 E21.82601
G1 X139.045 Y54.486 E21.8644
G1 X139.353 Y55.191 E21.90278
G1 X139.587 Y55.923 E21.94112
G1 X139.743 Y56.677 E21.97954
G1 X139.828 Y57.699 E22.0307
G1 X139.907 Y63.456 E22.31795
G1 X139.878 Y64.225 E22.35634
G1 X139.769 Y64.986 E22.39469
G1 X139.581 Y65.732 E22.43307
G1 X139.317 Y66.455 E22.47147
G1 X138.98 Y67.146 E22.50983
G1 X138.573 Y67.798 E22.54818
G1 X138.1 Y68.405 E22.58657
G1 X138.031 Y68.48 E22.59165
G1 X138.116 Y68.973 E22.61661
G1 X138.213 Y69.497 E22.6432
G1 X138.47 Y70.222 E22.68157
G1 X138.677 Y71.122 E22.72765
G1 X138.861 Y72.235 E22.78393
G1 X138.947 Y72.999 E22.82228
G1 X138.953 Y73.769 E22.8607
G1 X138.816 Y74.895 E22.91729
G1 X138.815 Y75.077 E22.92637
G1 X139.182 Y75.753 E22.96475
G1 X139.477 Y76.464 E23.00315
G1 X139.696 Y77.201 E23.04151
G1 X139.824 Y77.857 E23.07485
G1 X140.16 Y80.124 E23.18919
G1 X141.492 Y84.285 E23.40716
G1 X141.524 Y84.313 E23.40928
G1 X150.252 Y84.319 E23.84472
G1 X151.02 Y84.36 E23.88309
G1 X151.78 Y84.48 E23.92148
G1 X152.523 Y84.678 E23.95984
G1 X153.242 Y84.952 E23.99823
G1 X153.928 Y85.299 E24.03658
G1 X154.574 Y85.716 E24.07495
G1 X155.174 Y86.198 E24.11334
G1 X155.619 Y86.627 E24.14418
G1 X156.131 Y87.2 E24.18252
G1 X156.581 Y87.824 E24.2209
G1 X156.964 Y88.491 E24.25927
G1 X157.276 Y89.194 E24.29764
G1 X157.513 Y89.926 E24.33603
G1 X157.673 Y90.678 E24.37439
G1 X157.754 Y91.443 E24.41277
G1 X157.764 Y91.874 E24.43427
G1 X157.708 Y103.149 E24.99679
G1 X157.722 Y115.11 E25.59353
G1 X157.683 Y115.879 E25.63195
G1 X157.564 Y116.638 E25.67027
G1 X157.367 Y117.382 E25.70867
G1 X157.095 Y118.101 E25.74702
G1 X156.748 Y118.788 E25.78542
G1 X156.333 Y119.435 E25.82377
G1 X155.852 Y120.036 E25.86218
G1 X155.461 Y120.446 E25.89044
G1 X154.892 Y120.963 E25.9288
G1 X154.272 Y121.419 E25.96719
G1 X153.608 Y121.808 E26.00559
G1 X152.908 Y122.125 E26.04392
G1 X152.178 Y122.368 E26.08231
G1 X151.427 Y122.535 E26.12069
G1 X150.663 Y122.622 E26.15905
G1 X150.164 Y122.637 E26.18396
G1 X150.103 Y126.421 E26.37277
G1 X150.051 Y127.188 E26.41112
G1 X149.839 Y128.263 E26.46579
G1 X149.828 Y128.303 E26.46786
G1 X149.586 Y129.033 E26.50623
G1 X149.271 Y129.73 E26.54439
G1 X145.479 Y137.091 E26.95749
G1 X145.13 Y137.697 E26.99238
G1 X144.47 Y138.581 E27.04742
G1 X139.265 Y144.564 E27.44306
G1 X138.716 Y145.131 E27.48244
G1 X138.241 Y145.538 E27.51364
G1 X132.113 Y150.357 E27.90258
G1 X131.485 Y150.8 E27.94092
G1 X131.084 Y151.036 E27.96413
G1 X125.944 Y153.841 E28.25627
G1 X118.337 Y161.262 E28.78646
G1 X117.76 Y161.77 E28.82482
G1 X117.132 Y162.215 E28.86322
G1 X116.257 Y162.69 E28.91289
G1 X116.196 Y162.718 E28.91624
G1 X115.481 Y163.002 E28.95462
G1 X114.741 Y163.211 E28.99298
G1 X113.833 Y163.357 E29.03886
G1 X106.075 Y164.12 E29.42778
G1 X105.333 Y164.156 E29.46484
G1 X104.607 Y164.12 E29.50111
G1 X96.854 Y163.356 E29.88978
G1 X96.094 Y163.241 E29.92813
G1 X95.349 Y163.048 E29.96652
G1 X94.312 Y162.631 E30.02229
G1 X94.247 Y162.599 E30.0259
G1 X93.575 Y162.224 E30.06429
G1 X92.946 Y161.781 E30.10268
G1 X92.367 Y161.275 E30.14104
G1 X92.078 Y160.98 E30.16164
G1 X85.449 Y153.801 E30.64914
G1 X79.645 Y150.698 E30.97749
G1 X78.926 Y150.259 E31.01952
G1 X78.424 Y149.882 E31.05084
G1 X72.377 Y144.92 E31.44109
G1 X71.823 Y144.417 E31.47843
G1 X71.335 Y143.878 E31.5147
G1 X66.373 Y137.831 E31.90495
G1 X65.925 Y137.224 E31.94259
G1 X65.556 Y136.608 E31.97842
G1 X62.441 Y130.782 E32.30802
G1 X55.365 Y124.134 E32.7924
G1 X54.832 Y123.579 E32.83079
G1 X54.361 Y122.971 E32.86916
G1 X53.813 Y122.05 E32.92263
G1 X53.781 Y121.986 E32.9262
G1 X53.473 Y121.281 E32.96458
G1 X53.241 Y120.548 E33.00294
G1 X53.085 Y119.795 E33.04131
G1 X53.036 Y119.403 E33.06101
G1 X52.272 Y111.65 E33.44969
G1 X52.236 Y110.904 E33.48695
G1 X52.272 Y110.178 E33.52321
G1 X53.036 Y102.424 E33.91193
G1 X53.151 Y101.664 E33.95028
G1 X53.344 Y100.919 E33.98868
G1 X53.614 Y100.199 E34.02704
G1 X53.813 Y99.777 E34.05032
G1 X54.193 Y99.107 E34.08875
G1 X54.639 Y98.481 E34.12709
G1 X55.365 Y97.693 E34.18055
G1 X62.441 Y91.045 E34.66494
G1 X65.556 Y85.219 E34.99453
G1 X65.937 Y84.585 E35.03144
G1 X66.373 Y83.997 E35.06796
G1 X71.12 Y78.21 E35.44138
G1 X71.842 Y77.142 E35.50569
G1 X71.837 Y69.033 E35.91025
G1 X71.824 Y58.017 E36.45985
G1 X71.863 Y57.249 E36.49821
G1 X71.982 Y56.489 E36.53659
G1 X72.178 Y55.745 E36.57497
G1 X72.451 Y55.026 E36.61334
G1 X72.798 Y54.339 E36.65174
G1 X73.213 Y53.692 E36.69009
M205 X10 Y10
G0 F6000 X73.196 Y54.449
M205 X8 Y8
G1 F1200 X73.787 Y53.599 E36.74174
G1 X73.877 Y53.488 E36.74887
G1 X74.378 Y52.933 E36.78617
G1 X74.936 Y52.435 E36.82348
G1 X75.544 Y51.999 E36.86081
G1 X76.195 Y51.63 E36.89814
G1 X76.881 Y51.333 E36.93544
G1 X77.855 Y51.051 E36.98603
G1 X96.095 Y47.164 E37.91646
G1 X97.012 Y47.031 E37.96269
G1 X106.883 Y46.264 E38.45664
G1 X107.937 Y46.262 E38.50922
G1 X117.705 Y46.979 E38.99786
G1 X118.304 Y47.049 E39.02795
G1 X118.887 Y47.166 E39.05761
G1 X134.018 Y50.896 E39.8351
G1 X134.734 Y51.114 E39.87244
G1 X135.423 Y51.407 E39.90979
G1 X136.076 Y51.771 E39.94709
G1 X136.686 Y52.203 E39.98438
G1 X137.247 Y52.698 E40.02171
G1 X137.819 Y53.333 E40.06435
G1 X137.905 Y53.441 E40.07124
G1 X138.339 Y54.05 E40.10855
G1 X138.706 Y54.702 E40.14587
G1 X139 Y55.389 E40.18315
G1 X139.22 Y56.104 E40.22048
G1 X139.363 Y56.839 E40.25783
G1 X139.428 Y57.705 E40.30116
G1 X139.507 Y63.462 E40.5884
G1 X139.478 Y64.209 E40.6257
G1 X139.368 Y64.949 E40.66302
G1 X139.181 Y65.674 E40.70038
G1 X138.917 Y66.374 E40.7377
G1 X138.58 Y67.041 E40.77499
G1 X138.173 Y67.669 E40.81232
G1 X137.602 Y68.345 E40.85647
G1 X137.722 Y69.041 E40.8917
G1 X137.874 Y69.726 E40.92671
G1 X138.115 Y70.434 E40.96402
G1 X138.282 Y71.187 E41.0025
G1 X138.466 Y72.3 E41.05878
G1 X138.549 Y73.044 E41.09613
G1 X138.551 Y73.792 E41.13345
G1 X138.424 Y74.817 E41.18498
G1 X138.362 Y75.127 E41.20075
G1 X138.505 Y75.339 E41.21351
G1 X138.856 Y76 E41.25085
G1 X139.133 Y76.695 E41.28817
G1 X139.335 Y77.415 E41.32548
G1 X139.428 Y77.916 E41.3509
G1 X139.769 Y80.214 E41.46681
G1 X141.145 Y84.514 E41.69205
G1 X141.375 Y84.713 E41.70723
G1 X150.252 Y84.719 E42.1501
G1 X150.999 Y84.759 E42.18742
G1 X151.737 Y84.879 E42.22472
G1 X152.459 Y85.078 E42.26209
G1 X153.155 Y85.351 E42.29939
G1 X153.818 Y85.698 E42.33672
G1 X154.44 Y86.114 E42.37405
G1 X155.218 Y86.79 E42.42547
G1 X155.335 Y86.908 E42.43376
G1 X155.832 Y87.467 E42.47108
G1 X156.267 Y88.075 E42.50838
G1 X156.635 Y88.727 E42.54573
G1 X156.931 Y89.414 E42.58305
G1 X157.152 Y90.129 E42.62039
G1 X157.296 Y90.863 E42.65771
G1 X157.364 Y91.872 E42.70816
G1 X157.308 Y103.147 E43.27068
G1 X157.322 Y115.111 E43.86756
G1 X157.283 Y115.858 E43.90488
G1 X157.164 Y116.596 E43.94218
G1 X156.968 Y117.318 E43.9795
G1 X156.695 Y118.015 E44.01685
G1 X156.35 Y118.678 E44.05414
G1 X155.935 Y119.301 E44.09148
G1 X155.293 Y120.047 E44.14058
G1 X155.177 Y120.164 E44.1488
G1 X154.623 Y120.667 E44.18614
G1 X154.018 Y121.107 E44.22346
G1 X153.37 Y121.48 E44.26076
G1 X152.685 Y121.782 E44.29811
G1 X151.972 Y122.009 E44.33544
G1 X151.24 Y122.159 E44.37272
G1 X150.253 Y122.236 E44.42211
G1 X149.77 Y122.239 E44.44621
G1 X149.703 Y126.414 E44.65453
G1 X149.651 Y127.16 E44.69183
G1 X149.453 Y128.157 E44.74255
G1 X149.442 Y128.197 E44.74462
G1 X149.206 Y128.907 E44.78194
G1 X148.916 Y129.547 E44.817
G1 X145.124 Y136.908 E45.2301
G1 X144.793 Y137.482 E45.26316
G1 X144.168 Y138.318 E45.31524
G1 X138.963 Y144.301 E45.71088
G1 X138.443 Y144.838 E45.74817
G1 X137.994 Y145.223 E45.77768
G1 X131.866 Y150.042 E46.16661
G1 X131.254 Y150.473 E46.20396
G1 X130.892 Y150.684 E46.22486
G1 X125.708 Y153.513 E46.5195
G1 X118.058 Y160.976 E47.05269
G1 X117.495 Y161.469 E47.09003
G1 X116.883 Y161.899 E47.12734
G1 X116.09 Y162.327 E47.1723
G1 X116.029 Y162.355 E47.17565
G1 X115.334 Y162.63 E47.21294
G1 X114.613 Y162.83 E47.25027
G1 X113.794 Y162.959 E47.29163
G1 X106.036 Y163.722 E47.68055
G1 X105.333 Y163.756 E47.71566
G1 X104.647 Y163.722 E47.74993
G1 X96.894 Y162.958 E48.1386
G1 X96.154 Y162.845 E48.17595
G1 X95.431 Y162.654 E48.21325
G1 X94.488 Y162.272 E48.26401
G1 X94.423 Y162.24 E48.26763
G1 X93.771 Y161.874 E48.30493
G1 X93.161 Y161.441 E48.34225
G1 X92.372 Y160.709 E48.39595
