;FLAVOR:Marlin
;TIME:14431
;Filament used: 12.5865m
;Layer height: 0.2
;MINX:55.788
;MINY:44.123
;MINZ:0.3
;MAXX:154.212
;MAXY:165.877
;MAXZ:7.575
;Generated with Cura_SteamEngine 4.13.1
M82 ;absolute extrusion mode
G21                                        ; metric values 
G90                                        ; absolute positioning 
M82                                        ; set extruder to absolute mode 
M107                                       ; start with the fan off 
M140 S60.0           ; Start heating the bed 
G4 S60                                     ; wait 1 minute 
M104 S220.0         ; start heating the hot end 
M190 S60.0           ; wait for bed 
M109 S220.0         ; wait for hotend 
M300 S1000 P500                            ; BEEP heating done 
G28 X0 Y10 Z0                              ; move X/Y to min endstops 
M420 S1                                    ; Enable leveling 
M420 Z2.0                                  ; Set leveling fading height to 2 mm 
G0 Z0.15                                   ; lift nozzle a bit 
G92 E0                                     ; zero the extruded length 
G1 X50 E25 F500                            ; Extrude 25mm of filament in a 5cm line. 
G92 E0                                     ; zero the extruded length again 
G1 E-2 F500                                ; Retract a little 
G1 X120 F4000                              ; Quickly wipe away from the filament line`
G92 E0
G92 E0
G1 F2400 E-3
;LAYER_COUNT:37
;LAYER:0
M106 S76.5
M205 X10 Y10
G1 F600 Z0.375
G0 F6000 X58.88 Y63.374 Z0.375
M205 X8 Y8
;TYPE:SKIRT
G1 F600 Z0.3
G1 F2400 E0
G1 F1200 X75.988 Y49.335 E1.10412
G1 X76.623 Y48.866 E1.1435
G1 X77.448 Y48.388 E1.19107
G1 X77.492 Y48.366 E1.19352
G1 X78.215 Y48.05 E1.23289
G1 X79.073 Y47.78 E1.27776
G1 X92.643 Y44.359 E1.97596
G1 X93.418 Y44.205 E2.01538
G1 X94.377 Y44.124 E2.06339
G1 X94.422 Y44.123 E2.06564
G1 X95.211 Y44.145 E2.10502
G1 X96.14 Y44.275 E2.15182
G1 X110.968 Y47.271 E2.90654
G1 X111.733 Y47.467 E2.94594
G1 X112.474 Y47.739 E2.98532
G1 X113.185 Y48.084 E3.02474
G1 X113.772 Y48.442 E3.05905
G1 X113.839 Y48.487 E3.06307
G1 X114.471 Y48.96 E3.10246
G1 X115.053 Y49.494 E3.14186
G1 X115.577 Y50.085 E3.18127
G1 X116.038 Y50.723 E3.22054
G1 X120.953 Y58.315 E3.67175
G1 X122.699 Y53.28 E3.93762
G1 X122.995 Y52.548 E3.97701
G1 X123.364 Y51.85 E4.0164
G1 X123.801 Y51.192 E4.05581
G1 X124.303 Y50.582 E4.09523
G1 X124.863 Y50.026 E4.1346
G1 X125.587 Y49.452 E4.18069
G1 X125.691 Y49.379 E4.18703
G1 X126.359 Y48.958 E4.22642
G1 X127.067 Y48.608 E4.26583
G1 X127.806 Y48.33 E4.30522
G1 X128.57 Y48.129 E4.34463
G1 X129.35 Y48.006 E4.38403
G1 X130.172 Y47.963 E4.42509
G1 X146.294 Y47.963 E5.22942
G1 X147.083 Y48.003 E5.26883
G1 X147.863 Y48.122 E5.3082
G1 X148.628 Y48.32 E5.34762
G1 X149.368 Y48.594 E5.38699
G1 X150.077 Y48.942 E5.42639
G1 X150.748 Y49.36 E5.46584
G1 X151.372 Y49.843 E5.5052
G1 X151.833 Y50.271 E5.53659
G1 X151.951 Y50.39 E5.54495
G1 X152.478 Y50.978 E5.58434
G1 X152.942 Y51.616 E5.6237
G1 X153.34 Y52.299 E5.66314
G1 X153.667 Y53.018 E5.70254
G1 X153.919 Y53.766 E5.74192
G1 X154.095 Y54.536 E5.78133
G1 X154.192 Y55.319 E5.82069
G1 X154.212 Y55.965 E5.85294
G1 X154.153 Y61.507 E6.12944
G1 X154.104 Y62.295 E6.16883
G1 X153.976 Y63.075 E6.20827
G1 X153.77 Y63.837 E6.24765
G1 X153.488 Y64.574 E6.28702
G1 X153.133 Y65.28 E6.32644
G1 X152.709 Y65.946 E6.36583
G1 X152.219 Y66.565 E6.40522
G1 X151.845 Y66.963 E6.43246
G1 X151.728 Y67.079 E6.44068
G1 X151.14 Y67.606 E6.48008
G1 X150.897 Y67.783 E6.49508
G1 X151.33 Y68.118 E6.52239
G1 X151.782 Y68.539 E6.55321
G1 X151.899 Y68.657 E6.5615
G1 X152.426 Y69.245 E6.60089
G1 X152.891 Y69.884 E6.64032
G1 X153.288 Y70.566 E6.67969
G1 X153.615 Y71.285 E6.71909
G1 X153.868 Y72.033 E6.75849
G1 X154.043 Y72.803 E6.79788
G1 X154.14 Y73.587 E6.8373
G1 X154.16 Y74.163 E6.86605
G1 X154.107 Y102.843 E8.2969
G1 X154.066 Y103.632 E8.33632
G1 X153.945 Y104.412 E8.3757
G1 X153.745 Y105.177 E8.41515
G1 X153.47 Y105.917 E8.45453
G1 X153.121 Y106.625 E8.49392
G1 X152.702 Y107.295 E8.53334
G1 X152.218 Y107.918 E8.5727
G1 X151.822 Y108.344 E8.60172
G1 X151.705 Y108.461 E8.60997
G1 X151.119 Y108.991 E8.64939
G1 X150.877 Y109.168 E8.66435
G1 X151.281 Y109.481 E8.68985
G1 X151.736 Y109.905 E8.72087
G1 X151.853 Y110.023 E8.72916
G1 X152.38 Y110.611 E8.76856
G1 X152.845 Y111.25 E8.80799
G1 X153.242 Y111.932 E8.84736
G1 X153.569 Y112.651 E8.88676
G1 X153.822 Y113.399 E8.92616
G1 X153.997 Y114.169 E8.96555
G1 X154.094 Y114.953 E9.00496
G1 X154.114 Y115.556 E9.03506
G1 X154.082 Y121.662 E9.3397
G1 X154.011 Y140.544 E10.28173
G1 X153.968 Y141.333 E10.32115
G1 X153.846 Y142.113 E10.36054
G1 X153.645 Y142.877 E10.39995
G1 X153.239 Y143.899 E10.45482
G1 X153.2 Y143.98 E10.4593
G1 X152.822 Y144.673 E10.49869
G1 X152.375 Y145.324 E10.53808
G1 X151.865 Y145.927 E10.57748
G1 X151.12 Y146.626 E10.62845
G1 X134.012 Y160.665 E11.73257
G1 X133.377 Y161.134 E11.77195
G1 X132.552 Y161.612 E11.81952
G1 X132.508 Y161.634 E11.82197
G1 X131.785 Y161.95 E11.86134
G1 X130.927 Y162.22 E11.90622
G1 X117.357 Y165.641 E12.60441
G1 X116.582 Y165.795 E12.64383
G1 X115.623 Y165.876 E12.69184
G1 X115.578 Y165.877 E12.69409
G1 X114.789 Y165.855 E12.73347
G1 X113.86 Y165.725 E12.78027
G1 X99.032 Y162.729 E13.53499
G1 X98.267 Y162.533 E13.57439
G1 X97.526 Y162.261 E13.61377
G1 X96.815 Y161.916 E13.6532
G1 X96.228 Y161.558 E13.6875
G1 X96.161 Y161.513 E13.69152
G1 X95.529 Y161.04 E13.73091
G1 X94.947 Y160.506 E13.77031
G1 X94.423 Y159.915 E13.80972
G1 X93.962 Y159.277 E13.84899
G1 X89.047 Y151.685 E14.3002
G1 X87.301 Y156.72 E14.56607
G1 X87.005 Y157.452 E14.60547
G1 X86.636 Y158.15 E14.64486
G1 X86.199 Y158.808 E14.68426
G1 X85.697 Y159.418 E14.72368
G1 X85.137 Y159.974 E14.76305
G1 X84.413 Y160.548 E14.80914
G1 X84.309 Y160.621 E14.81548
G1 X83.641 Y161.042 E14.85487
G1 X82.933 Y161.392 E14.89428
G1 X82.194 Y161.67 E14.93367
G1 X81.43 Y161.871 E14.97308
G1 X80.65 Y161.994 E15.01248
G1 X79.828 Y162.037 E15.05354
G1 X63.706 Y162.037 E15.85787
G1 X62.917 Y161.997 E15.89729
G1 X62.137 Y161.878 E15.93665
G1 X61.372 Y161.68 E15.97607
G1 X60.632 Y161.406 E16.01544
G1 X59.923 Y161.058 E16.05485
G1 X59.252 Y160.64 E16.09429
G1 X58.628 Y160.157 E16.13365
G1 X58.167 Y159.729 E16.16504
G1 X58.049 Y159.61 E16.1734
G1 X57.522 Y159.022 E16.21279
G1 X57.058 Y158.384 E16.25215
G1 X56.66 Y157.701 E16.29159
G1 X56.333 Y156.982 E16.33099
G1 X56.081 Y156.234 E16.37037
G1 X55.905 Y155.464 E16.40978
G1 X55.808 Y154.681 E16.44914
G1 X55.788 Y154.035 E16.48139
G1 X55.847 Y148.493 E16.75789
G1 X55.896 Y147.705 E16.79728
G1 X56.024 Y146.925 E16.83672
G1 X56.23 Y146.163 E16.8761
G1 X56.512 Y145.426 E16.91547
G1 X56.867 Y144.72 E16.95489
G1 X57.291 Y144.054 E16.99428
G1 X57.781 Y143.435 E17.03367
G1 X58.155 Y143.037 E17.06092
G1 X58.272 Y142.921 E17.06914
G1 X58.86 Y142.394 E17.10853
G1 X59.103 Y142.217 E17.12353
G1 X58.67 Y141.882 E17.15084
G1 X58.218 Y141.461 E17.18166
G1 X58.101 Y141.343 E17.18995
G1 X57.574 Y140.755 E17.22934
G1 X57.109 Y140.116 E17.26877
G1 X56.712 Y139.434 E17.30814
G1 X56.385 Y138.715 E17.34755
G1 X56.132 Y137.967 E17.38694
G1 X55.957 Y137.197 E17.42634
G1 X55.86 Y136.413 E17.46575
G1 X55.84 Y135.837 E17.4945
G1 X55.893 Y107.157 E18.92536
G1 X55.934 Y106.368 E18.96477
G1 X56.055 Y105.588 E19.00415
G1 X56.255 Y104.823 E19.0436
G1 X56.53 Y104.083 E19.08299
G1 X56.879 Y103.375 E19.12237
G1 X57.298 Y102.705 E19.16179
G1 X57.782 Y102.082 E19.20115
G1 X58.178 Y101.656 E19.23017
G1 X58.295 Y101.539 E19.23842
G1 X58.881 Y101.009 E19.27784
G1 X59.123 Y100.832 E19.2928
G1 X58.719 Y100.519 E19.3183
G1 X58.264 Y100.095 E19.34933
G1 X58.147 Y99.977 E19.35762
G1 X57.62 Y99.389 E19.39701
G1 X57.155 Y98.75 E19.43644
G1 X56.758 Y98.068 E19.47581
G1 X56.431 Y97.349 E19.51521
G1 X56.178 Y96.601 E19.55461
G1 X56.003 Y95.831 E19.594
G1 X55.906 Y95.047 E19.63342
G1 X55.886 Y94.444 E19.66352
G1 X55.918 Y88.338 E19.96815
G1 X55.989 Y69.456 E20.91018
G1 X56.032 Y68.667 E20.9496
G1 X56.154 Y67.887 E20.98899
G1 X56.355 Y67.123 E21.02841
G1 X56.761 Y66.101 E21.08327
G1 X56.8 Y66.02 E21.08775
G1 X57.178 Y65.327 E21.12714
G1 X57.625 Y64.676 E21.16653
G1 X58.135 Y64.073 E21.20594
G1 X58.88 Y63.374 E21.2569
M205 X10 Y10
G0 F6000 X59.134 Y63.684
M205 X8 Y8
G1 F1200 X76.242 Y49.645 E22.36102
G1 X76.861 Y49.188 E22.3994
G1 X77.627 Y48.746 E22.44353
G1 X77.671 Y48.724 E22.44598
G1 X78.376 Y48.416 E22.48436
G1 X79.171 Y48.168 E22.52591
G1 X92.741 Y44.747 E23.2241
G1 X93.496 Y44.597 E23.26251
G1 X94.386 Y44.524 E23.30706
G1 X94.431 Y44.523 E23.3093
G1 X95.199 Y44.546 E23.34764
G1 X96.061 Y44.668 E23.39107
G1 X110.889 Y47.664 E24.14579
G1 X111.634 Y47.855 E24.18416
G1 X112.355 Y48.122 E24.22252
G1 X113.044 Y48.463 E24.26087
G1 X113.549 Y48.774 E24.29046
G1 X113.616 Y48.819 E24.29449
G1 X114.231 Y49.28 E24.33284
G1 X114.795 Y49.803 E24.37121
G1 X115.302 Y50.382 E24.40961
G1 X115.702 Y50.941 E24.4439
G1 X121.062 Y59.221 E24.93599
G1 X123.077 Y53.411 E25.24279
G1 X123.366 Y52.699 E25.28112
G1 X123.728 Y52.02 E25.31951
G1 X124.158 Y51.382 E25.3579
G1 X124.652 Y50.793 E25.39625
G1 X125.205 Y50.258 E25.43464
G1 X125.817 Y49.779 E25.47341
G1 X125.921 Y49.706 E25.47975
G1 X126.572 Y49.298 E25.51808
G1 X127.263 Y48.959 E25.55648
G1 X127.985 Y48.694 E25.59485
G1 X128.73 Y48.505 E25.6332
G1 X129.492 Y48.394 E25.67161
G1 X130.172 Y48.363 E25.70557
G1 X146.294 Y48.363 E26.5099
G1 X147.062 Y48.403 E26.54827
G1 X147.822 Y48.522 E26.58665
G1 X148.565 Y48.72 E26.62501
G1 X149.284 Y48.994 E26.6634
G1 X149.97 Y49.341 E26.70175
G1 X150.617 Y49.757 E26.74013
G1 X151.217 Y50.238 E26.77849
G1 X151.667 Y50.672 E26.80968
G1 X152.179 Y51.245 E26.84802
G1 X152.629 Y51.869 E26.8864
G1 X153.012 Y52.536 E26.92478
G1 X153.324 Y53.239 E26.96315
G1 X153.561 Y53.971 E27.00153
G1 X153.721 Y54.723 E27.03989
G1 X153.802 Y55.488 E27.07827
G1 X153.812 Y55.961 E27.10187
G1 X153.753 Y61.503 E27.37838
G1 X153.704 Y62.27 E27.41673
G1 X153.577 Y63.029 E27.45512
G1 X153.371 Y63.77 E27.49349
G1 X153.09 Y64.486 E27.53186
G1 X152.736 Y65.169 E27.57024
G1 X152.312 Y65.811 E27.60863
G1 X151.563 Y66.679 E27.66583
G1 X151.446 Y66.795 E27.67405
G1 X150.872 Y67.307 E27.71242
G1 X150.249 Y67.758 E27.75079
G1 X150.197 Y67.788 E27.75379
G1 X150.575 Y68.031 E27.7762
G1 X151.174 Y68.513 E27.81456
G1 X151.615 Y68.939 E27.84515
G1 X152.127 Y69.512 E27.88349
G1 X152.577 Y70.136 E27.92187
G1 X152.96 Y70.803 E27.96024
G1 X153.272 Y71.506 E27.99862
G1 X153.509 Y72.238 E28.037
G1 X153.669 Y72.99 E28.07536
G1 X153.75 Y73.755 E28.11374
G1 X153.76 Y74.163 E28.1341
G1 X153.707 Y102.843 E29.56495
G1 X153.666 Y103.611 E29.60332
G1 X153.545 Y104.37 E29.64167
G1 X153.346 Y105.113 E29.68004
G1 X153.07 Y105.832 E29.71847
G1 X152.722 Y106.517 E29.7568
G1 X152.305 Y107.163 E29.79516
G1 X151.822 Y107.762 E29.83355
G1 X151.423 Y108.179 E29.86234
G1 X150.851 Y108.693 E29.90071
G1 X150.229 Y109.146 E29.9391
G1 X150.182 Y109.173 E29.9418
G1 X150.526 Y109.395 E29.96223
G1 X151.125 Y109.877 E30.00059
G1 X151.569 Y110.305 E30.03135
G1 X152.081 Y110.878 E30.06969
G1 X152.531 Y111.502 E30.10807
G1 X152.914 Y112.169 E30.14644
G1 X153.226 Y112.872 E30.18482
G1 X153.463 Y113.604 E30.2232
G1 X153.623 Y114.356 E30.26156
G1 X153.704 Y115.121 E30.29994
G1 X153.714 Y115.554 E30.32155
G1 X153.682 Y121.66 E30.62618
G1 X153.611 Y140.543 E31.56826
G1 X153.568 Y141.311 E31.60664
G1 X153.446 Y142.07 E31.64499
G1 X153.245 Y142.813 E31.68339
G1 X152.878 Y143.725 E31.73244
G1 X152.839 Y143.806 E31.73692
G1 X152.47 Y144.481 E31.7753
G1 X152.033 Y145.114 E31.81368
G1 X151.532 Y145.698 E31.85207
G1 X150.866 Y146.316 E31.8974
G1 X133.758 Y160.355 E33.00151
G1 X133.139 Y160.812 E33.0399
G1 X132.373 Y161.254 E33.08402
G1 X132.329 Y161.276 E33.08647
G1 X131.624 Y161.584 E33.12486
G1 X130.829 Y161.832 E33.1664
G1 X117.259 Y165.253 E33.8646
G1 X116.504 Y165.403 E33.903
G1 X115.614 Y165.476 E33.94755
G1 X115.569 Y165.477 E33.9498
G1 X114.801 Y165.454 E33.98813
G1 X113.939 Y165.332 E34.03156
G1 X99.111 Y162.336 E34.78628
G1 X98.366 Y162.145 E34.82465
G1 X97.645 Y161.878 E34.86301
G1 X96.956 Y161.537 E34.90137
G1 X96.451 Y161.226 E34.93096
G1 X96.384 Y161.181 E34.93498
G1 X95.769 Y160.72 E34.97333
G1 X95.205 Y160.197 E35.0117
G1 X94.698 Y159.618 E35.0501
G1 X94.298 Y159.059 E35.08439
G1 X88.938 Y150.779 E35.57648
G1 X86.923 Y156.589 E35.88328
G1 X86.634 Y157.301 E35.92162
G1 X86.272 Y157.98 E35.96001
G1 X85.842 Y158.618 E35.99839
G1 X85.348 Y159.207 E36.03674
G1 X84.795 Y159.742 E36.07513
G1 X84.183 Y160.221 E36.1139
G1 X84.079 Y160.294 E36.12024
G1 X83.428 Y160.702 E36.15857
G1 X82.737 Y161.041 E36.19697
G1 X82.015 Y161.306 E36.23534
G1 X81.27 Y161.495 E36.27369
G1 X80.508 Y161.606 E36.31211
G1 X79.828 Y161.637 E36.34607
G1 X63.706 Y161.637 E37.1504
G1 X62.938 Y161.597 E37.18876
G1 X62.178 Y161.478 E37.22714
G1 X61.435 Y161.28 E37.2655
G1 X60.716 Y161.006 E37.30389
G1 X60.03 Y160.659 E37.34225
G1 X59.383 Y160.243 E37.38062
G1 X58.783 Y159.762 E37.41899
G1 X58.333 Y159.328 E37.45018
G1 X57.821 Y158.755 E37.48851
G1 X57.371 Y158.131 E37.5269
G1 X56.988 Y157.464 E37.56527
G1 X56.676 Y156.761 E37.60364
G1 X56.439 Y156.029 E37.64203
G1 X56.279 Y155.277 E37.68038
G1 X56.198 Y154.512 E37.71876
G1 X56.188 Y154.039 E37.74237
G1 X56.247 Y148.497 E38.01887
G1 X56.296 Y147.73 E38.05722
G1 X56.423 Y146.971 E38.09561
G1 X56.629 Y146.23 E38.13398
G1 X56.91 Y145.514 E38.17236
G1 X57.264 Y144.831 E38.21074
G1 X57.688 Y144.189 E38.24912
G1 X58.437 Y143.321 E38.30632
G1 X58.554 Y143.205 E38.31454
G1 X59.128 Y142.693 E38.35291
G1 X59.751 Y142.242 E38.39128
G1 X59.803 Y142.212 E38.39428
G1 X59.425 Y141.969 E38.4167
G1 X58.826 Y141.487 E38.45505
G1 X58.385 Y141.061 E38.48565
G1 X57.873 Y140.488 E38.52398
G1 X57.423 Y139.864 E38.56236
G1 X57.04 Y139.197 E38.60074
G1 X56.728 Y138.494 E38.63911
G1 X56.491 Y137.762 E38.67749
G1 X56.331 Y137.01 E38.71585
G1 X56.25 Y136.245 E38.75423
G1 X56.24 Y135.837 E38.77459
G1 X56.293 Y107.157 E40.20545
G1 X56.334 Y106.389 E40.24382
G1 X56.455 Y105.63 E40.28216
G1 X56.654 Y104.887 E40.32054
G1 X56.93 Y104.168 E40.35896
G1 X57.278 Y103.483 E40.39729
G1 X57.695 Y102.837 E40.43565
G1 X58.178 Y102.238 E40.47404
G1 X58.577 Y101.821 E40.50283
G1 X59.149 Y101.307 E40.5412
G1 X59.771 Y100.854 E40.57959
G1 X59.818 Y100.827 E40.58229
G1 X59.474 Y100.605 E40.60272
G1 X58.875 Y100.123 E40.64108
G1 X58.431 Y99.695 E40.67185
G1 X57.919 Y99.122 E40.71018
G1 X57.469 Y98.498 E40.74856
G1 X57.086 Y97.831 E40.78694
G1 X56.774 Y97.128 E40.82531
G1 X56.537 Y96.396 E40.86369
G1 X56.377 Y95.644 E40.90205
G1 X56.296 Y94.879 E40.94043
G1 X56.286 Y94.446 E40.96204
G1 X56.318 Y88.34 E41.26667
G1 X56.389 Y69.457 E42.20876
G1 X56.432 Y68.689 E42.24713
G1 X56.554 Y67.93 E42.28548
G1 X56.755 Y67.187 E42.32389
G1 X57.122 Y66.275 E42.37293
G1 X57.161 Y66.194 E42.37742
G1 X57.53 Y65.519 E42.4158
G1 X57.967 Y64.886 E42.45417
G1 X58.468 Y64.302 E42.49256
G1 X59.134 Y63.684 E42.53789
M205 X10 Y10
G0 F6000 X59.387 Y63.993
M205 X8 Y8
G1 F1200 X76.495 Y49.954 E43.642
G1 X77.098 Y49.511 E43.67933
G1 X77.806 Y49.104 E43.72008
G1 X77.85 Y49.082 E43.72253
G1 X78.536 Y48.784 E43.75984
G1 X79.269 Y48.555 E43.79816
G1 X92.839 Y45.134 E44.49635
G1 X93.573 Y44.991 E44.53366
G1 X94.394 Y44.924 E44.57475
G1 X94.439 Y44.923 E44.577
G1 X95.187 Y44.946 E44.61433
G1 X95.981 Y45.06 E44.65435
G1 X110.809 Y48.056 E45.40907
G1 X111.534 Y48.243 E45.44643
G1 X112.234 Y48.506 E45.48374
G1 X112.902 Y48.843 E45.52106
G1 X113.393 Y49.151 E45.54998
G1 X113.991 Y49.601 E45.58732
G1 X114.537 Y50.112 E45.62463
G1 X115.026 Y50.678 E45.66194
