;FLAVOR:Marlin
;TIME:4624
;Filament used: 2.65478m
;Layer height: 0.2
;MINX:81.878
;MINY:69.543
;MINZ:0.3
;MAXX:128.296
;MAXY:141.441
;MAXZ:23.375
;Generated with Cura_SteamEngine 4.13.1
M82 ;absolute extrusion mode
G21                                        ; metric values 
G90                                        ; absolute positioning 
M82                                        ; set extruder to absolute mode 
M107                                       ; start with the fan off 
M140 S60           ; Start heating the bed 
G4 S60                                     ; wait 1 minute 
M104 S210         ; start heating the hot end 
M190 S60           ; wait for bed 
M109 S210         ; wait for hotend 
M300 S1000 P500                            ; BEEP heating done 
G28 X0 Y10 Z0                              ; move X/Y to min endstops 
M420 S1                                    ; Enable leveling 
M420 Z2.0                                  ; Set leveling fading height to 2 mm 
G0 Z0.15                                   ; lift nozzle a bit 
G92 E0                                     ; zero the extruded length 
G1 X50 E25 F500                            ; Extrude 25mm of filament in a 5cm line. 
G92 E0                                     ; zero the extruded length again 
G1 E-2 F500                                ; Retract a little 
G1 X120 F4000                              ; Quickly wipe away from the filament line`
G92 E0
G92 E0
G1 F1500 E-6
;LAYER_COUNT:116
;LAYER:0
M106 S76.5
M205 X10 Y10
G1 F600 Z0.375
G0 F6000 X85.316 Y73.591 Z0.375
M205 X8 Y8
;TYPE:SKIRT
G1 F600 Z0.3
G1 F1500 E0
G1 F1200 X85.933 Y72.958 E0.0441
G1 X86.46 Y72.503 E0.07884
G1 X86.598 Y72.389 E0.08777
G1 X87.104 Y71.984 E0.1201
G1 X87.686 Y71.569 E0.15576
G1 X88.022 Y71.372 E0.1752
G1 X88.794 Y70.949 E0.21911
G1 X89.218 Y70.729 E0.24294
G1 X89.871 Y70.436 E0.27865
G1 X90.214 Y70.315 E0.2968
G1 X90.851 Y70.111 E0.33017
G1 X91.046 Y70.052 E0.34033
G1 X91.561 Y69.905 E0.36705
G1 X92.438 Y69.72 E0.41177
G1 X93.145 Y69.636 E0.44729
G1 X93.304 Y69.62 E0.45526
G1 X93.958 Y69.564 E0.48801
G1 X94.673 Y69.543 E0.5237
G1 X95.044 Y69.564 E0.54223
G1 X95.803 Y69.629 E0.58024
G1 X96.386 Y69.678 E0.60943
G1 X97.886 Y69.824 E0.68462
G1 X100.525 Y70.006 E0.81659
G1 X103.172 Y70.115 E0.94876
G1 X105.845 Y70.148 E1.08213
G1 X108.457 Y70.107 E1.21246
G1 X111.106 Y69.99 E1.34475
G1 X113.646 Y69.808 E1.47179
G1 X114.523 Y69.734 E1.5157
G1 X115.238 Y69.713 E1.55139
G1 X115.607 Y69.734 E1.56983
G1 X116.204 Y69.785 E1.59972
G1 X116.38 Y69.803 E1.60855
G1 X116.962 Y69.869 E1.63777
G1 X117.667 Y69.989 E1.67345
G1 X118.036 Y70.085 E1.69247
G1 X118.824 Y70.317 E1.73345
G1 X119.293 Y70.465 E1.75799
G1 X119.962 Y70.718 E1.79367
G1 X120.301 Y70.88 E1.81242
G1 X120.933 Y71.206 E1.84789
G1 X121.527 Y71.531 E1.88167
G1 X122.133 Y71.911 E1.91736
G1 X122.424 Y72.13 E1.93553
G1 X122.916 Y72.522 E1.96691
G1 X123.069 Y72.647 E1.97677
G1 X123.505 Y73.017 E2.0053
G1 X124.128 Y73.623 E2.04866
G1 X124.574 Y74.141 E2.08276
G1 X124.702 Y74.298 E2.09287
G1 X125.125 Y74.83 E2.12678
G1 X125.657 Y75.61 E2.17388
G1 X126.004 Y76.233 E2.20946
G1 X126.108 Y76.431 E2.22062
G1 X126.353 Y76.917 E2.24777
G1 X126.715 Y77.79 E2.29492
G1 X126.986 Y78.61 E2.33801
G1 X127.155 Y79.173 E2.36733
G1 X127.319 Y79.869 E2.40301
G1 X127.376 Y80.257 E2.42257
G1 X127.453 Y80.93 E2.45637
G1 X127.471 Y81.119 E2.46584
G1 X127.515 Y81.641 E2.49198
G1 X127.527 Y82.548 E2.53723
G1 X127.446 Y83.958 E2.60769
G1 X127.421 Y84.316 E2.6256
G1 X127.311 Y86.935 E2.75637
G1 X127.275 Y89.575 E2.8881
G1 X127.315 Y92.221 E3.02012
G1 X127.428 Y94.861 E3.15195
G1 X127.617 Y97.522 E3.28504
G1 X127.882 Y100.162 E3.41742
G1 X128.111 Y101.992 E3.50943
G1 X128.198 Y102.774 E3.54868
G1 X128.274 Y103.637 E3.5919
G1 X128.296 Y104.352 E3.62759
G1 X128.275 Y104.728 E3.64638
G1 X128.209 Y105.508 E3.68543
G1 X128.19 Y105.699 E3.69501
G1 X128.115 Y106.351 E3.72775
G1 X128.092 Y106.533 E3.7369
G1 X128.006 Y107.13 E3.767
G1 X127.663 Y109.779 E3.90026
G1 X127.399 Y112.381 E4.03074
G1 X127.208 Y115.015 E4.16249
G1 X127.089 Y117.69 E4.29608
G1 X127.048 Y120.297 E4.42616
G1 X127.081 Y122.975 E4.55978
G1 X127.188 Y125.613 E4.6915
G1 X127.354 Y128.016 E4.81167
G1 X127.369 Y128.272 E4.82446
G1 X127.368 Y129.04 E4.86278
G1 X127.309 Y129.765 E4.89907
G1 X127.288 Y129.964 E4.90905
G1 X127.207 Y130.646 E4.94332
G1 X127 Y131.669 E4.99539
G1 X126.768 Y132.471 E5.03704
G1 X126.581 Y133.061 E5.06792
G1 X126.169 Y134.047 E5.12123
G1 X125.878 Y134.607 E5.15272
G1 X125.791 Y134.769 E5.16189
G1 X125.492 Y135.306 E5.19256
G1 X125.067 Y135.97 E5.23189
G1 X124.816 Y136.303 E5.25269
G1 X124.469 Y136.738 E5.28045
G1 X124.349 Y136.884 E5.28988
G1 X123.983 Y137.316 E5.31813
G1 X123.225 Y138.072 E5.37154
G1 X122.766 Y138.459 E5.40149
G1 X122.627 Y138.573 E5.41046
G1 X122.117 Y138.979 E5.44298
G1 X121.235 Y139.569 E5.49592
G1 X120.732 Y139.848 E5.52462
G1 X120.579 Y139.93 E5.53328
G1 X119.992 Y140.235 E5.56628
G1 X119.667 Y140.392 E5.58429
G1 X118.965 Y140.663 E5.62183
G1 X118.373 Y140.852 E5.65284
G1 X118.189 Y140.908 E5.66243
G1 X117.571 Y141.085 E5.6945
G1 X116.526 Y141.292 E5.74765
G1 X115.914 Y141.361 E5.77838
G1 X115.725 Y141.379 E5.78785
G1 X115.097 Y141.431 E5.81929
G1 X114.179 Y141.441 E5.86509
G1 X113.478 Y141.388 E5.90016
G1 X113.041 Y141.347 E5.92206
G1 X110.38 Y141.133 E6.05525
G1 X107.734 Y140.994 E6.18744
G1 X105.096 Y140.931 E6.31909
G1 X102.454 Y140.943 E6.4509
G1 X99.806 Y141.03 E6.58308
G1 X95.98 Y141.286 E6.77439
G1 X95.254 Y141.349 E6.81074
G1 X94.539 Y141.371 E6.84643
G1 X94.17 Y141.351 E6.86487
G1 X93.516 Y141.297 E6.89761
G1 X93.328 Y141.279 E6.90703
G1 X92.723 Y141.211 E6.9374
G1 X92.018 Y141.091 E6.97308
G1 X91.644 Y140.994 E6.99236
G1 X90.814 Y140.75 E7.03552
G1 X90.292 Y140.585 E7.06283
G1 X89.576 Y140.311 E7.10108
G1 X88.791 Y139.929 E7.14463
G1 X88.149 Y139.595 E7.18074
G1 X87.534 Y139.23 E7.21642
G1 X87.039 Y138.861 E7.24722
G1 X86.458 Y138.383 E7.28476
G1 X86.244 Y138.199 E7.29884
G1 X85.846 Y137.841 E7.32554
G1 X85.222 Y137.195 E7.37035
G1 X84.76 Y136.642 E7.4063
G1 X84.369 Y136.157 E7.43738
G1 X83.951 Y135.576 E7.47309
G1 X83.751 Y135.239 E7.49264
G1 X83.388 Y134.583 E7.53005
G1 X83.285 Y134.389 E7.54101
G1 X83.043 Y133.914 E7.5676
G1 X82.699 Y133.106 E7.61141
G1 X82.467 Y132.39 E7.64896
G1 X82.42 Y132.237 E7.65695
G1 X82.234 Y131.593 E7.69039
G1 X82.075 Y130.896 E7.72606
G1 X82.021 Y130.511 E7.74545
G1 X81.915 Y129.539 E7.79424
G1 X81.878 Y129.099 E7.81626
G1 X81.88 Y128.133 E7.86446
G1 X81.951 Y127.218 E7.91025
G1 X82.01 Y126.664 E7.93804
G1 X82.267 Y124.037 E8.06973
G1 X82.45 Y121.425 E8.20036
G1 X82.561 Y118.722 E8.33533
G1 X82.595 Y116.097 E8.4663
G1 X82.555 Y113.473 E8.59723
G1 X82.437 Y110.789 E8.73126
G1 X82.248 Y108.17 E8.86226
G1 X82.121 Y106.875 E8.92718
G1 X82.048 Y106.095 E8.96627
G1 X81.988 Y105.36 E9.00306
G1 X81.978 Y104.47 E9.04746
G1 X82.026 Y103.818 E9.08008
G1 X82.314 Y100.801 E9.23128
G1 X82.494 Y98.125 E9.36509
G1 X82.596 Y95.521 E9.4951
G1 X82.624 Y92.832 E9.62927
G1 X82.578 Y90.2 E9.7606
G1 X82.457 Y87.56 E9.89245
G1 X82.262 Y84.938 E10.02362
G1 X82.154 Y83.852 E10.07807
G1 X82.108 Y83.33 E10.10421
G1 X82.042 Y82.557 E10.14292
G1 X82.023 Y81.842 E10.1786
G1 X82.044 Y81.474 E10.19699
G1 X82.093 Y80.904 E10.22553
G1 X82.11 Y80.731 E10.2342
G1 X82.18 Y80.114 E10.26518
G1 X82.34 Y79.245 E10.30927
G1 X82.536 Y78.545 E10.34553
G1 X82.586 Y78.38 E10.35413
G1 X82.779 Y77.772 E10.38596
G1 X83.106 Y76.945 E10.43033
G1 X83.462 Y76.239 E10.46977
G1 X83.562 Y76.054 E10.48027
G1 X83.856 Y75.527 E10.51037
G1 X84.344 Y74.78 E10.55489
G1 X84.797 Y74.208 E10.59129
G1 X84.905 Y74.076 E10.5998
G1 X85.316 Y73.591 E10.63152
M205 X10 Y10
G0 F6000 X85.622 Y73.85
M205 X8 Y8
G1 F1200 X86.199 Y73.257 E10.6728
G1 X86.718 Y72.808 E10.70703
G1 X87.354 Y72.297 E10.74774
G1 X88.214 Y71.722 E10.79935
G1 X88.853 Y71.371 E10.83572
G1 X89.403 Y71.084 E10.86667
G1 X90.336 Y70.696 E10.91708
G1 X90.973 Y70.492 E10.95045
G1 X91.156 Y70.436 E10.96
G1 X91.671 Y70.289 E10.98672
G1 X92.493 Y70.116 E11.02863
G1 X93.189 Y70.034 E11.06359
G1 X93.338 Y70.019 E11.07106
G1 X93.992 Y69.963 E11.10381
G1 X95.01 Y69.962 E11.1546
G1 X95.765 Y70.027 E11.19241
G1 X96.347 Y70.076 E11.22155
G1 X97.856 Y70.223 E11.29719
G1 X100.515 Y70.407 E11.43016
G1 X103.151 Y70.515 E11.56178
G1 X105.846 Y70.548 E11.69625
G1 X108.479 Y70.506 E11.82762
G1 X111.116 Y70.391 E11.95931
G1 X113.641 Y70.209 E12.08561
G1 X114.556 Y70.132 E12.13142
G1 X115.573 Y70.133 E12.18216
G1 X116.17 Y70.184 E12.21205
G1 X116.335 Y70.2 E12.22032
G1 X116.917 Y70.266 E12.24954
G1 X117.924 Y70.469 E12.30079
G1 X118.704 Y70.698 E12.34135
G1 X119.173 Y70.846 E12.36589
G1 X120.118 Y71.236 E12.41689
G1 X120.75 Y71.562 E12.45237
G1 X121.334 Y71.881 E12.48557
G1 X122.175 Y72.442 E12.536
G1 X122.667 Y72.834 E12.56739
G1 X122.81 Y72.952 E12.57664
G1 X123.246 Y73.322 E12.60517
G1 X123.83 Y73.89 E12.64581
G1 X124.269 Y74.4 E12.67938
G1 X124.389 Y74.547 E12.68885
G1 X124.812 Y75.079 E12.72276
G1 X125.311 Y75.811 E12.76696
G1 X125.653 Y76.426 E12.80206
G1 X125.751 Y76.611 E12.81251
G1 X125.996 Y77.097 E12.83966
G1 X126.335 Y77.915 E12.88384
G1 X126.606 Y78.735 E12.92692
G1 X126.772 Y79.286 E12.95563
G1 X126.978 Y80.302 E13.00735
G1 X127.055 Y80.975 E13.04115
G1 X127.073 Y81.153 E13.05008
G1 X127.117 Y81.675 E13.07621
G1 X127.128 Y82.525 E13.11862
G1 X127.046 Y83.93 E13.18884
G1 X127.025 Y84.235 E13.20409
G1 X126.911 Y86.948 E13.33956
G1 X126.875 Y89.576 E13.47068
G1 X126.914 Y92.208 E13.60201
G1 X127.03 Y94.908 E13.73684
G1 X127.218 Y97.555 E13.86923
G1 X127.485 Y100.213 E14.0025
G1 X127.713 Y102.037 E14.09421
G1 X127.815 Y102.966 E14.14084
G1 X127.876 Y103.672 E14.17619
G1 X127.877 Y104.694 E14.22718
G1 X127.811 Y105.474 E14.26623
G1 X127.793 Y105.654 E14.27526
G1 X127.718 Y106.306 E14.308
G1 X127.696 Y106.475 E14.3165
G1 X127.61 Y107.072 E14.3466
G1 X127.266 Y109.723 E14.47996
G1 X127.001 Y112.345 E14.61144
G1 X126.807 Y115.004 E14.74445
G1 X126.69 Y117.666 E14.87739
G1 X126.648 Y120.296 E15.00862
G1 X126.681 Y122.996 E15.14333
G1 X126.788 Y125.62 E15.27435
G1 X126.955 Y128.039 E15.39532
G1 X126.97 Y128.295 E15.40812
G1 X126.969 Y129.016 E15.44409
G1 X126.91 Y129.73 E15.47983
G1 X126.891 Y129.917 E15.48921
G1 X126.81 Y130.599 E15.52347
G1 X126.616 Y131.558 E15.57229
G1 X126.384 Y132.36 E15.61394
G1 X126.2 Y132.938 E15.6442
G1 X125.814 Y133.863 E15.69421
G1 X125.523 Y134.423 E15.72569
G1 X125.441 Y134.575 E15.73431
G1 X125.142 Y135.112 E15.76497
G1 X124.744 Y135.734 E15.80181
G1 X124.503 Y136.054 E15.8218
G1 X124.156 Y136.489 E15.84956
G1 X124.044 Y136.626 E15.85839
G1 X123.678 Y137.058 E15.88664
G1 X122.968 Y137.766 E15.93666
G1 X122.509 Y138.153 E15.96661
G1 X122.378 Y138.26 E15.97505
G1 X121.868 Y138.666 E16.00757
G1 X121.041 Y139.219 E16.05721
G1 X120.538 Y139.498 E16.0859
G1 X120.394 Y139.575 E16.09405
G1 X119.807 Y139.88 E16.12705
G1 X119.502 Y140.028 E16.14397
G1 X118.844 Y140.282 E16.17916
G1 X118.252 Y140.471 E16.21016
G1 X118.079 Y140.523 E16.21917
G1 X117.461 Y140.7 E16.25124
G1 X116.481 Y140.894 E16.30108
G1 X115.869 Y140.963 E16.33181
G1 X115.692 Y140.981 E16.34069
G1 X115.064 Y141.033 E16.37213
G1 X114.204 Y141.042 E16.41503
G1 X113.511 Y140.989 E16.44971
G1 X113.112 Y140.952 E16.4697
G1 X110.397 Y140.733 E16.60559
G1 X107.729 Y140.594 E16.73888
G1 X105.104 Y140.531 E16.86988
G1 X102.438 Y140.543 E17.00289
G1 X99.796 Y140.63 E17.13477
G1 X95.919 Y140.889 E17.32862
G1 X95.219 Y140.95 E17.36368
G1 X94.203 Y140.953 E17.41437
G1 X93.549 Y140.899 E17.44711
G1 X92.768 Y140.813 E17.48631
G1 X91.756 Y140.61 E17.5378
G1 X90.935 Y140.369 E17.58049
G1 X90.413 Y140.204 E17.6078
G1 X89.741 Y139.947 E17.6437
G1 X88.97 Y139.571 E17.68649
G1 X88.334 Y139.241 E17.72224
G1 X87.739 Y138.886 E17.75681
G1 X87.293 Y138.552 E17.78461
G1 X86.712 Y138.074 E17.82214
G1 X86.511 Y137.902 E17.83534
G1 X86.113 Y137.544 E17.86205
G1 X85.528 Y136.938 E17.90407
G1 X85.071 Y136.391 E17.93963
G1 X84.68 Y135.906 E17.97071
G1 X84.101 Y135.045 E18.02248
G1 X83.738 Y134.389 E18.05988
G1 X83.642 Y134.208 E18.0701
G1 X83.4 Y133.733 E18.0967
G1 X83.077 Y132.975 E18.1378
G1 X82.848 Y132.269 E18.17483
G1 X82.619 Y131.482 E18.21573
G1 X82.418 Y130.467 E18.26735
G1 X82.312 Y129.495 E18.31613
G1 X82.277 Y129.069 E18.33745
G1 X82.279 Y128.164 E18.3826
G1 X82.35 Y127.249 E18.42839
G1 X82.402 Y126.759 E18.45297
G1 X82.666 Y124.071 E18.58772
G1 X82.85 Y121.435 E18.71955
G1 X82.96 Y118.743 E18.85397
G1 X82.995 Y116.097 E18.98599
G1 X82.954 Y113.449 E19.11812
G1 X82.839 Y110.817 E19.24955
G1 X82.643 Y108.1 E19.38546
G1 X82.519 Y106.838 E19.44872
G1 X82.447 Y106.062 E19.4876
G1 X82.387 Y105.327 E19.52439
G1 X82.377 Y104.493 E19.56601
G1 X82.425 Y103.852 E19.59808
G1 X82.717 Y100.794 E19.75133
G1 X82.893 Y98.167 E19.88269
G1 X82.996 Y95.541 E20.0138
G1 X83.024 Y92.832 E20.14896
G1 X82.979 Y90.211 E20.27974
G1 X82.855 Y87.513 E20.41449
G1 X82.66 Y84.905 E20.54497
G1 X82.552 Y83.812 E20.59976
G1 X82.506 Y83.291 E20.62585
G1 X82.441 Y82.523 E20.66431
G1 X82.442 Y81.508 E20.71495
G1 X82.491 Y80.938 E20.74349
G1 X82.507 Y80.776 E20.75161
G1 X82.577 Y80.159 E20.78259
G1 X82.727 Y79.345 E20.82388
G1 X82.92 Y78.656 E20.85958
G1 X82.967 Y78.501 E20.86766
G1 X83.16 Y77.893 E20.89949
G1 X83.467 Y77.118 E20.94107
G1 X83.818 Y76.423 E20.97992
G1 X83.911 Y76.249 E20.98976
G1 X84.205 Y75.722 E21.01987
G1 X84.662 Y75.022 E21.06158
G1 X85.109 Y74.458 E21.09748
G1 X85.622 Y73.85 E21.13717
M205 X10 Y10
G0 F6000 X85.927 Y74.109
M205 X8 Y8
G1 F1200 X86.466 Y73.555 E21.17573
G1 X86.977 Y73.113 E21.20944
G1 X87.604 Y72.609 E21.24957
G1 X88.407 Y72.073 E21.29774
G1 X89.163 Y71.659 E21.34074
G1 X89.587 Y71.439 E21.36457
G1 X90.458 Y71.077 E21.41163
G1 X91.095 Y70.873 E21.445
G1 X91.266 Y70.821 E21.45392
G1 X91.781 Y70.674 E21.48064
G1 X92.548 Y70.512 E21.51975
G1 X93.233 Y70.431 E21.55416
G1 X93.372 Y70.417 E21.56113
G1 X94.026 Y70.361 E21.59388
G1 X94.976 Y70.361 E21.64127
G1 X95.727 Y70.425 E21.67888
G1 X96.308 Y70.474 E21.70797
G1 X97.823 Y70.622 E21.78391
G1 X100.508 Y70.807 E21.91818
G1 X103.13 Y70.915 E22.0491
G1 X105.847 Y70.948 E22.18467
G1 X108.468 Y70.907 E22.31544
G1 X111.162 Y70.788 E22.44998
G1 X113.703 Y70.606 E22.57708
G1 X114.59 Y70.531 E22.62149
G1 X115.539 Y70.531 E22.66883
G1 X116.136 Y70.582 E22.69872
G1 X116.872 Y70.664 E22.73567
G1 X117.812 Y70.853 E22.78351
G1 X118.583 Y71.08 E22.8236
G1 X119.052 Y71.228 E22.84814
G1 X119.934 Y71.591 E22.89572
G1 X120.566 Y71.917 E22.9312
G1 X121.14 Y72.231 E22.96384
G1 X121.926 Y72.755 E23.01097
G1 X122.418 Y73.147 E23.04236
G1 X122.551 Y73.257 E23.05097
G1 X122.987 Y73.627 E23.0795
G1 X123.533 Y74.158 E23.1175
G1 X123.964 Y74.659 E23.15047
G1 X124.076 Y74.796 E23.1593
G1 X124.499 Y75.328 E23.1932
G1 X124.964 Y76.011 E23.23443
G1 X125.302 Y76.618 E23.26909
G1 X125.394 Y76.791 E23.27886
G1 X125.639 Y77.277 E23.30602
G1 X125.955 Y78.041 E23.34727
G1 X126.226 Y78.861 E23.39035
G1 X126.388 Y79.399 E23.41838
G1 X126.581 Y80.347 E23.46665
G1 X126.658 Y81.02 E23.50044
G1 X126.674 Y81.187 E23.50881
G1 X126.718 Y81.709 E23.53495
G1 X126.729 Y82.502 E23.57452
G1 X126.647 Y83.902 E23.64448
G1 X126.624 Y84.225 E23.66064
G1 X126.511 Y86.927 E23.79556
G1 X126.475 Y89.576 E23.92773
G1 X126.515 Y92.231 E24.0602
G1 X126.63 Y94.918 E24.19438
G1 X126.82 Y97.59 E24.32802
G1 X127.084 Y100.223 E24.46004
G1 X127.316 Y102.081 E24.55346
G1 X127.403 Y102.863 E24.59271
G1 X127.477 Y103.706 E24.63493
G1 X127.478 Y104.66 E24.68253
G1 X127.412 Y105.44 E24.72158
G1 X127.395 Y105.608 E24.73001
G1 X127.32 Y106.26 E24.76275
