;FLAVOR:Marlin
;TIME:10672
;Filament used: 8.5423m
;Layer height: 0.2
;MINX:56.737
;MINY:61.13
;MINZ:0.3
;MAXX:153.275
;MAXY:148.884
;MAXZ:16.175
;Generated with Cura_SteamEngine 4.13.1
M82 ;absolute extrusion mode
G21                                        ; metric values 
G90                                        ; absolute positioning 
M82                                        ; set extruder to absolute mode 
M107                                       ; start with the fan off 
M140 S60           ; Start heating the bed 
G4 S60                                     ; wait 1 minute 
M104 S210         ; start heating the hot end 
M190 S60           ; wait for bed 
M109 S210         ; wait for hotend 
M300 S1000 P500                            ; BEEP heating done 
G28 X0 Y10 Z0                              ; move X/Y to min endstops 
M420 S1                                    ; Enable leveling 
M420 Z2.0                                  ; Set leveling fading height to 2 mm 
G0 Z0.15                                   ; lift nozzle a bit 
G92 E0                                     ; zero the extruded length 
G1 X50 E25 F500                            ; Extrude 25mm of filament in a 5cm line. 
G92 E0                                     ; zero the extruded length again 
G1 E-2 F500                                ; Retract a little 
G1 X120 F4000                              ; Quickly wipe away from the filament line`
G92 E0
G92 E0
G1 F1500 E-6
;LAYER_COUNT:80
;LAYER:0
M106 S76.5
M205 X10 Y10
G1 F600 Z0.375
G0 F6000 X67.214 Y80.508 Z0.375
M205 X8 Y8
;TYPE:SKIRT
G1 F600 Z0.3
G1 F1500 E0
G1 F1200 X67.816 Y80.085 E0.03671
G1 X68.731 Y79.519 E0.09038
G1 X69.386 Y79.126 E0.12849
G1 X71.597 Y77.711 E0.25946
G1 X73.825 Y76.195 E0.3939
G1 X75.935 Y74.672 E0.52373
G1 X78.063 Y73.041 E0.65749
G1 X80.085 Y71.4 E0.78741
G1 X82.122 Y69.648 E0.92146
G1 X84.068 Y67.875 E1.0528
G1 X85.071 Y66.916 E1.12203
G1 X85.327 Y66.679 E1.13943
G1 X86.001 Y66.134 E1.18268
G1 X86.608 Y65.755 E1.21838
G1 X87.289 Y65.421 E1.25622
G1 X93.537 Y62.655 E1.59711
G1 X94.146 Y62.396 E1.63013
G1 X94.819 Y62.154 E1.66581
G1 X95.515 Y61.988 E1.70151
G1 X95.929 Y61.927 E1.72239
G1 X97.17 Y61.787 E1.78469
G1 X103.633 Y61.19 E2.10851
G1 X104.322 Y61.136 E2.14299
G1 X105.25 Y61.13 E2.18928
G1 X106.16 Y61.191 E2.23479
G1 X112.998 Y61.766 E2.57714
G1 X113.615 Y61.827 E2.60807
G1 X114.526 Y61.984 E2.65419
G1 X115.566 Y62.243 E2.70766
G1 X121.946 Y63.951 E3.03717
G1 X122.567 Y64.126 E3.06936
G1 X123.459 Y64.451 E3.11672
G1 X124.528 Y64.933 E3.17523
G1 X130.316 Y67.676 E3.49478
G1 X130.957 Y67.99 E3.53039
G1 X131.75 Y68.451 E3.57615
G1 X132.28 Y68.821 E3.6084
G1 X135.196 Y70.948 E3.78847
G1 X137.784 Y72.833 E3.9482
G1 X138.359 Y73.265 E3.98408
G1 X139.156 Y73.975 E4.03733
G1 X139.669 Y74.516 E4.07453
G1 X144.006 Y79.213 E4.39348
G1 X144.482 Y79.743 E4.42902
G1 X144.929 Y80.301 E4.46469
G1 X145.145 Y80.623 E4.48404
G1 X145.659 Y81.447 E4.53249
G1 X148.796 Y86.655 E4.83581
G1 X149.126 Y87.221 E4.8685
G1 X149.451 Y87.859 E4.90422
G1 X149.605 Y88.239 E4.92468
G1 X149.991 Y89.29 E4.98053
G1 X151.874 Y94.772 E5.26972
G1 X152.127 Y95.544 E5.31025
G1 X152.373 Y96.584 E5.36357
G1 X152.459 Y97.218 E5.39549
G1 X153.175 Y103.508 E5.71132
G1 X153.245 Y104.215 E5.74677
G1 X153.275 Y104.93 E5.78247
G1 X153.249 Y105.462 E5.80904
G1 X153.198 Y106.009 E5.83645
G1 X152.545 Y112.169 E6.1455
G1 X152.454 Y112.926 E6.18354
G1 X152.329 Y113.63 E6.21921
G1 X152.175 Y114.186 E6.24799
G1 X152.015 Y114.685 E6.27413
G1 X150.019 Y120.65 E6.58795
G1 X149.813 Y121.241 E6.61917
G1 X149.541 Y121.903 E6.65488
G1 X149.345 Y122.279 E6.67603
G1 X148.781 Y123.279 E6.73331
G1 X145.738 Y128.423 E7.03149
G1 X145.378 Y129.013 E7.06597
G1 X144.972 Y129.601 E7.10162
G1 X144.724 Y129.902 E7.12108
G1 X144.102 Y130.609 E7.16806
G1 X139.878 Y135.253 E7.48125
G1 X139.391 Y135.773 E7.51679
G1 X138.782 Y136.343 E7.55841
G1 X138.509 Y136.562 E7.57587
G1 X138.034 Y136.923 E7.60564
G1 X132.731 Y140.852 E7.93491
G1 X132.127 Y141.286 E7.97201
G1 X131.381 Y141.748 E8.01579
G1 X130.809 Y142.041 E8.04785
G1 X124.622 Y145.034 E8.39074
G1 X123.932 Y145.356 E8.42873
G1 X123.05 Y145.691 E8.4758
G1 X122.037 Y145.992 E8.52853
G1 X115.645 Y147.756 E8.85934
G1 X114.979 Y147.93 E8.89369
G1 X114.065 Y148.099 E8.94006
G1 X113.035 Y148.212 E8.99175
G1 X106.338 Y148.828 E9.32728
G1 X105.693 Y148.879 E9.35956
G1 X104.756 Y148.884 E9.40631
G1 X103.768 Y148.816 E9.45572
G1 X97.057 Y148.25 E9.79172
G1 X96.394 Y148.185 E9.82495
G1 X95.471 Y148.026 E9.87168
G1 X94.482 Y147.779 E9.92254
G1 X88.064 Y146.063 E10.25398
G1 X87.456 Y145.892 E10.28549
G1 X86.559 Y145.566 E10.33311
G1 X85.453 Y145.066 E10.39366
G1 X79.73 Y142.354 E10.70962
G1 X79.055 Y142.024 E10.7471
G1 X78.263 Y141.564 E10.7928
G1 X77.693 Y141.164 E10.82754
G1 X72.276 Y137.214 E11.16201
G1 X71.645 Y136.74 E11.20139
G1 X71.098 Y136.279 E11.23708
G1 X70.843 Y136.025 E11.25503
G1 X70.355 Y135.509 E11.29046
G1 X65.984 Y130.777 E11.61185
G1 X65.525 Y130.264 E11.64619
G1 X65.079 Y129.706 E11.68183
G1 X64.87 Y129.393 E11.70061
G1 X64.34 Y128.544 E11.75054
G1 X61.223 Y123.37 E12.05189
G1 X60.849 Y122.728 E12.08896
G1 X60.524 Y122.09 E12.12468
G1 X60.271 Y121.446 E12.1592
G1 X60.21 Y121.275 E12.16826
G1 X58.114 Y115.167 E12.49043
G1 X57.885 Y114.466 E12.52723
G1 X57.702 Y113.775 E12.56289
G1 X57.607 Y113.206 E12.59167
G1 X57.541 Y112.688 E12.61772
G1 X56.835 Y106.482 E12.92934
G1 X56.769 Y105.824 E12.96233
G1 X56.737 Y105.109 E12.99804
G1 X56.768 Y104.554 E13.02577
G1 X56.85 Y103.727 E13.06723
G1 X56.875 Y103.442 E13.0815
G1 X57.467 Y97.85 E13.36205
G1 X57.558 Y97.089 E13.40029
G1 X57.773 Y96.043 E13.45356
G1 X57.975 Y95.358 E13.48919
G1 X59.836 Y89.361 E13.80246
G1 X60.052 Y88.696 E13.83734
G1 X60.311 Y88.029 E13.87304
G1 X60.642 Y87.395 E13.90872
G1 X61.042 Y86.802 E13.94441
G1 X61.397 Y86.375 E13.97211
G1 X61.91 Y85.831 E14.00942
G1 X66.178 Y81.479 E14.31352
G1 X66.679 Y80.982 E14.34873
G1 X67.214 Y80.508 E14.38439
M205 X10 Y10
G0 F6000 X67.479 Y80.808
M205 X8 Y8
G1 F1200 X68.026 Y80.425 E14.41771
G1 X68.937 Y79.862 E14.47113
G1 X69.586 Y79.472 E14.50891
G1 X71.832 Y78.035 E14.64193
G1 X74.039 Y76.534 E14.77509
G1 X76.189 Y74.981 E14.90741
G1 X78.29 Y73.37 E15.0395
G1 X80.373 Y71.68 E15.17332
G1 X82.37 Y69.964 E15.30469
G1 X84.351 Y68.158 E15.43842
G1 X85.343 Y67.209 E15.50692
G1 X85.599 Y66.972 E15.52432
G1 X86.232 Y66.461 E15.56491
G1 X86.82 Y66.095 E15.59946
G1 X87.459 Y65.784 E15.63492
G1 X87.572 Y65.732 E15.64112
G1 X93.694 Y63.024 E15.9751
G1 X94.303 Y62.765 E16.00811
G1 X94.955 Y62.531 E16.04267
G1 X95.629 Y62.374 E16.0772
G1 X95.974 Y62.324 E16.09459
G1 X97.083 Y62.198 E16.15027
G1 X103.664 Y61.588 E16.48001
G1 X104.353 Y61.534 E16.51449
G1 X105.223 Y61.529 E16.55789
G1 X106.235 Y61.598 E16.6085
G1 X112.958 Y62.164 E16.9451
G1 X113.575 Y62.225 E16.97603
G1 X114.43 Y62.373 E17.01932
G1 X115.463 Y62.63 E17.07243
G1 X121.837 Y64.336 E17.40162
G1 X122.458 Y64.511 E17.43381
G1 X123.295 Y64.815 E17.47824
G1 X124.252 Y65.246 E17.5306
G1 X130.14 Y68.035 E17.85564
G1 X130.781 Y68.349 E17.89125
G1 X131.525 Y68.781 E17.93418
G1 X132.047 Y69.146 E17.96595
G1 X137.544 Y73.153 E18.30533
G1 X138.119 Y73.585 E18.34121
G1 X138.866 Y74.25 E18.39111
G1 X139.375 Y74.787 E18.42802
G1 X143.708 Y79.48 E18.74669
G1 X144.184 Y80.01 E18.78223
G1 X144.806 Y80.835 E18.83378
G1 X145.317 Y81.653 E18.88189
G1 X148.45 Y86.857 E19.18494
G1 X148.78 Y87.423 E19.21763
G1 X149.094 Y88.04 E19.25217
G1 X149.229 Y88.376 E19.27024
G1 X149.658 Y89.548 E19.3325
G1 X151.525 Y94.988 E19.61944
G1 X151.747 Y95.668 E19.65513
G1 X151.977 Y96.643 E19.70511
G1 X152.062 Y97.268 E19.73658
G1 X152.777 Y103.548 E20.05191
G1 X152.847 Y104.255 E20.08736
G1 X152.862 Y105.261 E20.13755
G1 X152.807 Y105.902 E20.16965
G1 X152.158 Y112.037 E20.47743
G1 X152.057 Y112.878 E20.51969
G1 X151.852 Y113.87 E20.57023
G1 X151.656 Y114.499 E20.6031
G1 X149.642 Y120.519 E20.9198
G1 X149.436 Y121.11 E20.95102
G1 X149.17 Y121.75 E20.9856
G1 X148.996 Y122.083 E21.00435
G1 X148.37 Y123.19 E21.06779
G1 X145.397 Y128.214 E21.35904
G1 X145.037 Y128.804 E21.39352
G1 X144.423 Y129.638 E21.44519
G1 X143.806 Y130.34 E21.49182
G1 X139.586 Y134.979 E21.80469
G1 X139.099 Y135.499 E21.84024
G1 X138.528 Y136.034 E21.87927
G1 X138.267 Y136.243 E21.89596
G1 X137.796 Y136.601 E21.92547
G1 X132.497 Y140.528 E22.25452
G1 X131.893 Y140.962 E22.29163
G1 X131.194 Y141.395 E22.33265
G1 X130.632 Y141.683 E22.36416
G1 X124.372 Y144.71 E22.71106
G1 X123.763 Y144.994 E22.74459
G1 X122.936 Y145.307 E22.7887
G1 X121.81 Y145.641 E22.8473
G1 X115.544 Y147.369 E23.17158
G1 X114.878 Y147.543 E23.20592
G1 X114.021 Y147.702 E23.24941
G1 X112.998 Y147.814 E23.30075
G1 X106.307 Y148.429 E23.63597
G1 X105.662 Y148.48 E23.66825
G1 X104.783 Y148.485 E23.71211
G1 X103.801 Y148.418 E23.76121
G1 X97.096 Y147.852 E24.09692
G1 X96.433 Y147.787 E24.13015
G1 X95.567 Y147.638 E24.17399
G1 X94.586 Y147.393 E24.22444
G1 X88.173 Y145.678 E24.55563
G1 X87.565 Y145.507 E24.58714
G1 X86.723 Y145.201 E24.63183
G1 X85.624 Y144.704 E24.69201
G1 X79.906 Y141.994 E25.0077
G1 X79.231 Y141.664 E25.04518
G1 X78.488 Y141.233 E25.08804
G1 X77.926 Y140.838 E25.12231
G1 X72.516 Y136.894 E25.45632
G1 X71.885 Y136.42 E25.4957
G1 X71.134 Y135.75 E25.54591
G1 X70.649 Y135.238 E25.58109
G1 X66.283 Y130.511 E25.90213
G1 X65.824 Y129.998 E25.93647
G1 X65.209 Y129.181 E25.98749
G1 X64.683 Y128.338 E26.03706
G1 X61.569 Y123.168 E26.33817
G1 X61.195 Y122.526 E26.37523
G1 X60.762 Y121.615 E26.42556
G1 X60.588 Y121.145 E26.45056
G1 X58.495 Y115.043 E26.7724
G1 X58.266 Y114.342 E26.80919
G1 X58.033 Y113.352 E26.85993
G1 X57.947 Y112.711 E26.8922
G1 X57.233 Y106.442 E27.20698
G1 X57.167 Y105.784 E27.23998
G1 X57.138 Y105.092 E27.27453
G1 X57.166 Y104.593 E27.29946
G1 X57.244 Y103.807 E27.33887
G1 X57.273 Y103.484 E27.35505
G1 X57.864 Y97.898 E27.63529
G1 X57.955 Y97.137 E27.67353
G1 X58.157 Y96.156 E27.7235
G1 X58.357 Y95.476 E27.75886
G1 X60.216 Y89.484 E28.07186
G1 X60.432 Y88.819 E28.10674
G1 X60.684 Y88.174 E28.14129
G1 X61.008 Y87.562 E28.17584
G1 X61.401 Y86.992 E28.21038
G1 X61.791 Y86.536 E28.24032
G1 X62.198 Y86.108 E28.26978
G1 X66.459 Y81.763 E28.5734
G1 X66.96 Y81.266 E28.6086
G1 X67.479 Y80.808 E28.64314
M205 X10 Y10
G0 F6000 X67.744 Y81.108
M205 X8 Y8
G1 F1200 X68.237 Y80.765 E28.6731
G1 X69.143 Y80.205 E28.72624
G1 X69.802 Y79.809 E28.76459
G1 X72.051 Y78.37 E28.8978
G1 X74.252 Y76.873 E29.0306
G1 X76.421 Y75.307 E29.16407
G1 X78.562 Y73.665 E29.29868
G1 X80.619 Y71.996 E29.43083
G1 X82.635 Y70.264 E29.56343
G1 X84.616 Y68.458 E29.69717
G1 X85.615 Y67.503 E29.76612
G1 X85.871 Y67.266 E29.78353
G1 X86.463 Y66.788 E29.82149
G1 X87.32 Y66.29 E29.87094
G1 X87.734 Y66.098 E29.89371
G1 X93.85 Y63.392 E30.22737
G1 X94.459 Y63.133 E30.26038
G1 X95.09 Y62.908 E30.29381
G1 X96.019 Y62.722 E30.34107
G1 X97.244 Y62.584 E30.40258
G1 X103.695 Y61.987 E30.72579
G1 X104.384 Y61.933 E30.76027
G1 X105.197 Y61.929 E30.80083
G1 X106.201 Y61.997 E30.85104
G1 X112.919 Y62.562 E31.18739
G1 X113.536 Y62.623 E31.21832
G1 X114.334 Y62.761 E31.25872
G1 X115.359 Y63.016 E31.31142
G1 X121.729 Y64.721 E31.6404
G1 X122.35 Y64.896 E31.67259
G1 X123.131 Y65.18 E31.71405
G1 X124.185 Y65.656 E31.77175
G1 X129.965 Y68.394 E32.09083
G1 X130.606 Y68.708 E32.12645
G1 X131.299 Y69.112 E32.16647
G1 X131.814 Y69.471 E32.19779
G1 X134.724 Y71.594 E32.3775
G1 X137.304 Y73.473 E32.53673
G1 X137.879 Y73.905 E32.57261
G1 X138.576 Y74.526 E32.61918
G1 X139.081 Y75.059 E32.65582
G1 X143.41 Y79.747 E32.97417
G1 X143.886 Y80.277 E33.00971
G1 X144.467 Y81.047 E33.05783
G1 X144.924 Y81.777 E33.1008
G1 X148.105 Y87.058 E33.40838
G1 X148.435 Y87.624 E33.44106
G1 X148.854 Y88.514 E33.49014
G1 X149.28 Y89.678 E33.55198
G1 X151.144 Y95.112 E33.83859
G1 X151.366 Y95.792 E33.87428
G1 X151.581 Y96.702 E33.92093
G1 X151.665 Y97.317 E33.95189
G1 X152.379 Y103.587 E34.26673
G1 X152.449 Y104.294 E34.30217
G1 X152.463 Y105.234 E34.34907
G1 X152.409 Y105.864 E34.38062
G1 X151.751 Y112.073 E34.69212
G1 X151.66 Y112.83 E34.73016
G1 X151.468 Y113.757 E34.77739
G1 X151.275 Y114.376 E34.80974
G1 X149.287 Y120.321 E35.12248
G1 X149.058 Y120.978 E35.15719
G1 X148.648 Y121.886 E35.2069
G1 X148.026 Y122.987 E35.26998
G1 X145.055 Y128.006 E35.56097
G1 X144.695 Y128.596 E35.59545
G1 X144.123 Y129.374 E35.64362
G1 X143.51 Y130.07 E35.68989
G1 X139.294 Y134.706 E36.00252
G1 X138.807 Y135.226 E36.03807
G1 X138.275 Y135.725 E36.07446
G1 X138.025 Y135.925 E36.09043
G1 X137.557 Y136.28 E36.11974
G1 X132.264 Y140.203 E36.44843
G1 X131.66 Y140.637 E36.48553
G1 X131.007 Y141.041 E36.52384
G1 X130.454 Y141.324 E36.55484
G1 X124.203 Y144.347 E36.90125
G1 X123.594 Y144.631 E36.93478
G1 X122.822 Y144.924 E36.97597
G1 X121.703 Y145.255 E37.03419
G1 X115.443 Y146.982 E37.35817
G1 X114.777 Y147.156 E37.39251
G1 X113.977 Y147.304 E37.4331
G1 X112.961 Y147.415 E37.48409
G1 X106.275 Y148.031 E37.81907
G1 X105.63 Y148.082 E37.85135
G1 X104.81 Y148.086 E37.89226
G1 X103.835 Y148.019 E37.94102
G1 X97.135 Y147.454 E38.27647
G1 X96.472 Y147.389 E38.30971
G1 X95.664 Y147.25 E38.35061
G1 X94.689 Y147.006 E38.40075
G1 X88.281 Y145.293 E38.73168
G1 X87.673 Y145.122 E38.76319
G1 X86.888 Y144.836 E38.80487
G1 X85.795 Y144.343 E38.86469
G1 X80.081 Y141.635 E39.18015
G1 X79.406 Y141.305 E39.21764
G1 X78.714 Y140.902 E39.25759
G1 X78.158 Y140.513 E39.29145
G1 X72.757 Y136.574 E39.62495
G1 X72.126 Y136.1 E39.66432
G1 X71.424 Y135.475 E39.71122
G1 X70.943 Y134.966 E39.74616
G1 X66.581 Y130.244 E40.06687
G1 X66.122 Y129.731 E40.10121
G1 X65.548 Y128.968 E40.14885
G1 X65.025 Y128.131 E40.19809
G1 X61.914 Y122.967 E40.49886
G1 X61.54 Y122.325 E40.53593
G1 X61.136 Y121.474 E40.58293
G1 X60.966 Y121.015 E40.60735
G1 X58.875 Y114.919 E40.92887
G1 X58.646 Y114.218 E40.96566
G1 X58.429 Y113.294 E41.01302
G1 X58.344 Y112.661 E41.04488
G1 X57.631 Y106.402 E41.35916
G1 X57.565 Y105.744 E41.39215
G1 X57.538 Y105.075 E41.42556
G1 X57.564 Y104.632 E41.4477
G1 X57.646 Y103.805 E41.48916
G1 X57.671 Y103.526 E41.50313
G1 X58.262 Y97.945 E41.78313
G1 X58.353 Y97.184 E41.82137
G1 X58.541 Y96.269 E41.86797
G1 X58.739 Y95.595 E41.90302
G1 X60.597 Y89.608 E42.21576
G1 X60.813 Y88.943 E42.25064
G1 X61.057 Y88.32 E42.28402
G1 X61.374 Y87.731 E42.3174
G1 X61.759 Y87.184 E42.35077
G1 X62.087 Y86.805 E42.37577
G1 X62.487 Y86.385 E42.40471
G1 X66.741 Y82.047 E42.70783
G1 X67.242 Y81.55 E42.74304
G1 X67.744 Y81.108 E42.77641
M205 X10 Y10
G0 F6000 X68.009 Y81.41
M205 X8 Y8
G1 F1200 X68.448 Y81.106 E42.80305
G1 X69.349 Y80.548 E42.85592
G1 X70.018 Y80.146 E42.89486
G1 X72.245 Y78.721 E43.02676
G1 X74.506 Y77.183 E43.16319
G1 X76.676 Y75.616 E43.29673
G1 X78.773 Y74.009 E43.42853
G1 X80.887 Y72.293 E43.56438
G1 X82.901 Y70.562 E43.69687
G1 X84.899 Y68.741 E43.83174
G1 X85.886 Y67.796 E43.89991
G1 X86.142 Y67.559 E43.91731
G1 X86.693 Y67.115 E43.95262
G1 X87.49 Y66.652 E43.9986
G1 X87.896 Y66.464 E44.02093
G1 X94.007 Y63.76 E44.35432
G1 X94.616 Y63.501 E44.38733
G1 X95.224 Y63.286 E44.41951
G1 X96.064 Y63.119 E44.46224
G1 X97.281 Y62.982 E44.52334
G1 X103.727 Y62.386 E44.8463
G1 X104.416 Y62.332 E44.88078
G1 X105.17 Y62.328 E44.9184
G1 X106.168 Y62.395 E44.9683
G1 X112.88 Y62.96 E45.30435
G1 X113.497 Y63.021 E45.33528
G1 X114.237 Y63.149 E45.37275
G1 X115.256 Y63.403 E45.42514
G1 X121.62 Y65.106 E45.75381
G1 X122.241 Y65.281 E45.786
G1 X122.966 Y65.545 E45.82449
G1 X124.014 Y66.018 E45.88186
G1 X129.789 Y68.753 E46.20065
G1 X130.43 Y69.067 E46.23626
G1 X131.074 Y69.442 E46.27344
G1 X131.581 Y69.796 E46.30429
