;FLAVOR:Marlin
;TIME:11119
;Filament used: 7.9592m
;Layer height: 0.2
;MINX:67.618
;MINY:58.22
;MINZ:0.3
;MAXX:139.827
;MAXY:149.191
;MAXZ:17.775
;Generated with Cura_SteamEngine 4.13.1
M82 ;absolute extrusion mode
G21                                        ; metric values 
G90                                        ; absolute positioning 
M82                                        ; set extruder to absolute mode 
M107                                       ; start with the fan off 
M140 S60           ; Start heating the bed 
G4 S60                                     ; wait 1 minute 
M104 S210         ; start heating the hot end 
M190 S60           ; wait for bed 
M109 S210         ; wait for hotend 
M300 S1000 P500                            ; BEEP heating done 
G28 X0 Y10 Z0                              ; move X/Y to min endstops 
M420 S1                                    ; Enable leveling 
M420 Z2.0                                  ; Set leveling fading height to 2 mm 
G0 Z0.15                                   ; lift nozzle a bit 
G92 E0                                     ; zero the extruded length 
G1 X50 E25 F500                            ; Extrude 25mm of filament in a 5cm line. 
G92 E0                                     ; zero the extruded length again 
G1 E-2 F500                                ; Retract a little 
G1 X120 F4000                              ; Quickly wipe away from the filament line`
G92 E0
G92 E0
G1 F1500 E-6
;LAYER_COUNT:88
;LAYER:0
M106 S76.5
M205 X10 Y10
G1 F600 Z0.375
G0 F6000 X70.174 Y74.724 Z0.375
M205 X8 Y8
;TYPE:SKIRT
G1 F600 Z0.3
G1 F1500 E0
G1 F1200 X70.713 Y74.254 E0.03568
G1 X71.301 Y73.847 E0.07136
G1 X72.169 Y73.402 E0.12002
G1 X73.273 Y72.941 E0.17971
G1 X73.671 Y72.782 E0.20109
G1 X76.102 Y71.726 E0.33332
G1 X78.476 Y70.613 E0.46413
G1 X80.891 Y69.397 E0.59903
G1 X83.176 Y68.164 E0.72856
G1 X85.499 Y66.825 E0.86233
G1 X87.728 Y65.454 E0.99289
G1 X89.963 Y63.991 E1.12616
G1 X92.107 Y62.499 E1.25648
G1 X94.891 Y60.417 E1.42991
G1 X95.181 Y60.203 E1.4479
G1 X95.779 Y59.811 E1.48357
G1 X96.418 Y59.489 E1.51927
G1 X97.088 Y59.239 E1.55494
G1 X97.782 Y59.066 E1.59063
G1 X98.547 Y58.957 E1.62918
G1 X98.728 Y58.937 E1.63826
G1 X105.433 Y58.293 E1.97432
G1 X106.111 Y58.238 E2.00825
G1 X106.826 Y58.22 E2.04394
G1 X107.538 Y58.282 E2.07959
G1 X108.239 Y58.423 E2.11527
G1 X108.92 Y58.642 E2.15096
G1 X109.573 Y58.935 E2.18666
G1 X110.189 Y59.299 E2.22236
G1 X110.76 Y59.729 E2.25802
G1 X111.279 Y60.221 E2.2937
G1 X111.741 Y60.767 E2.32938
G1 X112.181 Y61.435 E2.36929
G1 X112.4 Y61.817 E2.39126
G1 X113.772 Y64.13 E2.52543
G1 X115.19 Y66.372 E2.65778
G1 X116.664 Y68.565 E2.7896
G1 X118.195 Y70.706 E2.92092
G1 X119.805 Y72.831 E3.05393
G1 X121.463 Y74.894 E3.18597
G1 X123.174 Y76.903 E3.31762
G1 X124.942 Y78.865 E3.44939
G1 X126.785 Y80.797 E3.5826
G1 X128.669 Y82.663 E3.71489
G1 X130.589 Y84.46 E3.84609
G1 X132.574 Y86.216 E3.97831
G1 X134.901 Y88.153 E4.12936
G1 X136.969 Y89.819 E4.26185
G1 X137.514 Y90.271 E4.29717
G1 X138.038 Y90.757 E4.33283
G1 X138.504 Y91.3 E4.36853
G1 X138.908 Y91.89 E4.4042
G1 X139.242 Y92.522 E4.43987
G1 X139.504 Y93.188 E4.47557
G1 X139.691 Y93.879 E4.51129
G1 X139.799 Y94.586 E4.54697
G1 X139.827 Y95.3 E4.58262
G1 X139.776 Y96.014 E4.61833
G1 X139.645 Y96.717 E4.65401
G1 X139.436 Y97.401 E4.68969
G1 X139.153 Y98.058 E4.72538
G1 X138.798 Y98.679 E4.76106
G1 X138.505 Y99.094 E4.78641
G1 X137.899 Y99.881 E4.83596
G1 X135.169 Y103.313 E5.05475
G1 X134.747 Y103.828 E5.08797
G1 X134.39 Y104.229 E5.11475
G1 X133.923 Y104.71 E5.1482
G1 X132.026 Y106.72 E5.28609
G1 X130.285 Y108.672 E5.41658
G1 X128.583 Y110.692 E5.54836
G1 X126.921 Y112.783 E5.68162
G1 X125.355 Y114.871 E5.81184
G1 X123.255 Y117.873 E5.99462
G1 X122.874 Y118.44 E6.0287
G1 X122.562 Y118.865 E6.055
G1 X122.052 Y119.502 E6.09571
G1 X119.126 Y123.045 E6.32496
G1 X118.699 Y123.548 E6.35788
G1 X118.067 Y124.194 E6.40296
G1 X117.562 Y124.642 E6.43664
G1 X115.599 Y126.432 E6.56918
G1 X113.718 Y128.247 E6.69959
G1 X111.833 Y130.173 E6.83404
G1 X110.064 Y132.084 E6.96396
G1 X108.3 Y134.103 E7.09772
G1 X106.626 Y136.132 E7.22895
G1 X104.993 Y138.229 E7.36155
G1 X103.415 Y140.377 E7.49452
G1 X102.194 Y142.131 E7.60114
G1 X101.885 Y142.545 E7.62692
G1 X101.617 Y142.88 E7.64832
G1 X98.703 Y146.419 E7.87703
G1 X98.267 Y146.933 E7.91066
G1 X97.774 Y147.452 E7.94637
G1 X97.227 Y147.912 E7.98203
G1 X96.632 Y148.309 E8.01771
G1 X95.996 Y148.637 E8.05342
G1 X95.328 Y148.891 E8.08907
G1 X94.635 Y149.07 E8.12478
G1 X93.927 Y149.17 E8.16045
G1 X93.212 Y149.191 E8.19614
G1 X92.499 Y149.131 E8.23184
G1 X91.797 Y148.993 E8.26753
G1 X91.115 Y148.777 E8.30322
G1 X90.462 Y148.486 E8.33889
G1 X89.845 Y148.124 E8.37458
G1 X89.434 Y147.827 E8.39987
G1 X88.513 Y147.102 E8.45835
G1 X85.557 Y144.677 E8.6491
G1 X77.615 Y138.129 E9.16264
G1 X77.063 Y137.661 E9.19874
G1 X76.544 Y137.168 E9.23446
G1 X76.084 Y136.621 E9.27011
G1 X75.687 Y136.026 E9.3058
G1 X75.359 Y135.39 E9.3415
G1 X75.104 Y134.722 E9.37717
G1 X74.915 Y133.975 E9.41561
G1 X74.8 Y133.317 E9.44894
G1 X71.551 Y112.425 E10.50377
G1 X71.11 Y109.833 E10.63495
G1 X67.819 Y91.982 E11.54055
G1 X67.697 Y91.26 E11.57708
G1 X67.618 Y90.55 E11.61272
G1 X67.633 Y89.627 E11.65877
G1 X67.664 Y89.287 E11.67581
G1 X67.892 Y87.006 E11.79017
G1 X68.08 Y84.393 E11.92087
G1 X68.197 Y81.692 E12.05575
G1 X68.227 Y80.356 E12.12242
G1 X68.244 Y79.209 E12.17965
G1 X68.294 Y78.495 E12.21536
G1 X68.424 Y77.792 E12.25103
G1 X68.632 Y77.107 E12.28674
G1 X68.915 Y76.45 E12.32243
G1 X69.269 Y75.829 E12.3581
G1 X69.691 Y75.251 E12.3938
G1 X70.174 Y74.724 E12.42947
M205 X10 Y10
G0 F6000 X70.565 Y74.904
M205 X8 Y8
G1 F1200 X71.099 Y74.463 E12.46402
G1 X71.681 Y74.087 E12.49859
G1 X72.324 Y73.771 E12.53433
G1 X73.422 Y73.312 E12.5937
G1 X73.83 Y73.149 E12.61562
G1 X76.252 Y72.097 E12.74736
G1 X78.689 Y70.954 E12.88165
G1 X81.055 Y69.763 E13.01381
G1 X83.371 Y68.514 E13.14508
G1 X85.691 Y67.176 E13.2787
G1 X87.952 Y65.786 E13.41111
G1 X90.173 Y64.332 E13.54355
G1 X92.359 Y62.81 E13.67644
G1 X95.128 Y60.739 E13.84895
G1 X95.418 Y60.525 E13.86693
G1 X95.998 Y60.147 E13.90147
G1 X96.618 Y59.838 E13.93603
G1 X97.269 Y59.602 E13.97058
G1 X98.237 Y59.399 E14.01992
G1 X98.766 Y59.336 E14.0465
G1 X105.465 Y58.692 E14.38226
G1 X106.143 Y58.637 E14.41619
G1 X106.835 Y58.621 E14.45073
G1 X107.525 Y58.684 E14.48529
G1 X108.202 Y58.827 E14.51981
G1 X108.859 Y59.047 E14.55438
G1 X109.486 Y59.341 E14.58893
G1 X110.075 Y59.706 E14.6235
G1 X110.618 Y60.136 E14.65806
G1 X111.108 Y60.625 E14.69259
G1 X111.538 Y61.168 E14.72715
G1 X111.834 Y61.634 E14.75469
G1 X112.052 Y62.015 E14.77659
G1 X113.433 Y64.342 E14.91159
G1 X114.853 Y66.587 E15.04412
G1 X116.335 Y68.791 E15.17662
G1 X117.883 Y70.958 E15.30949
G1 X119.49 Y73.078 E15.44221
G1 X121.148 Y75.141 E15.57425
G1 X122.871 Y77.164 E15.70682
G1 X124.656 Y79.145 E15.83986
G1 X126.479 Y81.057 E15.97166
G1 X128.397 Y82.957 E16.10635
G1 X130.307 Y84.744 E16.23685
G1 X132.319 Y86.524 E16.37087
G1 X134.644 Y88.459 E16.52178
G1 X136.713 Y90.127 E16.65437
G1 X137.258 Y90.579 E16.68969
G1 X137.765 Y91.051 E16.72425
G1 X138.214 Y91.578 E16.75879
G1 X138.599 Y92.154 E16.79336
G1 X138.915 Y92.77 E16.8279
G1 X139.158 Y93.418 E16.86243
G1 X139.325 Y94.09 E16.89697
G1 X139.413 Y94.777 E16.93153
G1 X139.422 Y95.47 E16.9661
G1 X139.35 Y96.159 E17.00067
G1 X139.2 Y96.835 E17.03521
G1 X138.973 Y97.489 E17.06975
G1 X138.672 Y98.113 E17.10431
G1 X138.188 Y98.85 E17.1483
G1 X137.586 Y99.632 E17.19754
G1 X134.86 Y103.06 E17.41604
G1 X134.438 Y103.575 E17.44926
G1 X134.102 Y103.951 E17.47442
G1 X133.632 Y104.435 E17.50808
G1 X131.753 Y106.425 E17.64462
G1 X129.964 Y108.431 E17.77872
G1 X128.28 Y110.431 E17.90916
G1 X126.603 Y112.539 E18.04355
G1 X125.03 Y114.637 E18.17437
G1 X122.928 Y117.643 E18.35737
G1 X122.542 Y118.217 E18.39188
G1 X122.25 Y118.615 E18.41651
G1 X121.744 Y119.247 E18.4569
G1 X118.821 Y122.786 E18.6859
G1 X118.394 Y123.289 E18.71882
G1 X117.802 Y123.894 E18.76105
G1 X117.325 Y124.317 E18.79285
G1 X115.335 Y126.131 E18.92719
G1 X113.42 Y127.979 E19.05996
G1 X111.554 Y129.886 E19.19307
G1 X109.751 Y131.833 E19.32546
G1 X108.009 Y133.828 E19.4576
G1 X106.3 Y135.899 E19.59156
G1 X104.688 Y137.969 E19.72245
G1 X103.098 Y140.133 E19.85642
G1 X101.866 Y141.903 E19.96401
G1 X101.472 Y142.423 E19.99656
G1 X101.308 Y142.625 E20.00954
G1 X98.398 Y146.16 E20.23797
G1 X97.962 Y146.674 E20.2716
G1 X97.484 Y147.176 E20.30618
G1 X96.952 Y147.619 E20.34072
G1 X96.372 Y147.997 E20.37526
G1 X95.752 Y148.307 E20.40984
G1 X95.101 Y148.543 E20.44439
G1 X94.427 Y148.702 E20.47894
G1 X93.739 Y148.783 E20.5135
G1 X93.047 Y148.783 E20.54803
G1 X92.359 Y148.704 E20.58258
G1 X91.684 Y148.547 E20.61715
G1 X91.033 Y148.312 E20.65168
G1 X90.412 Y148.004 E20.68626
G1 X89.681 Y147.513 E20.7302
G1 X88.867 Y146.874 E20.78183
G1 X85.811 Y144.368 E20.979
G1 X77.874 Y137.824 E21.49221
G1 X77.322 Y137.356 E21.52832
G1 X76.82 Y136.878 E21.5629
G1 X76.377 Y136.346 E21.59744
G1 X75.998 Y135.766 E21.632
G1 X75.689 Y135.147 E21.66652
G1 X75.453 Y134.495 E21.70111
G1 X75.308 Y133.9 E21.73167
G1 X75.194 Y133.252 E21.76449
G1 X71.946 Y112.364 E22.81912
G1 X71.503 Y109.76 E22.9509
G1 X68.214 Y91.916 E23.85614
G1 X68.092 Y91.194 E23.89267
G1 X68.016 Y90.505 E23.92725
G1 X68.032 Y89.663 E23.96927
G1 X68.062 Y89.327 E23.9861
G1 X68.287 Y87.077 E24.09891
G1 X68.482 Y84.368 E24.23441
G1 X68.596 Y81.717 E24.3668
G1 X68.627 Y80.365 E24.43426
G1 X68.644 Y79.215 E24.49164
G1 X68.694 Y78.524 E24.52621
G1 X68.824 Y77.844 E24.56075
G1 X69.031 Y77.183 E24.59531
G1 X69.313 Y76.55 E24.62988
G1 X69.666 Y75.954 E24.66444
G1 X70.085 Y75.403 E24.69897
G1 X70.565 Y74.904 E24.73351
M205 X10 Y10
G0 F6000 X70.955 Y75.091
M205 X8 Y8
G1 F1200 X71.484 Y74.681 E24.76691
G1 X72.058 Y74.337 E24.80029
G1 X72.479 Y74.14 E24.82348
G1 X73.57 Y73.684 E24.88247
G1 X73.984 Y73.518 E24.90473
G1 X76.403 Y72.468 E25.03629
G1 X78.86 Y71.316 E25.17168
G1 X81.246 Y70.115 E25.30494
G1 X83.555 Y68.869 E25.43584
G1 X85.905 Y67.514 E25.57118
G1 X88.174 Y66.118 E25.70409
G1 X90.415 Y64.652 E25.83769
G1 X92.572 Y63.15 E25.96882
G1 X95.366 Y61.061 E26.14287
G1 X95.656 Y60.847 E26.16085
G1 X96.217 Y60.483 E26.19421
G1 X96.818 Y60.188 E26.22761
G1 X97.449 Y59.967 E26.26097
G1 X98.286 Y59.796 E26.30359
G1 X98.805 Y59.734 E26.32967
G1 X105.497 Y59.09 E26.66508
G1 X106.175 Y59.035 E26.69901
G1 X106.844 Y59.021 E26.7324
G1 X107.51 Y59.087 E26.76579
G1 X108.163 Y59.232 E26.79916
G1 X108.794 Y59.453 E26.83251
G1 X109.395 Y59.748 E26.86591
G1 X109.956 Y60.113 E26.89931
G1 X110.469 Y60.542 E26.93267
G1 X110.928 Y61.029 E26.96606
G1 X111.487 Y61.832 E27.01487
G1 X111.721 Y62.24 E27.03834
G1 X113.094 Y64.554 E27.17257
G1 X114.516 Y66.802 E27.30528
G1 X116.005 Y69.018 E27.43848
G1 X117.572 Y71.21 E27.57291
G1 X119.161 Y73.307 E27.70417
G1 X120.845 Y75.402 E27.83827
G1 X122.587 Y77.449 E27.97237
G1 X124.334 Y79.386 E28.10251
G1 X126.226 Y81.37 E28.23928
G1 X128.097 Y83.224 E28.37069
G1 X130.042 Y85.044 E28.50359
G1 X132.064 Y86.832 E28.63825
G1 X134.387 Y88.766 E28.78905
G1 X136.458 Y90.435 E28.92175
G1 X137.003 Y90.887 E28.95707
G1 X137.491 Y91.344 E28.99043
G1 X137.922 Y91.856 E29.02382
G1 X138.288 Y92.416 E29.05719
G1 X138.585 Y93.015 E29.09055
G1 X138.809 Y93.646 E29.12395
G1 X138.955 Y94.298 E29.15729
G1 X139.023 Y94.964 E29.19069
G1 X139.011 Y95.633 E29.22407
G1 X138.919 Y96.296 E29.25746
G1 X138.749 Y96.943 E29.29084
G1 X138.503 Y97.565 E29.32421
G1 X138.184 Y98.153 E29.35758
G1 X137.87 Y98.606 E29.38508
G1 X137.273 Y99.383 E29.43397
G1 X134.551 Y102.806 E29.65216
G1 X134.129 Y103.321 E29.68537
G1 X133.815 Y103.672 E29.70887
G1 X133.341 Y104.16 E29.74281
G1 X131.463 Y106.149 E29.87929
G1 X129.675 Y108.153 E30.01328
G1 X127.962 Y110.187 E30.14595
G1 X126.286 Y112.296 E30.28034
G1 X124.695 Y114.417 E30.41262
G1 X122.618 Y117.387 E30.59343
G1 X122.21 Y117.994 E30.62992
G1 X121.937 Y118.365 E30.6529
G1 X121.435 Y118.992 E30.69297
G1 X118.516 Y122.527 E30.92169
G1 X118.089 Y123.03 E30.95461
G1 X117.536 Y123.595 E30.99405
G1 X117.087 Y123.993 E31.02399
G1 X115.051 Y125.848 E31.1614
G1 X113.139 Y127.694 E31.29399
G1 X111.257 Y129.617 E31.42823
G1 X109.457 Y131.562 E31.56045
G1 X107.713 Y133.559 E31.69272
G1 X105.991 Y135.645 E31.82767
G1 X104.352 Y137.75 E31.96077
G1 X102.786 Y139.882 E32.09275
G1 X101.538 Y141.674 E32.20169
G1 X101.161 Y142.171 E32.23282
G1 X101 Y142.371 E32.24563
G1 X98.093 Y145.901 E32.47377
G1 X97.657 Y146.415 E32.5074
G1 X97.194 Y146.899 E32.54081
G1 X96.677 Y147.324 E32.5742
G1 X96.113 Y147.684 E32.60758
G1 X95.511 Y147.974 E32.64092
G1 X94.878 Y148.191 E32.67431
G1 X94.223 Y148.33 E32.70771
G1 X93.557 Y148.39 E32.74107
G1 X92.888 Y148.371 E32.77446
G1 X92.227 Y148.272 E32.80781
G1 X91.581 Y148.094 E32.84124
G1 X90.962 Y147.841 E32.8746
G1 X90.377 Y147.516 E32.90799
G1 X89.928 Y147.198 E32.93544
G1 X89.02 Y146.484 E32.99307
G1 X86.066 Y144.06 E33.18371
G1 X78.133 Y137.518 E33.69671
G1 X77.581 Y137.05 E33.73281
G1 X77.097 Y136.588 E33.76619
G1 X76.672 Y136.071 E33.79958
G1 X76.312 Y135.508 E33.83292
G1 X76.021 Y134.905 E33.86633
G1 X75.805 Y134.272 E33.89969
G1 X75.662 Y133.621 E33.93295
G1 X75.582 Y133.146 E33.95698
G1 X72.341 Y112.302 E35.00939
G1 X71.883 Y109.611 E35.14557
G1 X68.608 Y91.849 E36.04666
G1 X68.486 Y91.127 E36.08319
G1 X68.414 Y90.462 E36.11656
G1 X68.43 Y89.698 E36.15468
G1 X68.46 Y89.367 E36.17127
G1 X68.686 Y87.109 E36.28448
G1 X68.88 Y84.415 E36.41923
G1 X68.995 Y81.743 E36.55266
G1 X69.027 Y80.374 E36.62098
G1 X69.044 Y79.221 E36.67851
G1 X69.094 Y78.554 E36.71188
G1 X69.223 Y77.897 E36.74528
G1 X69.429 Y77.261 E36.77864
G1 X69.71 Y76.654 E36.81201
G1 X70.062 Y76.084 E36.84543
G1 X70.479 Y75.561 E36.8788
G1 X70.955 Y75.091 E36.91218
M205 X10 Y10
G0 F6000 X70.872 Y75.725
M205 X8 Y8
G1 F1200 X71.344 Y75.286 E36.94433
G1 X71.866 Y74.908 E36.97649
G1 X72.633 Y74.509 E37.01962
G1 X73.719 Y74.055 E37.07835
G1 X74.143 Y73.885 E37.10114
G1 X76.595 Y72.82 E37.23451
G1 X79.002 Y71.692 E37.36713
G1 X81.436 Y70.466 E37.50309
G1 X83.765 Y69.21 E37.63511
G1 X86.109 Y67.859 E37.77008
G1 X88.382 Y66.461 E37.90322
G1 X90.616 Y64.999 E38.03642
G1 X92.805 Y63.475 E38.16949
G1 X95.603 Y61.383 E38.34378
G1 X95.893 Y61.169 E38.36177
G1 X96.435 Y60.819 E38.39395
G1 X97.015 Y60.539 E38.42609
G1 X97.626 Y60.333 E38.45825
G1 X98.336 Y60.193 E38.49436
G1 X98.843 Y60.132 E38.51983
G1 X105.53 Y59.489 E38.85499
G1 X106.208 Y59.434 E38.88893
G1 X106.852 Y59.422 E38.92106
G1 X107.493 Y59.489 E38.95321
G1 X108.121 Y59.636 E38.98539
G1 X108.726 Y59.859 E39.01756
G1 X109.299 Y60.155 E39.04974
G1 X109.83 Y60.52 E39.08188
G1 X110.312 Y60.948 E39.11404
G1 X110.738 Y61.432 E39.14621
G1 X111.14 Y62.031 E39.1822
G1 X111.383 Y62.455 E39.20658
G1 X112.745 Y64.751 E39.33977
G1 X114.189 Y67.034 E39.47454
G1 X115.668 Y69.235 E39.60684
G1 X117.226 Y71.415 E39.74052
G1 X118.861 Y73.571 E39.87551
G1 X120.547 Y75.67 E40.00983
G1 X122.269 Y77.692 E40.14233
G1 X124.065 Y79.684 E40.27614
G1 X125.92 Y81.629 E40.41024
G1 X127.835 Y83.526 E40.54472
G1 X129.787 Y85.353 E40.6781
G1 X131.773 Y87.11 E40.8104
G1 X134.161 Y89.097 E40.96538
G1 X136.203 Y90.742 E41.0962
G1 X136.748 Y91.194 E41.13153
G1 X137.217 Y91.636 E41.16368
G1 X137.629 Y92.132 E41.19585
G1 X137.976 Y92.676 E41.22804
G1 X138.253 Y93.258 E41.2602
G1 X138.456 Y93.87 E41.29237
G1 X138.581 Y94.502 E41.32451
G1 X138.628 Y95.145 E41.35667
G1 X138.594 Y95.789 E41.38885
G1 X138.481 Y96.423 E41.42098
G1 X138.291 Y97.039 E41.45314
G1 X138.025 Y97.627 E41.48533
G1 X137.553 Y98.363 E41.52896
