;FLAVOR:Marlin
;TIME:7796
;Filament used: 6.00586m
;Layer height: 0.2
;MINX:55.782
;MINY:58.51
;MINZ:0.3
;MAXX:154.858
;MAXY:153.625
;MAXZ:18.575
;Generated with Cura_SteamEngine 4.13.1
M82 ;absolute extrusion mode
G21                                        ; metric values 
G90                                        ; absolute positioning 
M82                                        ; set extruder to absolute mode 
M107                                       ; start with the fan off 
M140 S60           ; Start heating the bed 
G4 S60                                     ; wait 1 minute 
M104 S210         ; start heating the hot end 
M190 S60           ; wait for bed 
M109 S210         ; wait for hotend 
M300 S1000 P500                            ; BEEP heating done 
G28 X0 Y10 Z0                              ; move X/Y to min endstops 
M420 S1                                    ; Enable leveling 
M420 Z2.0                                  ; Set leveling fading height to 2 mm 
G0 Z0.15                                   ; lift nozzle a bit 
G92 E0                                     ; zero the extruded length 
G1 X50 E25 F500                            ; Extrude 25mm of filament in a 5cm line. 
G92 E0                                     ; zero the extruded length again 
G1 E-2 F500                                ; Retract a little 
G1 X120 F4000                              ; Quickly wipe away from the filament line`
G92 E0
G92 E0
G1 F1500 E-6
;LAYER_COUNT:92
;LAYER:0
M106 S76.5
M205 X10 Y10
G1 F600 Z0.375
G0 F6000 X88.02 Y92.252 Z0.375
M205 X8 Y8
;TYPE:SKIRT
G1 F600 Z0.3
G1 F1500 E0
G1 F1200 X105.277 Y107.684 E1.15499
G1 X101.772 Y92.297 E1.94231
G1 X96.201 Y90.559 E2.23346
G1 X95.46 Y90.286 E2.27286
G1 X94.799 Y89.966 E2.3095
G1 X94.04 Y89.553 E2.35261
G1 X91.61 Y90.466 E2.48212
G1 X89.312 Y91.706 E2.61239
G1 X88.599 Y92.045 E2.65178
G1 X88.02 Y92.252 E2.68246
M205 X10 Y10
G0 F6000 X87.702 Y91.939
M205 X8 Y8
G1 F1200 X87.204 Y92.058 E2.708
G1 X105.945 Y108.817 E3.96231
G1 X102.111 Y91.984 E4.82362
G1 X96.32 Y90.177 E5.12627
G1 X95.599 Y89.91 E5.16463
G1 X94.99 Y89.615 E5.19839
G1 X94.07 Y89.115 E5.25063
G1 X91.446 Y90.101 E5.39048
G1 X89.122 Y91.354 E5.5222
G1 X88.427 Y91.683 E5.56056
G1 X87.702 Y91.939 E5.59892
M205 X10 Y10
G0 F6000 X87.549 Y91.567
M205 X8 Y8
G1 F1200 X86.82 Y91.735 E5.63625
G1 X86.312 Y91.797 E5.66178
G1 X106.614 Y109.952 E7.02057
G1 X102.45 Y91.67 E7.95602
G1 X96.439 Y89.795 E8.27016
G1 X95.738 Y89.535 E8.30746
G1 X95.181 Y89.263 E8.33838
G1 X94.101 Y88.676 E8.39971
G1 X91.278 Y89.737 E8.55017
G1 X88.932 Y91.002 E8.68314
G1 X88.256 Y91.321 E8.72044
G1 X87.549 Y91.567 E8.75778
M205 X10 Y10
G0 F6000 X87.398 Y91.194
M205 X8 Y8
G1 F1200 X86.689 Y91.352 E8.79402
G1 X85.967 Y91.431 E8.83026
G1 X85.303 Y91.431 E8.86338
G1 X107.282 Y111.086 E10.33442
G1 X102.788 Y91.357 E11.34392
G1 X96.558 Y89.413 E11.66952
G1 X95.878 Y89.159 E11.70573
G1 X95.372 Y88.912 E11.73382
G1 X94.13 Y88.237 E11.80435
G1 X91.116 Y89.37 E11.96499
G1 X88.742 Y90.65 E12.09955
G1 X88.085 Y90.959 E12.13577
G1 X87.398 Y91.194 E12.17199
M205 X10 Y10
G0 F6000 X87.248 Y90.821
M205 X8 Y8
G1 F1200 X86.559 Y90.968 E12.20714
G1 X85.859 Y91.036 E12.24223
G1 X85.155 Y91.024 E12.27736
G1 X84.457 Y90.933 E12.31247
G1 X84.027 Y90.826 E12.33458
G1 X107.951 Y112.221 E13.93582
G1 X103.128 Y91.045 E15.01935
G1 X96.677 Y89.032 E15.3565
G1 X96.018 Y88.784 E15.39162
G1 X95.563 Y88.56 E15.41693
G1 X94.162 Y87.798 E15.49649
G1 X90.949 Y89.006 E15.66774
G1 X88.553 Y90.298 E15.80355
G1 X87.915 Y90.596 E15.83868
G1 X87.248 Y90.821 E15.8738
M205 X10 Y10
G0 F6000 X87.099 Y90.446
M205 X8 Y8
G1 F1200 X86.432 Y90.582 E15.90776
G1 X85.753 Y90.639 E15.94176
G1 X85.073 Y90.616 E15.9757
G1 X84.4 Y90.513 E16.00967
G1 X83.743 Y90.333 E16.04366
G1 X83.112 Y90.076 E16.07765
G1 X82.516 Y89.748 E16.11159
G1 X81.962 Y89.351 E16.14559
G1 X81.459 Y88.893 E16.17953
G1 X81.013 Y88.379 E16.21348
G1 X80.63 Y87.816 E16.24745
G1 X80.516 Y87.597 E16.25977
G1 X80.407 Y88.127 E16.28677
G1 X108.62 Y113.357 E18.17505
G1 X103.466 Y90.731 E19.33278
G1 X96.797 Y88.65 E19.68132
G1 X96.16 Y88.409 E19.7153
G1 X95.754 Y88.209 E19.73788
G1 X94.191 Y87.359 E19.82664
G1 X90.787 Y88.639 E20.00808
G1 X88.363 Y89.946 E20.14547
G1 X87.745 Y90.233 E20.17946
G1 X87.099 Y90.446 E20.2134
M205 X10 Y10
G0 F6000 X87.577 Y89.87
M205 X8 Y8
G1 F1200 X86.951 Y90.071 E20.2462
G1 X86.306 Y90.196 E20.27898
G1 X85.651 Y90.241 E20.31173
G1 X84.995 Y90.206 E20.34451
G1 X84.348 Y90.092 E20.37728
G1 X83.72 Y89.9 E20.41005
G1 X83.119 Y89.633 E20.44286
G1 X82.556 Y89.295 E20.47562
G1 X82.038 Y88.891 E20.50839
G1 X81.572 Y88.428 E20.54117
G1 X81.166 Y87.911 E20.57396
G1 X80.827 Y87.349 E20.60671
G1 X80.557 Y86.749 E20.63953
G1 X80.392 Y86.215 E20.66741
G1 X79.969 Y88.271 E20.77214
G1 X108.715 Y113.977 E22.69607
G1 X109.208 Y114.135 E22.7219
G1 X103.805 Y90.417 E23.93551
G1 X96.916 Y88.268 E24.29554
G1 X96.302 Y88.034 E24.32832
G1 X95.945 Y87.857 E24.3482
G1 X94.223 Y86.921 E24.44598
G1 X90.618 Y88.275 E24.6381
G1 X88.173 Y89.594 E24.7767
G1 X87.577 Y89.87 E24.80947
M205 X10 Y10
G0 F6000 X87.409 Y89.506
M205 X8 Y8
G1 F1200 X86.806 Y89.696 E24.84101
G1 X86.184 Y89.808 E24.87254
G1 X85.552 Y89.841 E24.90412
G1 X84.922 Y89.794 E24.93563
G1 X84.302 Y89.667 E24.96721
G1 X83.704 Y89.464 E24.99871
G1 X83.136 Y89.187 E25.03024
G1 X82.607 Y88.84 E25.06181
G1 X82.127 Y88.429 E25.09333
G1 X81.702 Y87.961 E25.12487
G1 X81.339 Y87.443 E25.15643
G1 X81.045 Y86.884 E25.18794
G1 X80.824 Y86.291 E25.21951
G1 X80.679 Y85.676 E25.25104
G1 X80.622 Y85.2 E25.27495
G1 X80.511 Y83.652 E25.35238
G1 X79.53 Y88.415 E25.595
G1 X108.512 Y114.332 E27.53472
G1 X109.754 Y114.731 E27.59981
G1 X104.144 Y90.104 E28.85993
G1 X97.035 Y87.886 E29.23146
G1 X96.444 Y87.66 E29.26302
G1 X96.136 Y87.506 E29.2802
G1 X94.253 Y86.483 E29.38712
G1 X90.448 Y87.912 E29.5899
G1 X87.983 Y89.242 E29.72963
G1 X87.409 Y89.506 E29.76115
M205 X10 Y10
G0 F6000 X87.241 Y89.142
M205 X8 Y8
G1 F1200 X86.662 Y89.319 E29.79136
G1 X86.064 Y89.418 E29.8216
G1 X85.458 Y89.439 E29.85185
G1 X84.854 Y89.379 E29.88213
G1 X84.264 Y89.24 E29.91238
G1 X83.697 Y89.025 E29.94263
G1 X83.164 Y88.737 E29.97285
G1 X82.672 Y88.382 E30.00312
G1 X82.232 Y87.965 E30.03337
G1 X81.851 Y87.493 E30.06363
G1 X81.535 Y86.976 E30.09386
G1 X81.289 Y86.422 E30.1241
G1 X81.119 Y85.84 E30.15435
G1 X81.021 Y85.171 E30.18808
G1 X80.69 Y80.576 E30.41792
G1 X80.642 Y81.035 E30.44095
G1 X79.093 Y88.561 E30.82429
G1 X108.306 Y114.686 E32.77952
G1 X110.299 Y115.326 E32.88396
G1 X104.483 Y89.791 E34.19053
G1 X97.154 Y87.504 E34.57356
G1 X96.327 Y87.155 E34.61835
G1 X94.282 Y86.044 E34.73446
G1 X90.286 Y87.545 E34.94742
G1 X87.793 Y88.89 E35.08874
G1 X87.241 Y89.142 E35.11901
M205 X10 Y10
G0 F6000 X87.075 Y88.777
M205 X8 Y8
G1 F1200 X86.52 Y88.941 E35.14789
G1 X85.947 Y89.027 E35.17679
G1 X85.368 Y89.034 E35.20568
G1 X84.793 Y88.961 E35.2346
G1 X84.234 Y88.81 E35.26349
G1 X83.701 Y88.583 E35.29239
G1 X83.204 Y88.284 E35.32133
G1 X82.753 Y87.921 E35.35021
G1 X82.357 Y87.499 E35.37908
G1 X82.022 Y87.026 E35.408
G1 X81.755 Y86.511 E35.43694
G1 X81.562 Y85.965 E35.46583
G1 X81.42 Y85.143 E35.50745
G1 X80.98 Y79.03 E35.81322
G1 X80.978 Y78.45 E35.84215
G1 X81.056 Y77.876 E35.87105
G1 X81.213 Y77.318 E35.89997
G1 X81.444 Y76.787 E35.92886
G1 X81.548 Y76.618 E35.93876
G1 X80.355 Y77.635 E36.01697
G1 X80.336 Y80.138 E36.14185
G1 X80.25 Y80.954 E36.18279
G1 X78.654 Y88.705 E36.5776
G1 X108.105 Y115.041 E38.5487
G1 X110.845 Y115.921 E38.69228
G1 X104.822 Y89.477 E40.04536
G1 X97.273 Y87.122 E40.43989
G1 X96.518 Y86.803 E40.48078
G1 X94.314 Y85.605 E40.60593
G1 X90.112 Y87.184 E40.82988
G1 X87.603 Y88.537 E40.9721
G1 X87.075 Y88.777 E41.00103
M205 X10 Y10
G0 F6000 X86.91 Y88.411
M205 X8 Y8
G1 F1200 X86.38 Y88.562 E41.02852
G1 X85.834 Y88.634 E41.056
G1 X85.283 Y88.627 E41.08349
G1 X84.739 Y88.54 E41.11098
G1 X84.213 Y88.375 E41.13848
G1 X83.717 Y88.136 E41.16595
G1 X83.26 Y87.828 E41.19344
G1 X82.853 Y87.457 E41.22092
G1 X82.504 Y87.031 E41.24839
G1 X82.219 Y86.559 E41.2759
G1 X82.007 Y86.051 E41.30336
G1 X81.87 Y85.517 E41.33087
G1 X81.819 Y85.114 E41.35113
G1 X81.379 Y79.001 E41.6569
G1 X81.379 Y78.45 E41.68439
G1 X81.459 Y77.905 E41.71187
G1 X81.617 Y77.377 E41.73937
G1 X81.85 Y76.877 E41.76689
G1 X82.153 Y76.417 E41.79437
G1 X82.519 Y76.005 E41.82187
G1 X82.94 Y75.65 E41.84934
G1 X83.409 Y75.36 E41.87685
G1 X84.079 Y75.088 E41.91293
G1 X88.518 Y73.759 E42.1441
G1 X88.677 Y73.687 E42.15281
G1 X89.317 Y73.51 E42.18594
G1 X96.697 Y72.158 E42.56025
G1 X97.188 Y72.065 E42.58519
G1 X102.158 Y71.386 E42.83544
G1 X102.779 Y71.343 E42.8665
G1 X103.33 Y71.36 E42.894
G1 X103.936 Y71.474 E42.92477
G1 X104.332 Y71.582 E42.94524
G1 X113.988 Y74.14 E43.4436
G1 X114.729 Y74.422 E43.48316
G1 X115.111 Y74.615 E43.50451
G1 X125.721 Y79.491 E44.08707
G1 X126.203 Y79.757 E44.11453
G1 X126.643 Y80.09 E44.14206
G1 X127.029 Y80.483 E44.16954
G1 X127.355 Y80.927 E44.19703
G1 X127.612 Y81.414 E44.2245
G1 X127.797 Y81.933 E44.25199
G1 X127.905 Y82.474 E44.27951
G1 X127.928 Y83.15 E44.31325
G1 X127.363 Y93.576 E44.83417
G1 X150.081 Y123.167 E46.69538
G1 X150.384 Y123.627 E46.72286
G1 X150.617 Y124.126 E46.75033
G1 X150.776 Y124.654 E46.77784
G1 X150.857 Y125.199 E46.80533
G1 X150.857 Y125.75 E46.83282
G1 X150.779 Y126.295 E46.86029
G1 X150.622 Y126.824 E46.88782
G1 X150.397 Y127.311 E46.91458
G1 X148.355 Y131.028 E47.12616
G1 X148.692 Y131.429 E47.1523
G1 X148.982 Y131.897 E47.17977
G1 X149.201 Y132.403 E47.20727
G1 X149.344 Y132.935 E47.23476
G1 X149.409 Y133.482 E47.26224
G1 X149.394 Y134.033 E47.28974
G1 X149.3 Y134.576 E47.31723
G1 X149.128 Y135.099 E47.3447
G1 X148.944 Y135.485 E47.36603
G1 X144.265 Y144.007 E47.85107
G1 X143.965 Y144.469 E47.87855
G1 X143.602 Y144.884 E47.90606
G1 X143.183 Y145.241 E47.93352
G1 X142.716 Y145.534 E47.96102
G1 X142.212 Y145.757 E47.98852
G1 X141.681 Y145.904 E48.01601
G1 X141.135 Y145.973 E48.04346
G1 X140.584 Y145.962 E48.07096
G1 X140.04 Y145.871 E48.09848
G1 X139.518 Y145.704 E48.12582
G1 X133.546 Y143.306 E48.44689
G1 X133.051 Y143.064 E48.47437
G1 X132.596 Y142.754 E48.50184
G1 X132.191 Y142.38 E48.52935
G1 X131.844 Y141.952 E48.55683
G1 X131.563 Y141.478 E48.58433
G1 X131.353 Y140.969 E48.6118
G1 X131.219 Y140.434 E48.63931
G1 X131.163 Y139.886 E48.66679
G1 X131.188 Y139.336 E48.69426
G1 X131.292 Y138.795 E48.72175
G1 X131.569 Y138.069 E48.76051
G1 X132.224 Y136.769 E48.83314
G1 X128.033 Y136.324 E49.0434
G1 X128.697 Y139.175 E49.18945
G1 X128.783 Y139.72 E49.21697
G1 X128.789 Y140.271 E49.24446
G1 X128.715 Y140.817 E49.27195
G1 X128.563 Y141.346 E49.29941
G1 X128.336 Y141.848 E49.3269
G1 X128.039 Y142.313 E49.35443
G1 X127.678 Y142.729 E49.38191
G1 X127.261 Y143.088 E49.40936
G1 X126.796 Y143.384 E49.43686
G1 X126.293 Y143.609 E49.46435
G1 X125.763 Y143.759 E49.49183
G1 X125.216 Y143.831 E49.51936
G1 X124.665 Y143.823 E49.54685
G1 X124.121 Y143.735 E49.57434
G1 X123.596 Y143.57 E49.6018
G1 X123.156 Y143.362 E49.62608
G1 X114.599 Y138.625 E50.11404
G1 X114.137 Y138.323 E50.14157
G1 X113.724 Y137.959 E50.16904
G1 X113.368 Y137.538 E50.19655
G1 X113.077 Y137.071 E50.224
G1 X112.856 Y136.566 E50.2515
G1 X112.711 Y136.034 E50.27901
G1 X112.644 Y135.487 E50.3065
G1 X112.656 Y134.936 E50.334
G1 X112.704 Y134.613 E50.35029
G1 X112.468 Y134.59 E50.36212
G1 X111.934 Y134.457 E50.38958
G1 X111.424 Y134.248 E50.41707
G1 X110.949 Y133.968 E50.44458
G1 X110.567 Y133.665 E50.46891
G1 X108.393 Y131.701 E50.61507
G1 X106.753 Y135.585 E50.82541
G1 X108.211 Y135.642 E50.89821
G1 X108.758 Y135.703 E50.92567
G1 X109.291 Y135.843 E50.95316
G1 X109.798 Y136.058 E50.98064
G1 X110.269 Y136.345 E51.00815
G1 X110.693 Y136.696 E51.03561
G1 X111.062 Y137.106 E51.06313
G1 X111.368 Y137.564 E51.09061
G1 X111.605 Y138.062 E51.11813
G1 X111.767 Y138.588 E51.14559
G1 X111.851 Y139.133 E51.1731
G1 X111.834 Y139.908 E51.21177
G1 X111.039 Y146.294 E51.53283
G1 X110.931 Y146.835 E51.56036
G1 X110.747 Y147.354 E51.58783
G1 X110.489 Y147.841 E51.61532
G1 X110.164 Y148.286 E51.64281
G1 X109.777 Y148.679 E51.67033
G1 X109.338 Y149.011 E51.69779
G1 X108.856 Y149.277 E51.72526
G1 X108.34 Y149.471 E51.75276
G1 X107.801 Y149.587 E51.78027
G1 X107.255 Y149.625 E51.80757
G1 X97.533 Y149.591 E52.29261
G1 X96.983 Y149.549 E52.32013
G1 X96.446 Y149.428 E52.34759
G1 X95.931 Y149.231 E52.3751
G1 X95.451 Y148.961 E52.40258
G1 X95.014 Y148.625 E52.43008
G1 X94.631 Y148.229 E52.45756
G1 X94.309 Y147.782 E52.48505
G1 X94.055 Y147.293 E52.51254
G1 X93.925 Y146.915 E52.53248
G1 X89.678 Y146.903 E52.74436
G1 X89.128 Y146.861 E52.77188
G1 X88.591 Y146.741 E52.79934
G1 X88.076 Y146.544 E52.82685
G1 X87.596 Y146.274 E52.85432
G1 X87.159 Y145.938 E52.88182
G1 X86.776 Y145.543 E52.90927
G1 X86.453 Y145.096 E52.93679
G1 X86.205 Y144.619 E52.96361
G1 X71.32 Y110.41 E54.82487
G1 X61.924 Y105.853 E55.34586
G1 X61.447 Y105.577 E55.37335
G1 X61.015 Y105.235 E55.40084
G1 X60.636 Y104.835 E55.42833
G1 X60.32 Y104.384 E55.45581
G1 X60.073 Y103.891 E55.48332
G1 X59.899 Y103.368 E55.51081
G1 X59.802 Y102.826 E55.53828
G1 X59.793 Y102.15 E55.57201
G1 X60.665 Y90.535 E56.15312
G1 X60.684 Y90.068 E56.17644
G1 X60.796 Y89.296 E56.21535
G1 X63.225 Y79.638 E56.7122
G1 X63.329 Y79.21 E56.73417
G1 X63.498 Y78.685 E56.76169
G1 X63.791 Y78.107 E56.79402
G1 X64.115 Y77.611 E56.82358
G1 X67.116 Y73.59 E57.0739
G1 X67.433 Y73.211 E57.09855
G1 X72.191 Y67.406 E57.47301
G1 X72.57 Y67.006 E57.5005
G1 X72.77 Y66.855 E57.51301
G1 X76.112 Y63.588 E57.74617
G1 X76.533 Y63.232 E57.77368
G1 X77.001 Y62.941 E57.80117
G1 X77.506 Y62.721 E57.82865
G1 X78.037 Y62.576 E57.85612
G1 X78.584 Y62.509 E57.88361
G1 X79.135 Y62.523 E57.91111
G1 X79.678 Y62.616 E57.93859
G1 X80.202 Y62.786 E57.96608
G1 X80.842 Y63.121 E58.00212
G1 X85.978 Y66.467 E58.30793
G1 X86.417 Y66.801 E58.33545
G1 X86.803 Y67.194 E58.36293
G1 X87.128 Y67.639 E58.39043
G1 X87.385 Y68.126 E58.4179
G1 X87.569 Y68.646 E58.44542
G1 X87.675 Y69.186 E58.47287
G1 X87.703 Y69.737 E58.5004
G1 X87.651 Y70.285 E58.52786
G1 X87.52 Y70.82 E58.55534
G1 X87.313 Y71.331 E58.58285
G1 X87.034 Y71.806 E58.61033
G1 X86.689 Y72.236 E58.63783
G1 X86.286 Y72.612 E58.66533
G1 X85.954 Y72.851 E58.68574
G1 X83.526 Y74.407 E58.82961
G1 X79.956 Y77.449 E59.06361
G1 X79.936 Y80.135 E59.19762
G1 X79.858 Y80.873 E59.23464
G1 X78.216 Y88.85 E59.64096
G1 X107.902 Y115.396 E61.62779
G1 X111.391 Y116.517 E61.81062
G1 X105.161 Y89.165 E63.21017
G1 X97.392 Y86.741 E63.61619
G1 X96.709 Y86.452 E63.65319
G1 X94.343 Y85.166 E63.78754
G1 X89.948 Y86.818 E64.02179
G1 X87.413 Y88.185 E64.16547
G1 X86.91 Y88.411 E64.19299
M205 X10 Y10
G0 F6000 X86.747 Y88.045
M205 X8 Y8
G1 F1200 X86.244 Y88.181 E64.21898
G1 X85.726 Y88.239 E64.24499
G1 X85.205 Y88.217 E64.271
G1 X84.694 Y88.116 E64.29699
G1 X84.204 Y87.937 E64.32302
G1 X83.748 Y87.686 E64.34898
G1 X83.335 Y87.368 E64.37499
G1 X82.975 Y86.991 E64.401
G1 X82.677 Y86.563 E64.42702
G1 X82.449 Y86.095 E64.45299
G1 X82.294 Y85.597 E64.47901
G1 X82.218 Y85.085 E64.50483
G1 X81.778 Y78.972 E64.8106
G1 X81.78 Y78.451 E64.83659
G1 X81.862 Y77.936 E64.86261
G1 X82.022 Y77.44 E64.88861
G1 X82.256 Y76.974 E64.91463
G1 X82.558 Y76.55 E64.9406
G1 X82.922 Y76.176 E64.96663
G1 X83.338 Y75.863 E64.99261
G1 X83.798 Y75.617 E65.01863
G1 X84.194 Y75.471 E65.03969
G1 X88.663 Y74.134 E65.27241
G1 X88.843 Y74.052 E65.28228
G1 X89.389 Y73.904 E65.3105
G1 X96.773 Y72.551 E65.68503
G1 X97.242 Y72.461 E65.70885
G1 X102.212 Y71.782 E65.95911
G1 X102.796 Y71.743 E65.98831
G1 X103.317 Y71.761 E66.01432
G1 X103.831 Y71.86 E66.04043
