;FLAVOR:Marlin
;TIME:12805
;Filament used: 10.0248m
;Layer height: 0.2
;MINX:70.246
;MINY:51.379
;MINZ:0.3
;MAXX:139.754
;MAXY:158.621
;MAXZ:57.575
;Generated with Cura_SteamEngine 4.13.1
M82 ;absolute extrusion mode
G21                                        ; metric values 
G90                                        ; absolute positioning 
M82                                        ; set extruder to absolute mode 
M107                                       ; start with the fan off 
M140 S60           ; Start heating the bed 
G4 S60                                     ; wait 1 minute 
M104 S210         ; start heating the hot end 
M190 S60           ; wait for bed 
M109 S210         ; wait for hotend 
M300 S1000 P500                            ; BEEP heating done 
G28 X0 Y10 Z0                              ; move X/Y to min endstops 
M420 S1                                    ; Enable leveling 
M420 Z2.0                                  ; Set leveling fading height to 2 mm 
G0 Z0.15                                   ; lift nozzle a bit 
G92 E0                                     ; zero the extruded length 
G1 X50 E25 F500                            ; Extrude 25mm of filament in a 5cm line. 
G92 E0                                     ; zero the extruded length again 
G1 E-2 F500                                ; Retract a little 
G1 X120 F4000                              ; Quickly wipe away from the filament line`
G92 E0
G92 E0
G1 F1500 E-6
;LAYER_COUNT:287
;LAYER:0
M106 S76.5
M205 X10 Y10
G1 F600 Z0.375
G0 F6000 X77.372 Y59.201 Z0.375
M205 X8 Y8
;TYPE:SKIRT
G1 F600 Z0.3
G1 F1500 E0
G1 F1200 X77.85 Y58.572 E0.03941
G1 X78.388 Y57.994 E0.07881
G1 X78.982 Y57.474 E0.1182
G1 X79.626 Y57.016 E0.15762
G1 X80.312 Y56.626 E0.19699
G1 X81.035 Y56.308 E0.2364
G1 X81.786 Y56.063 E0.27581
G1 X82.557 Y55.897 E0.31515
G1 X82.998 Y55.848 E0.33729
G1 X83.201 Y55.432 E0.36038
G1 X83.619 Y54.761 E0.39982
G1 X84.102 Y54.137 E0.43919
G1 X84.645 Y53.564 E0.47858
G1 X85.244 Y53.049 E0.51799
G1 X85.892 Y52.598 E0.55738
G1 X86.582 Y52.214 E0.59677
G1 X87.308 Y51.902 E0.63619
G1 X88.061 Y51.665 E0.67558
G1 X88.834 Y51.505 E0.71496
G1 X90.005 Y51.414 E0.77356
G1 X105.18 Y51.379 E1.53064
G1 X120.006 Y51.414 E2.27032
G1 X120.795 Y51.456 E2.30974
G1 X121.575 Y51.577 E2.34912
G1 X122.339 Y51.777 E2.38852
G1 X123.079 Y52.053 E2.42792
G1 X123.788 Y52.402 E2.46735
G1 X124.457 Y52.821 E2.50673
G1 X125.08 Y53.306 E2.54612
G1 X125.652 Y53.851 E2.58554
G1 X126.165 Y54.451 E2.62492
G1 X126.615 Y55.1 E2.66432
G1 X126.997 Y55.791 E2.70371
G1 X127.021 Y55.848 E2.7068
G1 X127.539 Y55.913 E2.73284
G1 X128.308 Y56.089 E2.7722
G1 X129.056 Y56.343 E2.81161
G1 X129.775 Y56.671 E2.85104
G1 X130.456 Y57.069 E2.89039
G1 X131.094 Y57.535 E2.92981
G1 X131.682 Y58.063 E2.96923
G1 X132.213 Y58.647 E3.00861
G1 X132.682 Y59.282 E3.048
G1 X133.085 Y59.962 E3.08743
G1 X133.379 Y60.588 E3.12194
G1 X139.151 Y74.408 E3.86914
G1 X139.419 Y75.151 E3.90855
G1 X139.609 Y75.917 E3.94792
G1 X139.721 Y76.699 E3.98733
G1 X139.754 Y77.488 E4.02673
G1 X139.706 Y78.276 E4.06612
G1 X139.579 Y79.056 E4.10554
G1 X139.374 Y79.818 E4.14491
G1 X139.093 Y80.556 E4.18431
G1 X138.739 Y81.262 E4.22371
G1 X138.315 Y81.928 E4.2631
G1 X137.826 Y82.548 E4.30249
G1 X137.277 Y83.116 E4.3419
G1 X136.673 Y83.625 E4.38131
G1 X136.021 Y84.07 E4.42069
G1 X135.327 Y84.447 E4.4601
G1 X134.598 Y84.752 E4.49952
G1 X133.843 Y84.982 E4.5389
G1 X133.637 Y85.022 E4.54937
G1 X133.546 Y85.701 E4.58355
G1 X132.021 Y93.368 E4.97355
G1 X130.873 Y103.672 E5.4908
G1 X134.748 Y109.471 E5.83876
G1 X135.153 Y110.149 E5.87816
G1 X135.488 Y110.864 E5.91755
G1 X135.748 Y111.61 E5.95696
G1 X135.913 Y112.282 E5.99149
G1 X137.83 Y121.918 E6.48165
G1 X137.945 Y122.699 E6.52103
G1 X137.98 Y123.457 E6.55889
G1 X137.919 Y150.838 E7.92494
G1 X137.877 Y151.627 E7.96436
G1 X137.756 Y152.407 E8.00374
G1 X137.556 Y153.171 E8.04314
G1 X137.281 Y153.911 E8.08252
G1 X136.932 Y154.62 E8.12195
G1 X136.513 Y155.289 E8.16133
G1 X136.028 Y155.913 E8.20076
G1 X135.483 Y156.484 E8.24014
G1 X134.883 Y156.997 E8.27952
G1 X134.234 Y157.447 E8.31892
G1 X133.543 Y157.829 E8.35832
G1 X132.817 Y158.14 E8.39772
G1 X132.063 Y158.375 E8.43712
G1 X131.289 Y158.533 E8.47653
G1 X130.119 Y158.621 E8.53507
G1 X79.293 Y158.621 E11.07079
G1 X78.504 Y158.581 E11.1102
G1 X77.724 Y158.462 E11.14957
G1 X76.959 Y158.264 E11.18899
G1 X76.219 Y157.99 E11.22836
G1 X75.51 Y157.642 E11.26776
G1 X74.839 Y157.224 E11.3072
G1 X74.215 Y156.741 E11.34657
G1 X73.642 Y156.198 E11.38596
G1 X73.127 Y155.599 E11.42537
G1 X72.676 Y154.951 E11.46475
G1 X72.292 Y154.26 E11.50419
G1 X71.98 Y153.535 E11.54357
G1 X71.743 Y152.782 E11.58296
G1 X71.584 Y152.008 E11.62238
G1 X71.503 Y151.223 E11.66175
G1 X71.495 Y150.667 E11.68949
G1 X72.034 Y123.286 E13.0558
G1 X72.089 Y122.499 E13.09516
G1 X72.182 Y121.919 E13.12446
G1 X74.098 Y112.283 E13.61462
G1 X74.291 Y111.517 E13.65403
G1 X74.56 Y110.775 E13.6934
G1 X74.903 Y110.064 E13.73279
G1 X75.263 Y109.471 E13.7674
G1 X79.138 Y103.672 E14.11536
G1 X77.989 Y93.365 E14.63276
G1 X76.466 Y85.701 E15.0226
G1 X76.366 Y85.023 E15.05679
G1 X76.141 Y84.978 E15.06824
G1 X75.386 Y84.746 E15.10764
G1 X74.658 Y84.44 E15.14704
G1 X73.965 Y84.061 E15.18645
G1 X73.314 Y83.614 E15.22584
G1 X72.711 Y83.104 E15.26524
G1 X72.163 Y82.536 E15.30462
G1 X71.675 Y81.915 E15.34402
G1 X71.253 Y81.247 E15.38344
G1 X70.9 Y80.541 E15.42282
G1 X70.621 Y79.802 E15.46223
G1 X70.417 Y79.039 E15.50164
G1 X70.292 Y78.26 E15.541
G1 X70.246 Y77.471 E15.58043
G1 X70.28 Y76.682 E15.61983
G1 X70.394 Y75.901 E15.65921
G1 X70.586 Y75.135 E15.6986
G1 X70.849 Y74.408 E15.73717
G1 X76.621 Y60.588 E16.48438
G1 X76.961 Y59.876 E16.52374
G1 X77.372 Y59.201 E16.56317
M205 X10 Y10
G0 F6000 X77.726 Y59.394
M205 X8 Y8
G1 F1200 X78.195 Y58.784 E16.60156
G1 X78.724 Y58.226 E16.63992
G1 X79.309 Y57.726 E16.67831
G1 X79.942 Y57.29 E16.71666
G1 X80.618 Y56.922 E16.75506
G1 X81.327 Y56.626 E16.79339
G1 X82.064 Y56.405 E16.83177
G1 X82.82 Y56.262 E16.87016
G1 X83.253 Y56.225 E16.89184
G1 X83.6 Y55.539 E16.93019
G1 X84.016 Y54.892 E16.96857
G1 X84.498 Y54.292 E17.00697
G1 X85.038 Y53.745 E17.04531
G1 X85.633 Y53.257 E17.08371
G1 X86.275 Y52.833 E17.12209
G1 X86.958 Y52.479 E17.16047
G1 X87.673 Y52.197 E17.19882
G1 X88.414 Y51.991 E17.23719
G1 X89.173 Y51.863 E17.27559
G1 X90.006 Y51.814 E17.31722
G1 X105.179 Y51.779 E18.0742
G1 X120.005 Y51.814 E18.81388
G1 X120.773 Y51.856 E18.85225
G1 X121.533 Y51.977 E18.89065
G1 X122.276 Y52.177 E18.92903
G1 X122.994 Y52.452 E18.96739
G1 X123.68 Y52.801 E19.00579
G1 X124.325 Y53.218 E19.04411
G1 X124.924 Y53.701 E19.0825
G1 X125.47 Y54.243 E19.12088
G1 X125.956 Y54.839 E19.15925
G1 X126.378 Y55.482 E19.19762
G1 X126.731 Y56.166 E19.23602
G1 X126.885 Y56.227 E19.24429
G1 X127.646 Y56.34 E19.28267
G1 X128.391 Y56.531 E19.32104
G1 X129.112 Y56.799 E19.35941
G1 X129.802 Y57.14 E19.39781
G1 X130.452 Y57.55 E19.43615
G1 X131.056 Y58.026 E19.47452
G1 X131.608 Y58.562 E19.51291
G1 X132.101 Y59.153 E19.5513
G1 X132.53 Y59.791 E19.58966
G1 X133.01 Y60.742 E19.64281
G1 X138.782 Y74.562 E20.39001
G1 X139.042 Y75.286 E20.42839
G1 X139.224 Y76.033 E20.46675
G1 X139.328 Y76.796 E20.50516
G1 X139.352 Y77.564 E20.5435
G1 X139.297 Y78.331 E20.58186
G1 X139.162 Y79.089 E20.62027
G1 X138.949 Y79.828 E20.65864
G1 X138.661 Y80.541 E20.69701
G1 X138.3 Y81.22 E20.73537
G1 X137.871 Y81.858 E20.77373
G1 X137.377 Y82.448 E20.81212
G1 X136.826 Y82.984 E20.85047
G1 X136.221 Y83.46 E20.88888
G1 X135.57 Y83.87 E20.92726
G1 X134.881 Y84.211 E20.96561
G1 X134.16 Y84.478 E21.00397
G1 X133.414 Y84.668 E21.04238
G1 X133.275 Y84.738 E21.05014
G1 X133.154 Y85.623 E21.09471
G1 X131.624 Y93.315 E21.48598
G1 X130.459 Y103.771 E22.01086
G1 X134.416 Y109.693 E22.3662
G1 X134.809 Y110.354 E22.40456
G1 X135.132 Y111.052 E22.44293
G1 X135.381 Y111.78 E22.48132
G1 X135.521 Y112.36 E22.51109
G1 X137.438 Y121.996 E23.00125
G1 X137.548 Y122.757 E23.03961
G1 X137.58 Y123.456 E23.07452
G1 X137.519 Y150.837 E24.44057
G1 X137.477 Y151.606 E24.47899
G1 X137.356 Y152.365 E24.51733
G1 X137.157 Y153.108 E24.55571
G1 X136.881 Y153.826 E24.59409
G1 X136.533 Y154.512 E24.63246
G1 X136.115 Y155.158 E24.67085
G1 X135.633 Y155.757 E24.70921
G1 X135.091 Y156.302 E24.74755
G1 X134.495 Y156.789 E24.78595
G1 X133.852 Y157.211 E24.82432
G1 X133.168 Y157.564 E24.86273
G1 X132.452 Y157.844 E24.90108
G1 X131.71 Y158.048 E24.93947
G1 X130.952 Y158.174 E24.97781
G1 X130.119 Y158.221 E25.01943
G1 X79.293 Y158.221 E27.55515
G1 X78.525 Y158.181 E27.59352
G1 X77.765 Y158.062 E27.6319
G1 X77.022 Y157.864 E27.67026
G1 X76.303 Y157.59 E27.70865
G1 X75.617 Y157.243 E27.747
G1 X74.97 Y156.827 E27.78538
G1 X74.37 Y156.346 E27.82374
G1 X73.823 Y155.805 E27.86213
G1 X73.335 Y155.21 E27.90052
G1 X72.912 Y154.568 E27.93888
G1 X72.557 Y153.885 E27.97728
G1 X72.276 Y153.17 E28.01561
G1 X72.07 Y152.428 E28.05402
G1 X71.942 Y151.67 E28.09238
G1 X71.894 Y150.675 E28.14208
G1 X72.433 Y123.294 E29.50838
G1 X72.489 Y122.527 E29.54675
G1 X72.574 Y121.997 E29.57353
G1 X74.49 Y112.361 E30.06368
G1 X74.679 Y111.615 E30.10208
G1 X74.944 Y110.893 E30.14045
G1 X75.283 Y110.203 E30.1788
G1 X75.595 Y109.693 E30.20863
G1 X79.552 Y103.771 E30.56397
G1 X78.387 Y93.314 E31.0889
G1 X76.858 Y85.623 E31.48011
G1 X76.747 Y84.862 E31.51848
G1 X76.74 Y84.69 E31.52707
G1 X76.2 Y84.58 E31.55456
G1 X75.466 Y84.35 E31.59294
G1 X74.76 Y84.044 E31.63132
G1 X74.089 Y83.667 E31.66972
G1 X73.462 Y83.223 E31.70805
G1 X72.883 Y82.716 E31.74645
G1 X72.361 Y82.151 E31.78483
G1 X71.9 Y81.535 E31.82321
G1 X71.505 Y80.875 E31.86159
G1 X71.181 Y80.178 E31.89993
G1 X70.932 Y79.45 E31.93832
G1 X70.759 Y78.701 E31.97667
G1 X70.665 Y77.937 E32.01507
G1 X70.65 Y77.168 E32.05345
G1 X70.716 Y76.402 E32.0918
G1 X70.86 Y75.647 E32.13015
G1 X71.218 Y74.562 E32.18715
G1 X76.99 Y60.742 E32.93435
G1 X77.323 Y60.049 E32.97271
G1 X77.726 Y59.394 E33.01108
M205 X10 Y10
G0 F6000 X78.078 Y59.587
M205 X8 Y8
G1 F1200 X78.539 Y58.997 E33.04843
G1 X79.059 Y58.46 E33.08573
G1 X79.634 Y57.982 E33.12303
G1 X80.257 Y57.567 E33.16038
G1 X80.921 Y57.222 E33.19771
G1 X81.617 Y56.949 E33.23501
G1 X82.339 Y56.752 E33.27235
G1 X83.077 Y56.633 E33.30964
G1 X83.537 Y56.609 E33.33262
G1 X83.653 Y56.312 E33.34853
G1 X83.999 Y55.649 E33.38584
G1 X84.414 Y55.026 E33.42319
G1 X84.893 Y54.452 E33.46048
G1 X85.43 Y53.931 E33.49781
G1 X86.02 Y53.471 E33.53514
G1 X86.656 Y53.077 E33.57246
G1 X87.33 Y52.753 E33.60977
G1 X88.035 Y52.502 E33.64711
G1 X88.763 Y52.328 E33.68445
G1 X89.505 Y52.233 E33.72177
G1 X90.007 Y52.214 E33.74683
G1 X105.179 Y52.179 E34.50377
G1 X120.005 Y52.214 E35.24344
G1 X120.751 Y52.256 E35.28072
G1 X121.49 Y52.377 E35.31808
G1 X122.211 Y52.576 E35.3554
G1 X122.906 Y52.851 E35.39269
G1 X123.569 Y53.199 E35.43004
G1 X124.19 Y53.616 E35.46736
G1 X124.763 Y54.096 E35.50465
G1 X125.282 Y54.635 E35.54198
G1 X125.741 Y55.226 E35.57932
G1 X126.134 Y55.863 E35.61666
G1 X126.456 Y56.537 E35.65393
G1 X126.481 Y56.608 E35.65768
G1 X127.01 Y56.643 E35.68413
G1 X127.747 Y56.771 E35.72145
G1 X128.466 Y56.977 E35.75876
G1 X129.16 Y57.259 E35.79614
G1 X129.819 Y57.613 E35.83346
G1 X130.436 Y58.035 E35.87075
G1 X131.005 Y58.521 E35.90808
G1 X131.519 Y59.064 E35.94539
G1 X131.972 Y59.66 E35.98274
G1 X132.359 Y60.3 E36.02005
G1 X132.641 Y60.896 E36.05294
G1 X138.413 Y74.716 E36.80015
G1 X138.664 Y75.421 E36.83748
G1 X138.839 Y76.148 E36.87479
G1 X138.934 Y76.89 E36.91211
G1 X138.95 Y77.638 E36.94943
G1 X138.887 Y78.384 E36.98679
G1 X138.743 Y79.118 E37.0241
G1 X138.523 Y79.833 E37.06142
G1 X138.227 Y80.52 E37.09875
G1 X137.86 Y81.171 E37.13603
G1 X137.425 Y81.78 E37.17337
G1 X136.928 Y82.339 E37.21068
G1 X136.374 Y82.842 E37.24802
G1 X135.77 Y83.283 E37.28533
G1 X135.122 Y83.656 E37.32263
G1 X134.437 Y83.959 E37.36
G1 X133.725 Y84.186 E37.39728
G1 X132.992 Y84.337 E37.43462
G1 X132.884 Y84.347 E37.44003
G1 X132.873 Y84.749 E37.46009
G1 X132.762 Y85.545 E37.50019
G1 X131.229 Y93.252 E37.89223
G1 X130.046 Y103.873 E38.42539
G1 X134.083 Y109.915 E38.78792
G1 X134.465 Y110.558 E38.82523
G1 X134.776 Y111.239 E38.86258
G1 X135.013 Y111.948 E38.89988
G1 X135.128 Y112.438 E38.92499
G1 X137.045 Y122.074 E39.41515
G1 X137.152 Y122.815 E39.4525
G1 X137.18 Y123.456 E39.48451
G1 X137.119 Y150.837 E40.85056
G1 X137.077 Y151.583 E40.88784
G1 X136.956 Y152.322 E40.9252
G1 X136.757 Y153.043 E40.96251
G1 X136.482 Y153.738 E40.9998
G1 X136.134 Y154.401 E41.03716
G1 X135.718 Y155.022 E41.07445
G1 X135.238 Y155.596 E41.11178
G1 X134.699 Y156.115 E41.14911
G1 X134.108 Y156.573 E41.18641
G1 X133.471 Y156.966 E41.22376
G1 X132.796 Y157.289 E41.26109
G1 X132.091 Y157.538 E41.29839
G1 X131.363 Y157.71 E41.33571
G1 X130.621 Y157.803 E41.37302
G1 X130.119 Y157.821 E41.39808
G1 X79.293 Y157.821 E43.9338
G1 X78.546 Y157.781 E43.97112
G1 X77.808 Y157.662 E44.00842
G1 X77.086 Y157.464 E44.04577
G1 X76.39 Y157.191 E44.08307
G1 X75.727 Y156.844 E44.1204
G1 X75.104 Y156.429 E44.15775
G1 X74.53 Y155.95 E44.19504
G1 X74.009 Y155.413 E44.23237
G1 X73.55 Y154.823 E44.26967
G1 X73.155 Y154.187 E44.30702
G1 X72.831 Y153.513 E44.34433
G1 X72.581 Y152.808 E44.38165
G1 X72.407 Y152.08 E44.41899
G1 X72.312 Y151.338 E44.45631
G1 X72.294 Y150.683 E44.489
G1 X72.833 Y123.302 E45.85531
G1 X72.888 Y122.556 E45.89263
G1 X72.966 Y122.075 E45.91694
G1 X74.882 Y112.439 E46.40709
G1 X75.067 Y111.714 E46.44442
G1 X75.328 Y111.013 E46.48174
G1 X75.663 Y110.344 E46.51907
G1 X75.928 Y109.915 E46.54422
G1 X79.965 Y103.873 E46.90675
G1 X78.782 Y93.25 E47.44001
G1 X77.25 Y85.545 E47.83194
G1 X77.144 Y84.804 E47.86929
G1 X77.127 Y84.347 E47.8921
G1 X76.992 Y84.334 E47.89887
G1 X76.26 Y84.182 E47.93617
G1 X75.548 Y83.953 E47.97348
G1 X74.864 Y83.649 E48.01083
G1 X74.217 Y83.274 E48.04813
G1 X73.613 Y82.832 E48.08548
G1 X73.061 Y82.328 E48.12277
G1 X72.565 Y81.768 E48.16009
G1 X72.131 Y81.158 E48.19744
G1 X71.766 Y80.505 E48.23476
G1 X71.472 Y79.818 E48.27204
G1 X71.253 Y79.102 E48.3094
G1 X71.111 Y78.368 E48.34669
G1 X71.049 Y77.622 E48.38404
G1 X71.067 Y76.874 E48.42137
G1 X71.164 Y76.133 E48.45865
G1 X71.34 Y75.406 E48.49597
G1 X71.587 Y74.716 E48.53254
G1 X77.359 Y60.896 E49.27974
G1 X77.684 Y60.222 E49.31707
G1 X78.078 Y59.587 E49.35435
M205 X10 Y10
G0 F6000 X78.431 Y59.781
M205 X8 Y8
G1 F1200 X78.882 Y59.213 E49.39054
G1 X79.393 Y58.697 E49.42677
G1 X79.958 Y58.24 E49.46302
G1 X80.57 Y57.848 E49.49928
G1 X81.221 Y57.526 E49.53551
G1 X81.904 Y57.278 E49.57177
G1 X82.609 Y57.106 E49.60797
G1 X83.33 Y57.012 E49.64425
G1 X83.808 Y57.003 E49.6681
G1 X84.052 Y56.401 E49.7005
G1 X84.398 Y55.762 E49.73676
G1 X84.811 Y55.165 E49.77297
G1 X85.288 Y54.617 E49.80922
G1 X85.821 Y54.124 E49.84544
G1 X86.406 Y53.693 E49.88169
G1 X87.035 Y53.329 E49.91795
G1 X87.699 Y53.037 E49.95414
G1 X88.392 Y52.819 E49.99038
G1 X89.105 Y52.678 E50.02665
G1 X90.008 Y52.614 E50.07181
G1 X105.178 Y52.579 E50.82865
G1 X120.004 Y52.614 E51.56832
G1 X120.729 Y52.656 E51.60455
G1 X121.445 Y52.777 E51.64078
G1 X122.143 Y52.976 E51.67699
G1 X122.816 Y53.251 E51.71326
G1 X123.454 Y53.597 E51.74947
G1 X124.05 Y54.012 E51.7857
G1 X124.597 Y54.49 E51.82194
G1 X125.088 Y55.025 E51.85817
G1 X125.518 Y55.611 E51.89443
G1 X125.88 Y56.241 E51.93068
G1 X126.171 Y56.906 E51.9669
G1 X126.201 Y57.002 E51.97192
G1 X126.407 Y56.998 E51.9822
G1 X127.13 Y57.062 E52.01841
G1 X127.842 Y57.206 E52.05465
G1 X128.534 Y57.427 E52.09089
G1 X129.197 Y57.723 E52.12712
G1 X129.824 Y58.09 E52.16336
G1 X130.407 Y58.524 E52.19962
G1 X130.939 Y59.019 E52.23588
G1 X131.413 Y59.569 E52.2721
G1 X131.823 Y60.168 E52.30831
