;FLAVOR:Marlin
;TIME:4359
;Filament used: 2.16121m
;Layer height: 0.2
;MINX:82.438
;MINY:81.326
;MINZ:0.3
;MAXX:127.582
;MAXY:128.675
;MAXZ:73.775
;Generated with Cura_SteamEngine 4.13.1
M82 ;absolute extrusion mode
G21                                        ; metric values 
G90                                        ; absolute positioning 
M82                                        ; set extruder to absolute mode 
M107                                       ; start with the fan off 
M140 S60           ; Start heating the bed 
G4 S60                                     ; wait 1 minute 
M104 S210         ; start heating the hot end 
M190 S60           ; wait for bed 
M109 S210         ; wait for hotend 
M300 S1000 P500                            ; BEEP heating done 
G28 X0 Y10 Z0                              ; move X/Y to min endstops 
M420 S1                                    ; Enable leveling 
M420 Z2.0                                  ; Set leveling fading height to 2 mm 
G0 Z0.15                                   ; lift nozzle a bit 
G92 E0                                     ; zero the extruded length 
G1 X50 E25 F500                            ; Extrude 25mm of filament in a 5cm line. 
G92 E0                                     ; zero the extruded length again 
G1 E-2 F500                                ; Retract a little 
G1 X120 F4000                              ; Quickly wipe away from the filament line`
G92 E0
G92 E0
G1 F1500 E-6
;LAYER_COUNT:368
;LAYER:0
M106 S76.5
M205 X10 Y10
G1 F600 Z0.375
G0 F6000 X85.168 Y85.443 Z0.375
M205 X8 Y8
;TYPE:SKIRT
G1 F600 Z0.3
G1 F1500 E0
G1 F1200 X85.77 Y84.931 E0.03943
G1 X86.185 Y84.634 E0.06489
G1 X88.397 Y83.157 E0.19759
G1 X89.075 Y82.752 E0.23699
G1 X89.79 Y82.418 E0.27636
G1 X90.536 Y82.158 E0.31577
G1 X91.209 Y81.993 E0.35034
G1 X93.818 Y81.475 E0.48305
G1 X94.599 Y81.361 E0.52242
G1 X95.388 Y81.326 E0.56183
G1 X96.177 Y81.371 E0.60125
G1 X96.856 Y81.475 E0.63552
G1 X99.465 Y81.993 E0.76823
G1 X100.231 Y82.186 E0.80764
G1 X100.973 Y82.455 E0.84701
G1 X101.684 Y82.798 E0.8864
G1 X102.282 Y83.16 E0.92127
G1 X104.15 Y84.409 E1.03338
G1 X106.026 Y83.157 E1.1459
G1 X106.704 Y82.752 E1.1853
G1 X107.419 Y82.418 E1.22468
G1 X108.165 Y82.158 E1.26409
G1 X108.838 Y81.993 E1.29866
G1 X111.447 Y81.475 E1.43136
G1 X112.228 Y81.361 E1.47074
G1 X113.017 Y81.326 E1.51014
G1 X113.806 Y81.371 E1.54957
G1 X114.486 Y81.475 E1.58389
G1 X117.094 Y81.993 E1.71655
G1 X117.859 Y82.186 E1.75591
G1 X118.602 Y82.456 E1.79535
G1 X119.313 Y82.799 E1.83473
G1 X119.909 Y83.159 E1.86947
G1 X122.12 Y84.637 E2.00215
G1 X122.753 Y85.109 E2.04155
G1 X123.336 Y85.642 E2.08096
G1 X123.861 Y86.231 E2.12032
G1 X124.268 Y86.785 E2.15462
G1 X125.747 Y88.996 E2.28733
G1 X126.152 Y89.674 E2.32673
G1 X126.487 Y90.389 E2.36612
G1 X126.748 Y91.135 E2.40555
G1 X126.915 Y91.814 E2.44044
G1 X127.433 Y94.423 E2.57314
G1 X127.547 Y95.204 E2.61252
G1 X127.582 Y95.993 E2.65192
G1 X127.537 Y96.782 E2.69135
G1 X127.433 Y97.461 E2.72562
G1 X126.915 Y100.07 E2.85832
G1 X126.722 Y100.836 E2.89773
G1 X126.453 Y101.578 E2.93711
G1 X126.11 Y102.289 E2.97649
G1 X125.746 Y102.889 E3.0115
G1 X124.267 Y105.099 E3.14417
G1 X123.795 Y105.732 E3.18357
G1 X123.262 Y106.315 E3.22298
G1 X122.95 Y106.592 E3.24379
G1 X123.511 Y107.275 E3.28789
G1 X123.98 Y107.91 E3.32727
G1 X124.361 Y108.546 E3.36426
G1 X124.877 Y109.51 E3.41881
G1 X125.214 Y110.224 E3.4582
G1 X125.465 Y110.93 E3.49558
G1 X125.78 Y111.97 E3.5498
G1 X125.97 Y112.736 E3.58917
G1 X126.077 Y113.465 E3.62593
G1 X126.184 Y114.549 E3.68027
G1 X126.222 Y115.338 E3.71968
G1 X126.185 Y116.078 E3.75665
G1 X126.078 Y117.166 E3.81119
G1 X125.961 Y117.947 E3.85059
G1 X125.78 Y118.664 E3.88748
G1 X125.465 Y119.704 E3.9417
G1 X125.198 Y120.447 E3.98109
G1 X124.878 Y121.121 E4.01831
G1 X124.363 Y122.084 E4.07279
G1 X123.956 Y122.761 E4.1122
G1 X123.512 Y123.357 E4.14928
G1 X122.822 Y124.197 E4.20351
G1 X122.291 Y124.781 E4.24289
G1 X121.751 Y125.269 E4.27921
G1 X120.91 Y125.961 E4.33354
G1 X120.276 Y126.431 E4.37292
G1 X119.629 Y126.818 E4.41053
G1 X118.665 Y127.333 E4.46505
G1 X117.951 Y127.669 E4.50442
G1 X117.249 Y127.919 E4.5416
G1 X116.208 Y128.234 E4.59586
G1 X115.442 Y128.424 E4.63524
G1 X114.715 Y128.53 E4.67189
G1 X113.63 Y128.637 E4.72628
G1 X112.841 Y128.675 E4.76569
G1 X112.098 Y128.637 E4.80281
G1 X111.013 Y128.53 E4.8572
G1 X110.233 Y128.413 E4.89655
G1 X109.52 Y128.234 E4.93323
G1 X108.479 Y127.919 E4.98749
G1 X107.736 Y127.652 E5.02688
G1 X107.063 Y127.333 E5.06404
G1 X106.099 Y126.818 E5.11856
G1 X105.422 Y126.411 E5.15797
G1 X104.818 Y125.961 E5.19555
G1 X104.33 Y125.559 E5.22709
G1 X103.842 Y125.961 E5.25864
G1 X103.208 Y126.431 E5.29801
G1 X102.561 Y126.818 E5.33562
G1 X101.597 Y127.333 E5.39015
G1 X100.883 Y127.669 E5.42952
G1 X100.181 Y127.919 E5.4667
G1 X99.14 Y128.234 E5.52096
G1 X98.374 Y128.424 E5.56033
G1 X97.647 Y128.53 E5.59699
G1 X96.562 Y128.637 E5.65138
G1 X95.773 Y128.675 E5.69079
G1 X95.03 Y128.637 E5.7279
G1 X93.945 Y128.53 E5.7823
G1 X93.165 Y128.413 E5.82165
G1 X92.452 Y128.234 E5.85832
G1 X91.411 Y127.919 E5.91258
G1 X90.668 Y127.652 E5.95197
G1 X89.995 Y127.333 E5.98913
G1 X89.031 Y126.818 E6.04366
G1 X88.354 Y126.411 E6.08307
G1 X87.75 Y125.961 E6.12064
G1 X86.909 Y125.269 E6.17498
G1 X86.325 Y124.737 E6.21439
G1 X85.838 Y124.197 E6.25067
G1 X85.148 Y123.357 E6.30491
G1 X84.678 Y122.722 E6.34432
G1 X84.297 Y122.084 E6.38139
G1 X83.782 Y121.121 E6.43588
G1 X83.445 Y120.407 E6.47527
G1 X83.195 Y119.704 E6.51249
G1 X82.88 Y118.664 E6.5667
G1 X82.69 Y117.898 E6.60608
G1 X82.583 Y117.169 E6.64284
G1 X82.476 Y116.085 E6.69718
G1 X82.438 Y115.296 E6.73659
G1 X82.475 Y114.556 E6.77356
G1 X82.582 Y113.468 E6.8281
G1 X82.699 Y112.687 E6.8675
G1 X82.88 Y111.97 E6.90439
G1 X83.195 Y110.93 E6.9586
G1 X83.462 Y110.187 E6.99799
G1 X83.783 Y109.51 E7.03537
G1 X84.299 Y108.546 E7.08992
G1 X84.707 Y107.87 E7.12932
G1 X85.148 Y107.277 E7.16619
G1 X85.555 Y106.781 E7.1982
G1 X84.966 Y106.243 E7.23799
G1 X84.441 Y105.654 E7.27736
G1 X83.977 Y105.014 E7.3168
G1 X83.581 Y104.332 E7.35614
G1 X83.255 Y103.612 E7.39557
G1 X83.004 Y102.863 E7.43498
G1 X82.83 Y102.093 E7.47437
G1 X82.735 Y101.309 E7.51377
G1 X82.72 Y100.519 E7.55319
G1 X82.784 Y99.732 E7.59258
G1 X82.928 Y98.956 E7.63196
G1 X83.149 Y98.198 E7.67135
G1 X83.446 Y97.466 E7.71076
G1 X83.816 Y96.768 E7.75017
G1 X84.254 Y96.111 E7.78957
G1 X84.395 Y95.94 E7.80062
G1 X84.09 Y95.542 E7.82564
G1 X83.676 Y94.87 E7.86502
G1 X83.332 Y94.159 E7.90442
G1 X83.062 Y93.417 E7.94382
G1 X82.868 Y92.652 E7.98319
G1 X82.752 Y91.87 E8.02263
G1 X82.716 Y91.082 E8.06199
G1 X82.76 Y90.293 E8.10141
G1 X82.884 Y89.513 E8.14081
G1 X83.085 Y88.75 E8.18018
G1 X83.363 Y88.01 E8.21962
G1 X83.714 Y87.303 E8.259
G1 X84.135 Y86.635 E8.29839
G1 X84.621 Y86.013 E8.33777
G1 X85.168 Y85.443 E8.37718
M205 X10 Y10
G0 F6000 X85.68 Y85.52
M205 X8 Y8
G1 F1200 X86.407 Y84.967 E8.42276
G1 X88.619 Y83.49 E8.55545
G1 X89.28 Y83.097 E8.59382
G1 X89.978 Y82.774 E8.63219
G1 X90.706 Y82.526 E8.67056
G1 X91.287 Y82.386 E8.70038
G1 X93.896 Y81.868 E8.83308
G1 X94.657 Y81.757 E8.87145
G1 X95.426 Y81.727 E8.90984
G1 X96.193 Y81.776 E8.94819
G1 X96.778 Y81.868 E8.97773
G1 X99.387 Y82.386 E9.11044
G1 X100.133 Y82.574 E9.14882
G1 X100.855 Y82.84 E9.1872
G1 X101.545 Y83.178 E9.22554
G1 X102.06 Y83.493 E9.25566
G1 X104.15 Y84.891 E9.3811
G1 X106.248 Y83.49 E9.50696
G1 X106.909 Y83.097 E9.54533
G1 X107.607 Y82.774 E9.5837
G1 X108.335 Y82.526 E9.62207
G1 X108.916 Y82.386 E9.65189
G1 X111.525 Y81.868 E9.78459
G1 X112.286 Y81.757 E9.82296
G1 X113.055 Y81.727 E9.86135
G1 X113.822 Y81.776 E9.8997
G1 X114.408 Y81.868 E9.92929
G1 X117.016 Y82.386 E10.06195
G1 X117.761 Y82.575 E10.10029
G1 X118.483 Y82.84 E10.13866
G1 X119.174 Y83.179 E10.17706
G1 X119.686 Y83.492 E10.207
G1 X121.897 Y84.97 E10.33968
G1 X122.514 Y85.43 E10.37808
G1 X123.079 Y85.952 E10.41646
G1 X123.587 Y86.529 E10.45481
G1 X123.936 Y87.008 E10.48438
G1 X125.415 Y89.219 E10.61709
G1 X125.809 Y89.879 E10.65544
G1 X126.132 Y90.577 E10.69381
G1 X126.381 Y91.305 E10.7322
G1 X126.522 Y91.892 E10.76231
G1 X127.04 Y94.501 E10.89502
G1 X127.151 Y95.262 E10.93339
G1 X127.181 Y96.031 E10.97178
G1 X127.132 Y96.798 E11.01012
G1 X127.04 Y97.383 E11.03967
G1 X126.522 Y99.992 E11.17237
G1 X126.334 Y100.738 E11.21076
G1 X126.068 Y101.46 E11.24914
G1 X125.73 Y102.15 E11.28748
G1 X125.414 Y102.667 E11.31771
G1 X123.935 Y104.877 E11.45038
G1 X123.474 Y105.493 E11.48876
G1 X122.953 Y106.058 E11.5271
G1 X122.389 Y106.553 E11.56454
G1 X122.511 Y106.688 E11.57362
G1 X123.202 Y107.529 E11.62792
G1 X123.658 Y108.148 E11.66628
G1 X124.008 Y108.735 E11.70038
G1 X124.524 Y109.699 E11.75493
G1 X124.851 Y110.395 E11.79329
G1 X125.082 Y111.046 E11.82776
G1 X125.397 Y112.086 E11.88197
G1 X125.582 Y112.833 E11.92036
G1 X125.679 Y113.504 E11.95419
G1 X125.786 Y114.588 E12.00853
G1 X125.822 Y115.356 E12.04689
G1 X125.786 Y116.039 E12.08101
G1 X125.679 Y117.127 E12.13555
G1 X125.565 Y117.888 E12.17394
G1 X125.397 Y118.548 E12.20792
G1 X125.082 Y119.588 E12.26213
G1 X124.821 Y120.312 E12.30053
G1 X124.525 Y120.933 E12.33485
G1 X124.01 Y121.896 E12.38933
G1 X123.613 Y122.554 E12.42767
G1 X123.203 Y123.103 E12.46186
G1 X122.513 Y123.943 E12.51609
G1 X121.995 Y124.511 E12.55445
G1 X121.497 Y124.96 E12.5879
G1 X120.656 Y125.652 E12.64223
G1 X120.037 Y126.109 E12.68062
G1 X119.441 Y126.465 E12.71526
G1 X118.477 Y126.98 E12.76978
G1 X117.781 Y127.307 E12.80815
G1 X117.133 Y127.536 E12.84244
G1 X116.092 Y127.851 E12.8967
G1 X115.345 Y128.035 E12.93508
G1 X114.675 Y128.132 E12.96885
G1 X113.59 Y128.239 E13.02325
G1 X112.822 Y128.275 E13.06161
G1 X112.138 Y128.239 E13.09578
G1 X111.053 Y128.132 E13.15017
G1 X110.292 Y128.017 E13.18857
G1 X109.636 Y127.851 E13.22233
G1 X108.595 Y127.536 E13.27659
G1 X107.871 Y127.275 E13.31499
G1 X107.251 Y126.98 E13.34924
G1 X106.287 Y126.465 E13.40377
G1 X105.628 Y126.068 E13.44215
G1 X105.072 Y125.652 E13.47679
G1 X104.33 Y125.041 E13.52475
G1 X103.588 Y125.652 E13.5727
G1 X102.969 Y126.109 E13.61109
G1 X102.373 Y126.465 E13.64572
G1 X101.409 Y126.98 E13.70025
G1 X100.713 Y127.307 E13.73862
G1 X100.065 Y127.536 E13.7729
G1 X99.024 Y127.851 E13.82716
G1 X98.277 Y128.035 E13.86555
G1 X97.607 Y128.132 E13.89932
G1 X96.522 Y128.239 E13.95371
G1 X95.754 Y128.275 E13.99207
G1 X95.07 Y128.239 E14.02624
G1 X93.985 Y128.132 E14.08064
G1 X93.224 Y128.017 E14.11904
G1 X92.568 Y127.851 E14.1528
G1 X91.527 Y127.536 E14.20706
G1 X90.803 Y127.275 E14.24545
G1 X90.183 Y126.98 E14.27971
G1 X89.219 Y126.465 E14.33423
G1 X88.56 Y126.068 E14.37262
G1 X88.004 Y125.652 E14.40726
G1 X87.163 Y124.96 E14.4616
G1 X86.595 Y124.441 E14.49998
G1 X86.147 Y123.943 E14.5334
G1 X85.457 Y123.103 E14.58764
G1 X85 Y122.484 E14.62602
G1 X84.65 Y121.896 E14.66016
G1 X84.135 Y120.933 E14.71464
G1 X83.808 Y120.237 E14.75301
G1 X83.578 Y119.588 E14.78736
G1 X83.263 Y118.548 E14.84157
G1 X83.078 Y117.801 E14.87997
G1 X82.981 Y117.13 E14.91379
G1 X82.874 Y116.046 E14.96814
G1 X82.838 Y115.278 E15.00649
G1 X82.874 Y114.595 E15.04062
G1 X82.981 Y113.507 E15.09516
G1 X83.095 Y112.746 E15.13355
G1 X83.263 Y112.086 E15.16753
G1 X83.578 Y111.046 E15.22174
G1 X83.839 Y110.322 E15.26014
G1 X84.136 Y109.699 E15.29457
G1 X84.652 Y108.735 E15.34912
G1 X85.05 Y108.076 E15.38753
G1 X85.457 Y107.531 E15.42146
G1 X86.131 Y106.711 E15.47442
G1 X85.788 Y106.455 E15.49577
G1 X85.223 Y105.933 E15.53415
G1 X84.715 Y105.356 E15.5725
G1 X84.269 Y104.729 E15.61089
G1 X83.891 Y104.059 E15.64927
G1 X83.585 Y103.354 E15.68761
G1 X83.353 Y102.62 E15.72602
G1 X83.199 Y101.867 E15.76436
G1 X83.124 Y101.101 E15.80276
G1 X83.128 Y100.332 E15.84113
G1 X83.213 Y99.568 E15.87948
G1 X83.376 Y98.816 E15.91787
G1 X83.617 Y98.086 E15.95622
G1 X83.932 Y97.384 E15.99461
G1 X84.318 Y96.719 E16.03297
G1 X84.771 Y96.097 E16.07136
G1 X84.91 Y95.946 E16.0816
G1 X84.862 Y95.895 E16.08509
G1 X84.397 Y95.283 E16.12344
G1 X83.998 Y94.625 E16.16183
G1 X83.67 Y93.929 E16.20022
G1 X83.415 Y93.204 E16.23856
G1 X83.237 Y92.455 E16.27697
G1 X83.138 Y91.693 E16.3153
G1 X83.119 Y90.924 E16.35368
G1 X83.179 Y90.157 E16.39206
G1 X83.319 Y89.4 E16.43047
G1 X83.536 Y88.663 E16.4688
G1 X83.829 Y87.951 E16.50721
G1 X84.194 Y87.275 E16.54554
G1 X84.628 Y86.639 E16.58395
G1 X85.125 Y86.052 E16.62233
G1 X85.68 Y85.52 E16.66068
M205 X10 Y10
G0 F6000 X85.632 Y86.107
M205 X8 Y8
G1 F1200 X86.195 Y85.614 E16.69802
G1 X86.629 Y85.299 E16.72477
G1 X88.841 Y83.822 E16.85747
G1 X89.484 Y83.441 E16.89476
G1 X90.165 Y83.13 E16.93211
G1 X90.875 Y82.894 E16.96943
G1 X91.365 Y82.778 E16.99456
G1 X93.974 Y82.26 E17.12726
G1 X94.714 Y82.154 E17.16456
G1 X95.462 Y82.127 E17.2019
G1 X96.208 Y82.18 E17.23921
G1 X96.7 Y82.26 E17.26408
G1 X99.309 Y82.778 E17.39678
G1 X100.034 Y82.963 E17.43411
G1 X100.735 Y83.224 E17.47143
G1 X101.404 Y83.558 E17.50874
G1 X101.837 Y83.825 E17.53412
G1 X104.047 Y85.303 E17.66676
G1 X104.148 Y85.379 E17.67306
G1 X104.258 Y85.299 E17.67985
G1 X106.47 Y83.822 E17.81255
G1 X107.113 Y83.441 E17.84983
G1 X107.794 Y83.13 E17.88719
G1 X108.504 Y82.894 E17.92451
G1 X108.994 Y82.778 E17.94963
G1 X111.603 Y82.26 E18.08234
G1 X112.343 Y82.154 E18.11963
G1 X113.091 Y82.127 E18.15698
G1 X113.837 Y82.18 E18.19429
G1 X114.33 Y82.26 E18.21921
G1 X116.938 Y82.778 E18.35186
G1 X117.663 Y82.963 E18.38919
G1 X118.364 Y83.224 E18.42651
G1 X119.033 Y83.558 E18.46381
G1 X119.464 Y83.825 E18.48911
G1 X121.675 Y85.303 E18.62179
G1 X122.274 Y85.751 E18.65911
G1 X122.822 Y86.261 E18.69646
G1 X123.312 Y86.826 E18.73377
G1 X123.603 Y87.23 E18.75861
G1 X125.082 Y89.441 E18.89132
G1 X125.464 Y90.084 E18.92863
G1 X125.776 Y90.764 E18.96596
G1 X126.013 Y91.474 E19.0033
G1 X126.13 Y91.97 E19.02873
G1 X126.648 Y94.579 E19.16143
G1 X126.754 Y95.319 E19.19873
G1 X126.781 Y96.067 E19.23607
G1 X126.728 Y96.813 E19.27338
G1 X126.648 Y97.305 E19.29825
G1 X126.13 Y99.914 E19.43096
G1 X125.945 Y100.639 E19.46828
G1 X125.684 Y101.34 E19.5056
G1 X125.35 Y102.009 E19.54291
G1 X125.081 Y102.444 E19.56842
G1 X123.602 Y104.654 E19.70109
G1 X123.154 Y105.253 E19.73841
G1 X122.644 Y105.8 E19.77572
G1 X122.078 Y106.29 E19.81307
G1 X121.797 Y106.492 E19.83034
G1 X122.202 Y106.942 E19.86054
G1 X122.893 Y107.783 E19.91485
G1 X123.336 Y108.386 E19.95218
G1 X123.656 Y108.924 E19.98341
G1 X124.172 Y109.888 E20.03796
G1 X124.489 Y110.565 E20.07525
G1 X124.699 Y111.162 E20.10683
G1 X125.014 Y112.202 E20.16104
G1 X125.193 Y112.928 E20.19834
G1 X125.281 Y113.543 E20.22934
G1 X125.388 Y114.627 E20.28368
G1 X125.422 Y115.375 E20.32104
G1 X125.388 Y116 E20.35227
G1 X125.281 Y117.088 E20.40681
G1 X125.169 Y117.828 E20.44415
G1 X125.014 Y118.432 E20.47526
G1 X124.699 Y119.472 E20.52947
G1 X124.445 Y120.175 E20.56676
G1 X124.173 Y120.744 E20.59823
G1 X123.658 Y121.707 E20.65271
G1 X123.27 Y122.347 E20.69005
G1 X122.894 Y122.849 E20.72134
G1 X122.204 Y123.689 E20.77558
G1 X121.699 Y124.241 E20.8129
G1 X121.243 Y124.651 E20.84349
G1 X120.402 Y125.343 E20.89783
G1 X119.799 Y125.787 E20.93519
G1 X119.252 Y126.112 E20.96693
G1 X118.288 Y126.627 E21.02146
G1 X117.611 Y126.944 E21.05875
G1 X117.017 Y127.153 E21.09017
G1 X115.976 Y127.468 E21.14443
G1 X115.25 Y127.646 E21.18172
G1 X114.636 Y127.734 E21.21267
G1 X113.551 Y127.841 E21.26706
G1 X112.804 Y127.875 E21.30437
G1 X112.177 Y127.841 E21.3357
G1 X111.092 Y127.734 E21.39009
G1 X110.353 Y127.621 E21.42739
G1 X109.752 Y127.468 E21.45833
G1 X108.711 Y127.153 E21.51259
G1 X108.007 Y126.898 E21.54995
G1 X107.44 Y126.627 E21.5813
G1 X106.476 Y126.112 E21.63583
G1 X105.836 Y125.725 E21.67314
