;FLAVOR:Marlin
;TIME:5663
;Filament used: 3.6345m
;Layer height: 0.2
;MINX:85.205
;MINY:85.207
;MINZ:0.3
;MAXX:129.292
;MAXY:124.793
;MAXZ:77.775
;Generated with Cura_SteamEngine 4.13.1
M82 ;absolute extrusion mode
G21                                        ; metric values 
G90                                        ; absolute positioning 
M82                                        ; set extruder to absolute mode 
M107                                       ; start with the fan off 
M140 S60.0           ; Start heating the bed 
G4 S60                                     ; wait 1 minute 
M104 S220.0         ; start heating the hot end 
M190 S60.0           ; wait for bed 
M109 S220.0         ; wait for hotend 
M300 S1000 P500                            ; BEEP heating done 
G28 X0 Y10 Z0                              ; move X/Y to min endstops 
M420 S1                                    ; Enable leveling 
M420 Z2.0                                  ; Set leveling fading height to 2 mm 
G0 Z0.15                                   ; lift nozzle a bit 
G92 E0                                     ; zero the extruded length 
G1 X50 E25 F500                            ; Extrude 25mm of filament in a 5cm line. 
G92 E0                                     ; zero the extruded length again 
G1 E-2 F500                                ; Retract a little 
G1 X120 F4000                              ; Quickly wipe away from the filament line`
G92 E0
G92 E0
G1 F2400 E-3
;LAYER_COUNT:388
;LAYER:0
M106 S76.5
M205 X10 Y10
G1 F600 Z0.375
G0 F6000 X90.959 Y91.045 Z0.375
M205 X8 Y8
;TYPE:SKIRT
G1 F600 Z0.3
G1 F2400 E0
G1 F1200 X91.558 Y90.467 E0.04153
G1 X91.974 Y90.09 E0.06954
G1 X92.604 Y89.563 E0.11052
G1 X93.028 Y89.233 E0.13732
G1 X93.706 Y88.741 E0.17911
G1 X94.155 Y88.439 E0.20611
G1 X94.869 Y87.993 E0.24811
G1 X95.331 Y87.725 E0.27476
G1 X96.068 Y87.332 E0.31643
G1 X96.569 Y87.088 E0.34423
G1 X97.336 Y86.747 E0.38611
G1 X97.841 Y86.543 E0.41328
G1 X98.639 Y86.253 E0.45564
G1 X99.151 Y86.087 E0.48249
G1 X99.942 Y85.86 E0.52355
G1 X100.467 Y85.728 E0.55055
G1 X101.396 Y85.531 E0.59793
G1 X101.857 Y85.454 E0.62125
G1 X102.674 Y85.341 E0.6624
G1 X103.188 Y85.287 E0.68818
G1 X104.029 Y85.227 E0.73025
G1 X104.584 Y85.207 E0.75796
G1 X105.416 Y85.207 E0.79946
G1 X105.968 Y85.227 E0.82702
G1 X106.814 Y85.287 E0.86933
G1 X107.337 Y85.341 E0.89557
G1 X108.149 Y85.454 E0.93647
G1 X108.704 Y85.552 E0.96458
G1 X109.537 Y85.73 E1.00708
G1 X110.055 Y85.86 E1.03373
G1 X110.851 Y86.088 E1.07504
G1 X111.367 Y86.255 E1.10209
G1 X112.165 Y86.545 E1.14445
G1 X112.674 Y86.751 E1.17185
G1 X113.433 Y87.089 E1.2133
G1 X113.932 Y87.332 E1.24099
G1 X114.676 Y87.729 E1.28306
G1 X115.139 Y87.997 E1.30975
G1 X115.854 Y88.444 E1.35182
G1 X116.306 Y88.749 E1.37902
G1 X116.984 Y89.242 E1.42085
G1 X117.402 Y89.568 E1.44729
G1 X118.026 Y90.09 E1.48788
G1 X118.433 Y90.468 E1.51559
G1 X118.438 Y90.463 E1.51595
G1 X119.041 Y91.044 E1.55772
G1 X119.425 Y91.442 E1.58531
G1 X119.995 Y92.075 E1.62781
G1 X120.353 Y92.502 E1.65561
G1 X120.863 Y93.157 E1.69703
G1 X121.176 Y93.588 E1.7236
G1 X121.648 Y94.288 E1.76572
G1 X121.937 Y94.751 E1.79295
G1 X122.349 Y95.465 E1.83408
G1 X122.601 Y95.938 E1.86082
G1 X122.726 Y96.02 E1.86828
G1 X123.466 Y96.294 E1.90764
G1 X124.175 Y96.642 E1.94705
G1 X124.985 Y97.159 E1.99499
G1 X125.781 Y97.739 E2.04412
G1 X126.395 Y98.236 E2.08353
G1 X126.956 Y98.792 E2.12294
G1 X127.457 Y99.402 E2.16232
G1 X127.894 Y100.06 E2.20173
G1 X128.263 Y100.758 E2.24112
G1 X128.605 Y101.629 E2.2878
G1 X128.909 Y102.563 E2.33681
G1 X129.115 Y103.325 E2.37619
G1 X129.243 Y104.104 E2.41557
G1 X129.292 Y104.893 E2.45501
G1 X129.26 Y105.682 E2.49441
G1 X129.149 Y106.464 E2.53381
G1 X128.909 Y107.391 E2.58159
G1 X128.605 Y108.325 E2.63059
G1 X128.323 Y109.063 E2.67001
G1 X127.968 Y109.768 E2.70939
G1 X127.543 Y110.434 E2.7488
G1 X127.053 Y111.053 E2.78819
G1 X126.503 Y111.62 E2.8276
G1 X125.781 Y112.215 E2.87428
G1 X124.985 Y112.795 E2.92341
G1 X124.324 Y113.227 E2.96281
G1 X123.623 Y113.59 E3.00219
G1 X122.889 Y113.881 E3.04158
G1 X122.658 Y113.946 E3.05356
G1 X122.601 Y114.063 E3.06005
G1 X122.345 Y114.544 E3.08723
G1 X121.933 Y115.257 E3.12832
G1 X121.642 Y115.722 E3.15568
G1 X121.169 Y116.422 E3.19783
G1 X120.862 Y116.845 E3.22391
G1 X120.357 Y117.494 E3.26493
G1 X119.989 Y117.933 E3.29351
G1 X119.419 Y118.564 E3.33594
G1 X119.058 Y118.937 E3.36183
G1 X118.449 Y119.527 E3.40414
G1 X118.033 Y119.902 E3.43208
G1 X117.402 Y120.431 E3.47316
G1 X116.972 Y120.767 E3.50038
G1 X116.294 Y121.259 E3.54218
G1 X115.845 Y121.561 E3.56917
G1 X115.131 Y122.007 E3.61117
G1 X114.669 Y122.275 E3.63782
G1 X113.932 Y122.668 E3.67949
G1 X113.431 Y122.912 E3.70729
G1 X112.664 Y123.253 E3.74917
G1 X112.159 Y123.457 E3.77634
G1 X111.361 Y123.747 E3.8187
G1 X110.849 Y123.913 E3.84555
G1 X110.058 Y124.14 E3.88661
G1 X109.534 Y124.271 E3.91356
G1 X108.605 Y124.469 E3.96095
G1 X108.142 Y124.547 E3.98437
G1 X107.324 Y124.66 E4.02557
G1 X106.812 Y124.713 E4.05125
G1 X105.971 Y124.773 E4.09331
G1 X105.416 Y124.793 E4.12102
G1 X104.584 Y124.793 E4.16253
G1 X104.032 Y124.773 E4.19009
G1 X103.186 Y124.713 E4.2324
G1 X102.664 Y124.659 E4.25858
G1 X101.851 Y124.546 E4.29953
G1 X101.293 Y124.447 E4.32781
G1 X100.461 Y124.269 E4.37025
G1 X99.945 Y124.14 E4.39679
G1 X99.149 Y123.912 E4.4381
G1 X98.633 Y123.745 E4.46516
G1 X97.835 Y123.455 E4.50752
G1 X97.326 Y123.249 E4.53491
G1 X96.567 Y122.911 E4.57636
G1 X96.068 Y122.668 E4.60405
G1 X95.322 Y122.27 E4.64624
G1 X94.858 Y122.001 E4.673
G1 X94.145 Y121.555 E4.71495
G1 X93.694 Y121.251 E4.74209
G1 X93.016 Y120.758 E4.78391
G1 X92.592 Y120.426 E4.81078
G1 X91.961 Y119.897 E4.85186
G1 X91.541 Y119.518 E4.88008
G1 X90.937 Y118.932 E4.92207
G1 X90.579 Y118.562 E4.94775
G1 X90.01 Y117.932 E4.9901
G1 X89.644 Y117.495 E5.01854
G1 X89.135 Y116.841 E5.05989
G1 X88.824 Y116.413 E5.08628
G1 X88.351 Y115.712 E5.12847
G1 X88.058 Y115.241 E5.15615
G1 X87.648 Y114.529 E5.19714
G1 X87.399 Y114.062 E5.22354
G1 X87.029 Y113.305 E5.26558
G1 X86.801 Y112.793 E5.29354
G1 X86.485 Y112.008 E5.33576
G1 X86.295 Y111.482 E5.36366
G1 X86.033 Y110.667 E5.40637
G1 X85.897 Y110.155 E5.4328
G1 X85.892 Y110.156 E5.43305
G1 X85.691 Y109.36 E5.47401
G1 X85.586 Y108.77 E5.50391
G1 X85.57 Y108.773 E5.50472
G1 X85.43 Y107.983 E5.54475
G1 X85.349 Y107.402 E5.57402
G1 X85.268 Y106.596 E5.61443
G1 X85.234 Y106.085 E5.63998
G1 X85.206 Y105.274 E5.68047
G1 X85.205 Y104.743 E5.70696
G1 X85.233 Y103.909 E5.74859
G1 X85.27 Y103.372 E5.77544
G1 X85.354 Y102.556 E5.81637
G1 X85.431 Y102.001 E5.84432
G1 X85.574 Y101.19 E5.88541
G1 X85.682 Y100.681 E5.91137
G1 X85.892 Y99.827 E5.95524
G1 X86.048 Y99.28 E5.98362
G1 X86.305 Y98.489 E6.02512
G1 X86.492 Y97.975 E6.0524
G1 X86.811 Y97.186 E6.09486
G1 X87.034 Y96.685 E6.12222
G1 X87.402 Y95.932 E6.16404
G1 X87.655 Y95.458 E6.19084
G1 X88.066 Y94.746 E6.23186
G1 X88.358 Y94.278 E6.25938
G1 X88.831 Y93.578 E6.30153
G1 X89.138 Y93.155 E6.3276
G1 X89.643 Y92.506 E6.36863
G1 X90.009 Y92.069 E6.39707
G1 X90.585 Y91.431 E6.43995
G1 X90.959 Y91.045 E6.46676
M205 X10 Y10
G0 F6000 X91.237 Y91.333
M205 X8 Y8
G1 F1200 X91.836 Y90.755 E6.50829
G1 X91.849 Y90.768 E6.50921
G1 X92.231 Y90.397 E6.53578
G1 X92.861 Y89.87 E6.57675
G1 X93.263 Y89.557 E6.60217
G1 X93.941 Y89.065 E6.64397
G1 X94.367 Y88.778 E6.66959
G1 X95.081 Y88.332 E6.71159
G1 X95.519 Y88.078 E6.73685
G1 X96.256 Y87.685 E6.77852
G1 X96.732 Y87.453 E6.80494
G1 X97.499 Y87.112 E6.84682
G1 X97.978 Y86.919 E6.87258
G1 X98.776 Y86.629 E6.91494
G1 X99.262 Y86.471 E6.94044
G1 X100.053 Y86.244 E6.98149
G1 X100.551 Y86.12 E7.0071
G1 X101.475 Y85.924 E7.05422
G1 X101.912 Y85.85 E7.07633
G1 X102.729 Y85.737 E7.11748
G1 X103.216 Y85.686 E7.14191
G1 X104.057 Y85.626 E7.18398
G1 X104.584 Y85.607 E7.21029
G1 X105.416 Y85.607 E7.25179
G1 X105.94 Y85.626 E7.27795
G1 X106.786 Y85.686 E7.32027
G1 X107.282 Y85.738 E7.34515
G1 X108.094 Y85.851 E7.38605
G1 X108.62 Y85.943 E7.41269
G1 X109.453 Y86.121 E7.45519
G1 X109.945 Y86.244 E7.48049
G1 X110.741 Y86.472 E7.5218
G1 X111.23 Y86.631 E7.54745
G1 X112.028 Y86.921 E7.58981
G1 X112.511 Y87.116 E7.6158
G1 X113.27 Y87.454 E7.65725
G1 X113.744 Y87.685 E7.68356
G1 X114.488 Y88.082 E7.72563
G1 X114.927 Y88.336 E7.75093
G1 X115.642 Y88.783 E7.793
G1 X116.071 Y89.073 E7.81884
G1 X116.749 Y89.566 E7.86066
G1 X117.145 Y89.875 E7.88572
G1 X117.769 Y90.397 E7.92631
G1 X118.155 Y90.756 E7.9526
G1 X118.16 Y90.751 E7.95296
G1 X118.763 Y91.332 E7.99473
G1 X119.128 Y91.709 E8.02091
G1 X119.698 Y92.342 E8.06341
G1 X120.038 Y92.748 E8.08983
G1 X120.548 Y93.403 E8.13125
G1 X120.845 Y93.812 E8.15646
G1 X121.317 Y94.512 E8.19858
G1 X121.59 Y94.951 E8.22438
G1 X122.002 Y95.665 E8.2655
G1 X122.242 Y96.114 E8.2909
G1 X122.351 Y96.337 E8.30329
G1 X122.663 Y96.42 E8.31939
G1 X123.382 Y96.694 E8.35778
G1 X124.068 Y97.041 E8.39613
G1 X124.75 Y97.482 E8.43665
G1 X125.546 Y98.062 E8.48579
G1 X126.143 Y98.547 E8.52416
G1 X126.687 Y99.091 E8.56255
G1 X127.171 Y99.688 E8.60089
G1 X127.591 Y100.333 E8.63929
G1 X127.941 Y101.018 E8.67767
G1 X128.225 Y101.753 E8.71698
G1 X128.529 Y102.687 E8.76598
G1 X128.728 Y103.429 E8.80431
G1 X128.85 Y104.189 E8.84271
G1 X128.892 Y104.957 E8.88108
G1 X128.854 Y105.725 E8.91945
G1 X128.737 Y106.485 E8.95781
G1 X128.529 Y107.267 E8.99818
G1 X128.225 Y108.201 E9.04718
G1 X127.949 Y108.919 E9.08556
G1 X127.6 Y109.605 E9.12396
G1 X127.182 Y110.25 E9.1623
G1 X126.699 Y110.849 E9.20069
G1 X126.157 Y111.395 E9.23908
G1 X125.546 Y111.892 E9.27837
G1 X124.75 Y112.472 E9.32751
G1 X124.105 Y112.892 E9.36591
G1 X123.421 Y113.243 E9.40426
G1 X122.704 Y113.521 E9.44263
G1 X122.377 Y113.61 E9.45954
G1 X122.241 Y113.888 E9.47498
G1 X121.998 Y114.344 E9.50075
G1 X121.586 Y115.057 E9.54184
G1 X121.31 Y115.498 E9.56779
G1 X120.837 Y116.198 E9.60994
G1 X120.546 Y116.599 E9.63466
G1 X120.041 Y117.248 E9.67569
G1 X119.692 Y117.664 E9.70278
G1 X119.122 Y118.295 E9.7452
G1 X118.78 Y118.65 E9.76979
G1 X118.171 Y119.24 E9.8121
G1 X117.776 Y119.596 E9.83863
G1 X117.145 Y120.125 E9.87971
G1 X116.737 Y120.443 E9.90551
G1 X116.059 Y120.935 E9.94731
G1 X115.633 Y121.222 E9.97293
G1 X114.919 Y121.668 E10.01493
G1 X114.481 Y121.922 E10.04019
G1 X113.744 Y122.315 E10.08186
G1 X113.268 Y122.547 E10.10828
G1 X112.501 Y122.888 E10.15016
G1 X112.022 Y123.081 E10.17592
G1 X111.224 Y123.371 E10.21828
G1 X110.738 Y123.529 E10.24378
G1 X109.947 Y123.756 E10.28484
G1 X109.451 Y123.88 E10.31034
G1 X108.526 Y124.076 E10.35752
G1 X108.088 Y124.15 E10.37968
G1 X107.27 Y124.263 E10.42087
G1 X106.784 Y124.314 E10.44525
G1 X105.943 Y124.374 E10.48732
G1 X105.416 Y124.393 E10.51363
G1 X104.584 Y124.393 E10.55514
G1 X104.06 Y124.374 E10.5813
G1 X103.214 Y124.314 E10.62361
G1 X102.719 Y124.263 E10.64844
G1 X101.906 Y124.15 E10.68939
G1 X101.377 Y124.056 E10.71619
G1 X100.545 Y123.878 E10.75864
G1 X100.055 Y123.756 E10.78383
G1 X99.259 Y123.528 E10.82514
G1 X98.77 Y123.369 E10.8508
G1 X97.972 Y123.079 E10.89316
G1 X97.489 Y122.884 E10.91914
G1 X96.73 Y122.546 E10.96059
G1 X96.257 Y122.315 E10.98686
G1 X95.511 Y121.917 E11.02904
G1 X95.07 Y121.662 E11.05445
G1 X94.357 Y121.216 E11.09641
G1 X93.929 Y120.927 E11.12218
G1 X93.251 Y120.434 E11.164
G1 X92.849 Y120.12 E11.18945
G1 X92.218 Y119.591 E11.23053
G1 X91.819 Y119.231 E11.25734
G1 X91.215 Y118.645 E11.29932
G1 X90.876 Y118.294 E11.32367
G1 X90.307 Y117.664 E11.36602
G1 X89.959 Y117.249 E11.39304
G1 X89.45 Y116.595 E11.43439
G1 X89.156 Y116.189 E11.4594
G1 X88.683 Y115.488 E11.50159
G1 X88.404 Y115.042 E11.52783
G1 X87.994 Y114.33 E11.56882
G1 X87.759 Y113.887 E11.59384
G1 X87.389 Y113.13 E11.63588
G1 X87.172 Y112.643 E11.66248
G1 X86.856 Y111.858 E11.7047
G1 X86.676 Y111.36 E11.73111
G1 X86.414 Y110.545 E11.77382
G1 X86.285 Y110.057 E11.79901
G1 X86.28 Y110.058 E11.79926
G1 X86.079 Y109.262 E11.84022
G1 X85.979 Y108.7 E11.8687
G1 X85.964 Y108.703 E11.86946
G1 X85.824 Y107.913 E11.90949
G1 X85.747 Y107.362 E11.93725
G1 X85.666 Y106.556 E11.97766
G1 X85.633 Y106.071 E12.00191
G1 X85.605 Y105.26 E12.0424
G1 X85.605 Y104.757 E12.06749
G1 X85.633 Y103.923 E12.10912
G1 X85.668 Y103.413 E12.13463
G1 X85.752 Y102.597 E12.17555
G1 X85.825 Y102.07 E12.2021
G1 X85.968 Y101.259 E12.24318
G1 X86.07 Y100.777 E12.26776
G1 X86.28 Y99.923 E12.31164
G1 X86.428 Y99.403 E12.33861
G1 X86.685 Y98.612 E12.3801
G1 X86.863 Y98.125 E12.40597
G1 X87.182 Y97.336 E12.44843
G1 X87.393 Y96.861 E12.47436
G1 X87.761 Y96.108 E12.51618
G1 X88.001 Y95.657 E12.54166
G1 X88.412 Y94.945 E12.58268
G1 X88.69 Y94.502 E12.60877
G1 X89.163 Y93.802 E12.65092
G1 X89.454 Y93.401 E12.67564
G1 X89.959 Y92.752 E12.71667
G1 X90.306 Y92.337 E12.74365
G1 X90.882 Y91.699 E12.78654
G1 X91.237 Y91.333 E12.81198
M205 X10 Y10
G0 F6000 X91.514 Y91.621
M205 X8 Y8
G1 F1200 X92.113 Y91.043 E12.8535
G1 X92.125 Y91.056 E12.85439
G1 X92.488 Y90.704 E12.87961
G1 X93.118 Y90.177 E12.92059
G1 X93.498 Y89.881 E12.94462
G1 X94.176 Y89.389 E12.98642
G1 X94.579 Y89.117 E13.01067
G1 X95.293 Y88.671 E13.05267
G1 X95.707 Y88.431 E13.07655
G1 X96.444 Y88.038 E13.11822
G1 X96.894 Y87.819 E13.14318
G1 X97.661 Y87.478 E13.18506
G1 X98.114 Y87.295 E13.20944
G1 X98.912 Y87.005 E13.2518
G1 X99.372 Y86.856 E13.27592
G1 X100.163 Y86.629 E13.31698
G1 X100.634 Y86.511 E13.3412
G1 X101.553 Y86.316 E13.38807
G1 X101.967 Y86.246 E13.40902
G1 X102.784 Y86.133 E13.45017
G1 X103.245 Y86.085 E13.47329
G1 X104.086 Y86.025 E13.51535
G1 X104.584 Y86.007 E13.54022
G1 X105.416 Y86.007 E13.58172
G1 X105.911 Y86.025 E13.60644
G1 X106.757 Y86.085 E13.64875
G1 X107.227 Y86.134 E13.67232
G1 X108.039 Y86.247 E13.71323
G1 X108.537 Y86.335 E13.73846
G1 X109.37 Y86.513 E13.78095
G1 X109.835 Y86.629 E13.80486
G1 X110.631 Y86.857 E13.84617
G1 X111.094 Y87.007 E13.87045
G1 X111.892 Y87.297 E13.91281
G1 X112.349 Y87.481 E13.93739
G1 X113.108 Y87.819 E13.97884
G1 X113.555 Y88.038 E14.00368
G1 X114.299 Y88.435 E14.04575
G1 X114.715 Y88.675 E14.06971
G1 X115.43 Y89.122 E14.11178
G1 X115.836 Y89.396 E14.13622
G1 X116.514 Y89.889 E14.17804
G1 X116.888 Y90.182 E14.20174
G1 X117.512 Y90.704 E14.24233
G1 X117.883 Y91.039 E14.26727
G1 X118.486 Y91.62 E14.30904
G1 X118.831 Y91.977 E14.33381
G1 X119.401 Y92.61 E14.37631
G1 X119.722 Y92.993 E14.40124
G1 X120.232 Y93.648 E14.44266
G1 X120.513 Y94.036 E14.46656
G1 X120.985 Y94.736 E14.50868
G1 X121.244 Y95.15 E14.53304
G1 X121.656 Y95.864 E14.57417
G1 X122.071 Y96.675 E14.61962
G1 X122.599 Y96.82 E14.64694
G1 X123.295 Y97.093 E14.68423
G1 X123.958 Y97.44 E14.72157
G1 X124.514 Y97.806 E14.75478
G1 X125.31 Y98.386 E14.80391
G1 X125.89 Y98.858 E14.84122
G1 X126.417 Y99.389 E14.87855
G1 X126.884 Y99.974 E14.91589
G1 X127.285 Y100.605 E14.95319
G1 X127.618 Y101.275 E14.99052
G1 X127.844 Y101.876 E15.02255
G1 X128.148 Y102.81 E15.07156
G1 X128.341 Y103.533 E15.10889
G1 X128.456 Y104.272 E15.1462
G1 X128.492 Y105.02 E15.18356
G1 X128.447 Y105.766 E15.22085
G1 X128.323 Y106.504 E15.25818
G1 X128.148 Y107.144 E15.29129
G1 X127.844 Y108.078 E15.34029
G1 X127.575 Y108.775 E15.37756
G1 X127.233 Y109.441 E15.41491
G1 X126.822 Y110.066 E15.45223
G1 X126.346 Y110.643 E15.48955
G1 X125.812 Y111.167 E15.52688
G1 X125.31 Y111.568 E15.55893
G1 X124.514 Y112.148 E15.60807
G1 X123.887 Y112.556 E15.64539
G1 X123.22 Y112.894 E15.68269
G1 X122.52 Y113.16 E15.72005
G1 X122.098 Y113.27 E15.74181
G1 X121.652 Y114.144 E15.79076
G1 X121.24 Y114.857 E15.83185
G1 X120.979 Y115.274 E15.85639
G1 X120.506 Y115.974 E15.89854
G1 X120.231 Y116.354 E15.92194
G1 X119.726 Y117.003 E15.96297
G1 X119.395 Y117.396 E15.9886
G1 X118.825 Y118.027 E16.03102
