;FLAVOR:Marlin
;TIME:8859
;Filament used: 5.66795m
;Layer height: 0.2
;MINX:69.72
;MINY:72.469
;MINZ:0.3
;MAXX:140.28
;MAXY:142.031
;MAXZ:22.175
;Generated with Cura_SteamEngine 4.13.1
M82 ;absolute extrusion mode
G21                                        ; metric values 
G90                                        ; absolute positioning 
M82                                        ; set extruder to absolute mode 
M107                                       ; start with the fan off 
M140 S60           ; Start heating the bed 
G4 S60                                     ; wait 1 minute 
M104 S210         ; start heating the hot end 
M190 S60           ; wait for bed 
M109 S210         ; wait for hotend 
M300 S1000 P500                            ; BEEP heating done 
G28 X0 Y10 Z0                              ; move X/Y to min endstops 
M420 S1                                    ; Enable leveling 
M420 Z2.0                                  ; Set leveling fading height to 2 mm 
G0 Z0.15                                   ; lift nozzle a bit 
G92 E0                                     ; zero the extruded length 
G1 X50 E25 F500                            ; Extrude 25mm of filament in a 5cm line. 
G92 E0                                     ; zero the extruded length again 
G1 E-2 F500                                ; Retract a little 
G1 X120 F4000                              ; Quickly wipe away from the filament line`
G92 E0
G92 E0
G1 F1500 E-6
;LAYER_COUNT:110
;LAYER:0
M106 S76.5
M205 X10 Y10
G1 F600 Z0.375
G0 F6000 X92.3 Y91.069 Z0.375
M205 X8 Y8
;TYPE:SKIRT
G1 F600 Z0.3
G1 F1500 E0
G1 F1200 X92.299 Y102.832 E0.58686
G1 X92.294 Y102.931 E0.5918
G1 X117.707 Y102.932 E1.85966
G1 X117.7 Y102.769 E1.8678
G1 X117.7 Y91.069 E2.45152
G1 X92.3 Y91.069 E3.71873
M205 X10 Y10
G0 F6000 X91.9 Y90.669
M205 X8 Y8
G1 F1200 X91.899 Y102.832 E4.32554
G1 X91.872 Y103.331 E4.35048
G1 X118.123 Y103.332 E5.66014
G1 X118.1 Y102.769 E5.68826
G1 X118.1 Y90.669 E6.29193
G1 X91.9 Y90.669 E7.59905
M205 X10 Y10
G0 F6000 X91.5 Y90.269
M205 X8 Y8
G1 F1200 X91.499 Y102.832 E8.22582
G1 X91.458 Y103.588 E8.26359
G1 X91.442 Y103.731 E8.27077
G1 X118.56 Y103.732 E9.62369
G1 X118.523 Y103.34 E9.64334
G1 X118.5 Y102.769 E9.67185
G1 X118.5 Y90.269 E10.29548
G1 X91.5 Y90.269 E11.64251
M205 X10 Y10
G0 F6000 X91.1 Y89.869
M205 X8 Y8
G1 F1200 X91.099 Y102.832 E12.28924
G1 X91.06 Y103.545 E12.32486
G1 X90.976 Y104.131 E12.3544
G1 X119.014 Y104.132 E13.75322
G1 X118.946 Y103.601 E13.77993
G1 X118.922 Y103.308 E13.79459
G1 X118.9 Y102.769 E13.82151
G1 X118.9 Y89.869 E14.46509
G1 X91.1 Y89.869 E15.85204
M205 X10 Y10
G0 F6000 X90.7 Y89.469
M205 X8 Y8
G1 F1200 X90.699 Y102.832 E16.51872
G1 X90.663 Y103.502 E16.5522
G1 X90.638 Y103.732 E16.56374
G1 X90.522 Y104.426 E16.59884
G1 X90.495 Y104.531 E16.60425
G1 X119.511 Y104.532 E18.05187
G1 X119.412 Y104.104 E18.07378
G1 X119.345 Y103.568 E18.10073
G1 X119.321 Y103.275 E18.1154
G1 X119.3 Y102.769 E18.14066
G1 X119.3 Y89.469 E18.8042
G1 X90.7 Y89.469 E20.23106
M205 X10 Y10
G0 F6000 X90.3 Y89.069
M205 X8 Y8
G1 F1200 X90.299 Y102.832 E20.9177
G1 X90.265 Y103.459 E20.94903
G1 X90.24 Y103.689 E20.96057
G1 X90.127 Y104.36 E20.99452
G1 X89.975 Y104.914 E21.02318
G1 X89.969 Y104.931 E21.02408
G1 X120.031 Y104.932 E22.52388
G1 X119.954 Y104.678 E22.53712
G1 X119.803 Y104.014 E22.57109
G1 X119.719 Y103.242 E22.60984
G1 X119.7 Y102.769 E22.63345
G1 X119.7 Y89.069 E23.31695
G1 X90.3 Y89.069 E24.78372
M205 X10 Y10
G0 F6000 X89.9 Y88.669
M205 X8 Y8
G1 F1200 X89.899 Y102.832 E25.49032
G1 X89.867 Y103.416 E25.5195
G1 X89.842 Y103.646 E25.53104
G1 X89.654 Y104.587 E25.57891
G1 X89.591 Y104.801 E25.59004
G1 X89.4 Y105.331 E25.61815
G1 X120.6 Y105.332 E27.17472
G1 X120.563 Y105.252 E27.17912
G1 X120.394 Y104.76 E27.20507
G1 X120.338 Y104.567 E27.2151
G1 X120.194 Y103.926 E27.24788
G1 X120.118 Y103.21 E27.2838
G1 X120.1 Y102.769 E27.30582
G1 X120.1 Y88.669 E28.00927
G1 X89.9 Y88.669 E29.51595
M205 X10 Y10
G0 F6000 X89.5 Y88.269
M205 X8 Y8
G1 F1200 X89.499 Y102.832 E30.24251
G1 X89.47 Y103.372 E30.26948
G1 X89.445 Y103.602 E30.28103
G1 X89.27 Y104.474 E30.3254
G1 X89.207 Y104.688 E30.33653
G1 X88.991 Y105.282 E30.36806
G1 X88.757 Y105.731 E30.39332
G1 X121.236 Y105.732 E32.01371
G1 X121.193 Y105.654 E32.01815
G1 X120.926 Y105.082 E32.04964
G1 X120.722 Y104.455 E32.08254
G1 X120.585 Y103.838 E32.11407
G1 X120.517 Y103.177 E32.14722
G1 X120.5 Y102.769 E32.16759
G1 X120.5 Y88.269 E32.891
G1 X89.5 Y88.269 E34.4376
M205 X10 Y10
G0 F6000 X89.1 Y87.869
M205 X8 Y8
G1 F1200 X89.099 Y102.832 E35.18411
G1 X89.047 Y103.559 E35.22047
G1 X88.887 Y104.361 E35.26127
G1 X88.824 Y104.575 E35.2724
G1 X88.615 Y105.144 E35.30264
G1 X88.337 Y105.674 E35.3325
G1 X88.033 Y106.131 E35.35988
G1 X121.969 Y106.132 E37.05296
G1 X121.643 Y105.643 E37.08228
G1 X121.544 Y105.462 E37.09257
G1 X121.289 Y104.912 E37.12281
G1 X121.106 Y104.344 E37.15259
G1 X120.976 Y103.752 E37.18283
G1 X120.915 Y103.145 E37.21326
G1 X120.9 Y102.769 E37.23204
G1 X120.9 Y87.869 E37.9754
G1 X89.1 Y87.869 E39.56191
M205 X10 Y10
G0 F6000 X88.7 Y87.469
M205 X8 Y8
G1 F1200 X88.699 Y102.832 E40.32837
G1 X88.649 Y103.516 E40.36259
G1 X88.503 Y104.248 E40.39983
G1 X88.44 Y104.462 E40.41096
G1 X88.238 Y105.005 E40.43986
G1 X87.995 Y105.465 E40.46581
G1 X87.871 Y105.668 E40.47768
G1 X87.536 Y106.141 E40.5066
G1 X87.157 Y106.531 E40.53373
G1 X122.839 Y106.532 E42.31391
G1 X122.769 Y106.465 E42.31875
G1 X122.38 Y106.036 E42.34764
G1 X121.994 Y105.451 E42.3826
G1 X121.895 Y105.27 E42.3929
G1 X121.653 Y104.744 E42.42178
G1 X121.49 Y104.232 E42.44859
G1 X121.338 Y103.405 E42.49054
G1 X121.3 Y102.769 E42.52233
G1 X121.3 Y87.469 E43.28565
G1 X88.7 Y87.469 E44.91207
M205 X10 Y10
G0 F6000 X88.3 Y87.069
M205 X8 Y8
G1 F1200 X88.299 Y102.832 E45.69849
G1 X88.252 Y103.473 E45.73055
G1 X88.119 Y104.135 E45.76424
G1 X88.056 Y104.349 E45.77537
G1 X87.863 Y104.865 E45.80286
G1 X87.53 Y105.46 E45.83687
G1 X87.209 Y105.908 E45.86437
G1 X86.778 Y106.349 E45.89513
G1 X86.619 Y106.487 E45.90564
G1 X86.178 Y106.817 E45.93312
G1 X85.969 Y106.931 E45.94499
G1 X124.031 Y106.932 E47.84391
G1 X123.671 Y106.715 E47.86489
G1 X123.224 Y106.347 E47.89377
G1 X123.046 Y106.176 E47.90609
G1 X122.678 Y105.767 E47.93353
G1 X122.345 Y105.26 E47.9638
G1 X122.246 Y105.079 E47.97409
G1 X122.017 Y104.577 E48.00162
G1 X121.875 Y104.121 E48.02545
G1 X121.737 Y103.372 E48.06344
G1 X121.7 Y102.769 E48.09358
G1 X121.7 Y87.069 E48.87686
G1 X88.3 Y87.069 E50.54319
M205 X10 Y10
G0 F6000 X87.9 Y86.669
M205 X8 Y8
G1 F1200 X87.899 Y102.832 E51.34957
G1 X87.854 Y103.429 E51.37944
G1 X87.736 Y104.022 E51.4096
G1 X87.673 Y104.236 E51.42073
G1 X87.488 Y104.723 E51.44672
G1 X87.189 Y105.251 E51.47699
G1 X86.884 Y105.674 E51.50301
G1 X86.516 Y106.047 E51.52915
G1 X86.357 Y106.185 E51.53966
G1 X85.938 Y106.495 E51.56566
G1 X85.356 Y106.795 E51.59833
G1 X84.651 Y107.032 E51.63543
G1 X84.43 Y107.08 E51.64671
G1 X83.903 Y107.151 E51.67324
G1 X83.498 Y107.169 E51.69347
G1 X80.451 Y107.168 E51.84549
G1 X79.761 Y107.118 E51.88
G1 X79.02 Y106.98 E51.9176
G1 X78.298 Y106.746 E51.95547
G1 X77.642 Y106.435 E51.99169
G1 X76.999 Y106.017 E52.02995
G1 X76.412 Y105.511 E52.06862
G1 X75.858 Y104.885 E52.11032
G1 X75.552 Y104.455 E52.13665
G1 X75.219 Y103.884 E52.16963
G1 X74.911 Y103.212 E52.20651
G1 X74.722 Y102.696 E52.23392
G1 X74.547 Y102.101 E52.26487
G1 X74.398 Y101.451 E52.29814
G1 X74.359 Y101.245 E52.3086
G1 X74.266 Y100.652 E52.33854
G1 X74.238 Y100.425 E52.34995
G1 X74.16 Y99.543 E52.39413
G1 X74.148 Y99.33 E52.40477
G1 X74.12 Y98.19 E52.46166
G1 X74.12 Y89.243 E52.90803
G1 X74.128 Y88.355 E52.95234
G1 X74.176 Y86.938 E53.02307
G1 X74.183 Y86.813 E53.02932
G1 X74.269 Y85.6 E53.08999
G1 X74.281 Y85.46 E53.097
G1 X74.401 Y84.393 E53.15056
G1 X74.425 Y84.219 E53.15933
G1 X74.573 Y83.323 E53.20463
G1 X74.609 Y83.139 E53.21399
G1 X74.761 Y82.455 E53.24895
G1 X74.81 Y82.261 E53.25893
G1 X74.958 Y81.742 E53.28585
G1 X75.152 Y81.16 E53.31646
G1 X75.373 Y80.61 E53.34603
G1 X75.675 Y79.989 E53.38048
G1 X76.015 Y79.418 E53.41364
G1 X76.434 Y78.856 E53.44861
G1 X76.938 Y78.318 E53.48539
G1 X77.46 Y77.882 E53.51932
G1 X78.032 Y77.516 E53.5532
G1 X78.626 Y77.235 E53.58599
G1 X79.276 Y77.026 E53.62005
G1 X80.007 Y76.899 E53.65706
G1 X80.548 Y76.869 E53.6841
G1 X129.515 Y76.87 E56.12707
G1 X130.156 Y76.919 E56.15914
G1 X130.853 Y77.059 E56.19461
G1 X131.524 Y77.297 E56.23013
G1 X132.138 Y77.614 E56.26461
G1 X132.742 Y78.037 E56.30139
G1 X133.29 Y78.544 E56.33864
G1 X133.794 Y79.147 E56.37785
G1 X134.106 Y79.608 E56.40562
G1 X134.44 Y80.211 E56.44001
G1 X134.651 Y80.667 E56.46508
G1 X134.878 Y81.243 E56.49597
G1 X135.091 Y81.905 E56.53066
G1 X135.253 Y82.516 E56.5622
G1 X135.299 Y82.712 E56.57224
G1 X135.462 Y83.517 E56.61322
G1 X135.494 Y83.702 E56.62258
G1 X135.632 Y84.649 E56.67033
G1 X135.652 Y84.811 E56.67847
G1 X135.758 Y85.903 E56.73321
G1 X135.769 Y86.045 E56.74031
G1 X135.848 Y87.488 E56.81241
G1 X135.853 Y87.619 E56.81895
G1 X135.88 Y89.292 E56.90243
G1 X135.879 Y98.341 E57.35389
G1 X135.862 Y99.14 E57.39376
G1 X135.854 Y99.316 E57.40255
G1 X135.797 Y100.096 E57.44157
G1 X135.778 Y100.286 E57.45109
G1 X135.698 Y100.902 E57.48208
G1 X135.668 Y101.089 E57.49153
G1 X135.575 Y101.586 E57.51676
G1 X135.428 Y102.196 E57.54806
G1 X135.266 Y102.728 E57.57581
G1 X135.091 Y103.205 E57.60116
G1 X134.809 Y103.826 E57.63518
G1 X134.497 Y104.379 E57.66686
G1 X134.087 Y104.954 E57.70209
G1 X133.612 Y105.488 E57.73775
G1 X133.023 Y105.999 E57.77665
G1 X132.421 Y106.399 E57.81271
G1 X131.709 Y106.744 E57.85218
G1 X130.939 Y106.99 E57.89251
G1 X130.121 Y107.131 E57.93392
G1 X129.577 Y107.167 E57.96112
G1 X129.452 Y107.169 E57.96736
G1 X126.501 Y107.169 E58.11459
G1 X126.007 Y107.142 E58.13927
G1 X125.468 Y107.06 E58.16647
G1 X125.265 Y107.012 E58.17688
G1 X124.768 Y106.853 E58.20291
G1 X124.324 Y106.642 E58.22744
G1 X123.878 Y106.372 E58.25345
G1 X123.324 Y105.888 E58.29015
G1 X122.976 Y105.499 E58.31619
G1 X122.696 Y105.068 E58.34183
G1 X122.597 Y104.887 E58.35212
G1 X122.315 Y104.202 E58.38908
G1 X122.259 Y104.009 E58.39911
G1 X122.135 Y103.34 E58.43305
G1 X122.1 Y102.769 E58.46159
G1 X122.1 Y86.669 E59.26482
G1 X87.9 Y86.669 E60.97107
M205 X10 Y10
G0 F6000 X87.5 Y86.269
M205 X8 Y8
G1 F1200 X87.499 Y102.832 E61.7974
G1 X87.456 Y103.386 E61.82512
G1 X87.352 Y103.909 E61.85173
G1 X87.113 Y104.58 E61.88726
G1 X86.847 Y105.043 E61.9139
G1 X86.253 Y105.745 E61.95978
G1 X85.7 Y106.172 E61.99464
G1 X85.188 Y106.432 E62.02329
G1 X84.566 Y106.641 E62.05602
G1 X83.88 Y106.752 E62.09069
G1 X83.498 Y106.769 E62.10977
G1 X80.451 Y106.768 E62.26178
G1 X79.799 Y106.72 E62.2944
G1 X79.107 Y106.59 E62.32953
G1 X78.437 Y106.371 E62.3647
G1 X77.826 Y106.08 E62.39846
G1 X77.231 Y105.691 E62.43392
G1 X76.684 Y105.218 E62.47
G1 X76.168 Y104.632 E62.50896
G1 X75.796 Y104.093 E62.54163
G1 X75.465 Y103.48 E62.57639
G1 X75.212 Y102.883 E62.60874
G1 X75.04 Y102.376 E62.63545
G1 X74.891 Y101.827 E62.66383
G1 X74.754 Y101.183 E62.69667
G1 X74.661 Y100.59 E62.72662
G1 X74.637 Y100.389 E62.73672
G1 X74.559 Y99.507 E62.7809
G1 X74.548 Y99.32 E62.79024
G1 X74.52 Y98.19 E62.84663
G1 X74.52 Y89.246 E63.29285
G1 X74.528 Y88.368 E63.33666
G1 X74.576 Y86.951 E63.40739
G1 X74.582 Y86.841 E63.41289
G1 X74.668 Y85.628 E63.47356
G1 X74.679 Y85.505 E63.47972
G1 X74.799 Y84.438 E63.53329
G1 X74.82 Y84.284 E63.54104
G1 X74.968 Y83.388 E63.58635
G1 X74.999 Y83.226 E63.59458
G1 X75.151 Y82.542 E63.62953
G1 X75.195 Y82.37 E63.63839
G1 X75.343 Y81.851 E63.66532
G1 X75.531 Y81.289 E63.69488
G1 X75.743 Y80.764 E63.72313
G1 X76.024 Y80.185 E63.75524
G1 X76.353 Y79.632 E63.78734
G1 X76.749 Y79.102 E63.82035
G1 X77.219 Y78.602 E63.85458
G1 X77.704 Y78.199 E63.88604
G1 X78.233 Y77.862 E63.91734
G1 X78.782 Y77.603 E63.94762
G1 X79.382 Y77.411 E63.97905
G1 X80.056 Y77.296 E64.01316
G1 X80.548 Y77.269 E64.03775
G1 X129.515 Y77.27 E66.48072
G1 X130.114 Y77.317 E66.5107
G1 X130.755 Y77.447 E66.54333
G1 X131.373 Y77.668 E66.57607
G1 X131.94 Y77.961 E66.60791
G1 X132.498 Y78.354 E66.64196
G1 X133.007 Y78.827 E66.67663
G1 X133.479 Y79.394 E66.71343
G1 X133.769 Y79.823 E66.73927
G1 X134.079 Y80.382 E66.77116
G1 X134.429 Y81.181 E66.81468
G1 X134.652 Y81.829 E66.84887
G1 X134.705 Y82.007 E66.85813
G1 X134.867 Y82.618 E66.88967
G1 X134.907 Y82.792 E66.89858
G1 X135.07 Y83.597 E66.93955
G1 X135.099 Y83.759 E66.94776
G1 X135.237 Y84.706 E66.99551
G1 X135.254 Y84.849 E67.00269
G1 X135.36 Y85.941 E67.05743
G1 X135.37 Y86.067 E67.06374
G1 X135.449 Y87.51 E67.13583
G1 X135.453 Y87.626 E67.14163
G1 X135.48 Y89.299 E67.2251
G1 X135.479 Y98.333 E67.67581
G1 X135.462 Y99.132 E67.71568
G1 X135.455 Y99.287 E67.72342
G1 X135.398 Y100.067 E67.76244
G1 X135.381 Y100.234 E67.77082
G1 X135.301 Y100.85 E67.80181
G1 X135.275 Y101.016 E67.81019
G1 X135.182 Y101.513 E67.83541
G1 X135.04 Y102.099 E67.8655
G1 X134.885 Y102.608 E67.89204
G1 X134.653 Y103.217 E67.92456
G1 X134.346 Y103.846 E67.95947
G1 X133.991 Y104.415 E67.99293
G1 X133.533 Y104.991 E68.02965
G1 X133.03 Y105.48 E68.06465
G1 X132.46 Y105.907 E68.10018
G1 X131.839 Y106.251 E68.1356
G1 X131.156 Y106.515 E68.17213
G1 X130.434 Y106.685 E68.20913
G1 X129.78 Y106.759 E68.24197
G1 X129.452 Y106.769 E68.25834
G1 X126.501 Y106.769 E68.40557
G1 X125.56 Y106.67 E68.45277
G1 X125.357 Y106.622 E68.46318
G1 X124.694 Y106.381 E68.49838
G1 X124.087 Y106.029 E68.53338
G1 X123.601 Y105.599 E68.56576
G1 X123.047 Y104.876 E68.6112
G1 X122.948 Y104.695 E68.62149
G1 X122.699 Y104.091 E68.65409
G1 X122.643 Y103.898 E68.66411
G1 X122.534 Y103.307 E68.69409
G1 X122.5 Y102.769 E68.72099
G1 X122.5 Y86.269 E69.54418
G1 X87.5 Y86.269 E71.29033
M205 X10 Y10
G0 F6000 X87.1 Y85.869
M205 X8 Y8
G1 F1200 X87.099 Y102.832 E72.13662
G1 X87.059 Y103.343 E72.16219
G1 X86.905 Y104.01 E72.19635
G1 X86.63 Y104.631 E72.23023
G1 X86.235 Y105.201 E72.26483
G1 X85.832 Y105.581 E72.29246
G1 X85.219 Y105.977 E72.32887
G1 X85.02 Y106.069 E72.33981
G1 X84.481 Y106.25 E72.36818
G1 X83.857 Y106.353 E72.39973
G1 X83.498 Y106.369 E72.41766
G1 X80.451 Y106.368 E72.56967
G1 X79.836 Y106.322 E72.60044
G1 X79.194 Y106.2 E72.63304
G1 X78.575 Y105.996 E72.66556
G1 X78.011 Y105.725 E72.69678
G1 X77.463 Y105.365 E72.72949
G1 X76.956 Y104.924 E72.76301
G1 X76.477 Y104.378 E72.79925
G1 X76.14 Y103.889 E72.82888
G1 X75.823 Y103.303 E72.86212
G1 X75.589 Y102.75 E72.89207
G1 X75.425 Y102.268 E72.91748
G1 X75.281 Y101.741 E72.94473
G1 X75.149 Y101.121 E72.97636
G1 X75.056 Y100.528 E73.0063
G1 X75.035 Y100.354 E73.01505
G1 X74.957 Y99.472 E73.05922
G1 X74.948 Y99.31 E73.06732
G1 X74.92 Y98.19 E73.12321
G1 X74.92 Y89.249 E73.56928
G1 X74.927 Y88.382 E73.61254
G1 X74.975 Y86.965 E73.68327
G1 X75.067 Y85.656 E73.74874
G1 X75.076 Y85.549 E73.75409
G1 X75.196 Y84.482 E73.80766
G1 X75.215 Y84.349 E73.81437
G1 X75.363 Y83.453 E73.85967
G1 X75.39 Y83.313 E73.86679
G1 X75.542 Y82.629 E73.90174
G1 X75.58 Y82.48 E73.90942
G1 X75.728 Y81.961 E73.93634
G1 X75.909 Y81.418 E73.9649
G1 X76.112 Y80.917 E73.99187
G1 X76.372 Y80.381 E74.02159
G1 X76.691 Y79.846 E74.05266
G1 X77.064 Y79.348 E74.0837
G1 X77.501 Y78.886 E74.11543
G1 X77.948 Y78.516 E74.14438
G1 X78.434 Y78.207 E74.17311
G1 X78.937 Y77.972 E74.20081
G1 X79.488 Y77.797 E74.22965
G1 X80.106 Y77.693 E74.26092
G1 X80.548 Y77.669 E74.283
G1 X129.515 Y77.67 E76.72598
G1 X130.072 Y77.714 E76.75385
G1 X130.657 Y77.835 E76.78366
G1 X131.222 Y78.038 E76.81361
G1 X131.742 Y78.309 E76.84286
G1 X132.255 Y78.671 E76.87419
G1 X132.724 Y79.11 E76.90624
G1 X133.164 Y79.64 E76.9406
G1 X133.511 Y80.171 E76.97225
