;FLAVOR:Marlin
;TIME:4299
;Filament used: 2.77892m
;Layer height: 0.2
;MINX:69.57
;MINY:86.618
;MINZ:0.3
;MAXX:140.431
;MAXY:123.382
;MAXZ:17.375
;Generated with Cura_SteamEngine 4.13.1
M82 ;absolute extrusion mode
G21                                        ; metric values 
G90                                        ; absolute positioning 
M82                                        ; set extruder to absolute mode 
M107                                       ; start with the fan off 
M140 S60           ; Start heating the bed 
G4 S60                                     ; wait 1 minute 
M104 S210         ; start heating the hot end 
M190 S60           ; wait for bed 
M109 S210         ; wait for hotend 
M300 S1000 P500                            ; BEEP heating done 
G28 X0 Y10 Z0                              ; move X/Y to min endstops 
M420 S1                                    ; Enable leveling 
M420 Z2.0                                  ; Set leveling fading height to 2 mm 
G0 Z0.15                                   ; lift nozzle a bit 
G92 E0                                     ; zero the extruded length 
G1 X50 E25 F500                            ; Extrude 25mm of filament in a 5cm line. 
G92 E0                                     ; zero the extruded length again 
G1 E-2 F500                                ; Retract a little 
G1 X120 F4000                              ; Quickly wipe away from the filament line`
G92 E0
G92 E0
G1 F1500 E-6
;LAYER_COUNT:86
;LAYER:0
M106 S76.5
M205 X10 Y10
G1 F600 Z0.375
G0 F6000 X76.174 Y90.892 Z0.375
M205 X8 Y8
;TYPE:SKIRT
G1 F600 Z0.3
G1 F1500 E0
G1 F1200 X76.525 Y90.607 E0.02256
G1 X77.194 Y90.101 E0.06441
G1 X77.549 Y89.851 E0.08607
G1 X78.247 Y89.394 E0.12769
G1 X78.628 Y89.163 E0.14992
G1 X79.418 Y88.721 E0.19508
G1 X79.972 Y88.434 E0.22621
G1 X80.458 Y88.21 E0.25291
G1 X80.868 Y88.039 E0.27507
G1 X81.683 Y87.722 E0.3187
G1 X82.107 Y87.574 E0.3411
G1 X82.913 Y87.324 E0.38321
G1 X83.351 Y87.205 E0.40585
G1 X84.189 Y87.009 E0.44879
G1 X84.625 Y86.923 E0.47096
G1 X85.441 Y86.791 E0.5122
G1 X85.884 Y86.735 E0.53447
G1 X86.698 Y86.661 E0.57525
G1 X87.143 Y86.636 E0.59749
G1 X88.002 Y86.618 E0.64035
G1 X88.448 Y86.625 E0.66261
G1 X89.287 Y86.666 E0.70451
G1 X89.736 Y86.703 E0.72699
G1 X90.82 Y86.834 E0.78147
G1 X93.41 Y87.196 E0.91194
G1 X96.044 Y87.488 E1.04415
G1 X98.641 Y87.702 E1.17416
G1 X101.314 Y87.845 E1.3077
G1 X103.957 Y87.913 E1.43961
G1 X106.6 Y87.906 E1.57147
G1 X109.246 Y87.824 E1.70354
G1 X111.909 Y87.666 E1.83663
G1 X114.517 Y87.437 E1.96725
G1 X117.167 Y87.128 E2.10035
G1 X119.576 Y86.779 E2.22179
G1 X119.899 Y86.741 E2.23802
G1 X120.777 Y86.661 E2.282
G1 X121.224 Y86.636 E2.30434
G1 X122.083 Y86.618 E2.3472
G1 X122.529 Y86.625 E2.36946
G1 X123.368 Y86.666 E2.41137
G1 X123.82 Y86.704 E2.43399
G1 X124.627 Y86.801 E2.47455
G1 X125.051 Y86.866 E2.49595
G1 X125.893 Y87.025 E2.5387
G1 X126.35 Y87.129 E2.56208
G1 X127.147 Y87.341 E2.60322
G1 X127.564 Y87.467 E2.62496
G1 X128.378 Y87.744 E2.66786
G1 X128.799 Y87.904 E2.69032
G1 X129.602 Y88.242 E2.73379
G1 X130.12 Y88.48 E2.76223
G1 X130.617 Y88.732 E2.79003
G1 X131.033 Y88.966 E2.81384
G1 X131.822 Y89.437 E2.85969
G1 X132.206 Y89.685 E2.88249
G1 X132.892 Y90.164 E2.92424
G1 X133.234 Y90.42 E2.94555
G1 X133.862 Y90.924 E2.98572
G1 X134.199 Y91.214 E3.0079
G1 X134.909 Y91.87 E3.05613
G1 X135.296 Y92.252 E3.08326
G1 X135.678 Y92.663 E3.11125
G1 X135.993 Y93.029 E3.13535
G1 X136.534 Y93.692 E3.17804
G1 X136.804 Y94.047 E3.20029
G1 X137.308 Y94.761 E3.24389
G1 X137.556 Y95.14 E3.26649
G1 X137.969 Y95.823 E3.30631
G1 X138.183 Y96.208 E3.32828
G1 X138.577 Y96.974 E3.37126
G1 X138.768 Y97.379 E3.3936
G1 X139.102 Y98.158 E3.43588
G1 X139.266 Y98.581 E3.45852
G1 X139.559 Y99.425 E3.50309
G1 X139.742 Y100.012 E3.53377
G1 X139.873 Y100.508 E3.55936
G1 X139.978 Y100.975 E3.58324
G1 X140.16 Y101.89 E3.62978
G1 X140.255 Y102.463 E3.65876
G1 X140.324 Y103.027 E3.68711
G1 X140.365 Y103.52 E3.71179
G1 X140.416 Y104.433 E3.75741
G1 X140.431 Y105.031 E3.78726
G1 X140.421 Y105.609 E3.8161
G1 X140.394 Y106.06 E3.83864
G1 X140.314 Y107.008 E3.8861
G1 X140.248 Y107.587 E3.91517
G1 X140.158 Y108.157 E3.94396
G1 X140.065 Y108.62 E3.96752
G1 X139.855 Y109.542 E4.0147
G1 X139.708 Y110.106 E4.04378
G1 X139.54 Y110.655 E4.07242
G1 X139.389 Y111.079 E4.09488
G1 X139.064 Y111.933 E4.14047
G1 X138.894 Y112.338 E4.16238
G1 X138.56 Y113.062 E4.20216
G1 X138.356 Y113.466 E4.22474
G1 X137.934 Y114.233 E4.26841
G1 X137.706 Y114.616 E4.29065
G1 X137.265 Y115.3 E4.33125
G1 X137.017 Y115.658 E4.35298
G1 X136.498 Y116.354 E4.39629
G1 X136.208 Y116.714 E4.41936
G1 X135.652 Y117.357 E4.46177
G1 X135.203 Y117.845 E4.49485
G1 X134.684 Y118.351 E4.53101
G1 X134.501 Y118.518 E4.54337
G1 X133.826 Y119.108 E4.5881
G1 X133.475 Y119.393 E4.61066
G1 X132.806 Y119.899 E4.65251
G1 X132.451 Y120.149 E4.67417
G1 X131.753 Y120.606 E4.71579
G1 X131.373 Y120.836 E4.73795
G1 X130.596 Y121.271 E4.78238
G1 X130.048 Y121.555 E4.81317
G1 X129.542 Y121.79 E4.84101
G1 X129.132 Y121.961 E4.86317
G1 X128.317 Y122.278 E4.9068
G1 X127.893 Y122.426 E4.9292
G1 X127.087 Y122.676 E4.9713
G1 X126.649 Y122.795 E4.99395
G1 X125.811 Y122.991 E5.03688
G1 X125.375 Y123.077 E5.05905
G1 X124.559 Y123.209 E5.10029
G1 X124.116 Y123.265 E5.12257
G1 X123.302 Y123.339 E5.16335
G1 X122.857 Y123.364 E5.18558
G1 X121.998 Y123.382 E5.22845
G1 X121.552 Y123.375 E5.2507
G1 X120.713 Y123.334 E5.29261
G1 X120.264 Y123.297 E5.31509
G1 X119.18 Y123.166 E5.36956
G1 X116.59 Y122.804 E5.50003
G1 X113.956 Y122.512 E5.63225
G1 X111.359 Y122.298 E5.76225
G1 X108.686 Y122.155 E5.8958
G1 X106.043 Y122.087 E6.0277
G1 X103.4 Y122.094 E6.15957
G1 X100.754 Y122.176 E6.29164
G1 X98.091 Y122.334 E6.42473
G1 X95.483 Y122.563 E6.55534
G1 X92.833 Y122.872 E6.68845
G1 X90.424 Y123.221 E6.80989
G1 X90.101 Y123.259 E6.82611
G1 X89.223 Y123.339 E6.8701
G1 X88.776 Y123.364 E6.89243
G1 X87.917 Y123.382 E6.9353
G1 X87.471 Y123.375 E6.95755
G1 X86.632 Y123.334 E6.99946
G1 X86.18 Y123.296 E7.02209
G1 X85.373 Y123.199 E7.06264
G1 X84.949 Y123.134 E7.08404
G1 X84.107 Y122.975 E7.12679
G1 X83.65 Y122.871 E7.15018
G1 X82.853 Y122.659 E7.19132
G1 X82.436 Y122.533 E7.21305
G1 X81.619 Y122.255 E7.25611
G1 X81.196 Y122.094 E7.27869
G1 X80.396 Y121.757 E7.322
G1 X79.853 Y121.507 E7.35182
G1 X79.383 Y121.268 E7.37813
G1 X78.967 Y121.034 E7.40194
G1 X78.178 Y120.563 E7.44778
G1 X77.794 Y120.315 E7.47059
G1 X77.108 Y119.836 E7.51233
G1 X76.765 Y119.58 E7.53369
G1 X76.136 Y119.075 E7.57393
G1 X75.8 Y118.785 E7.59607
G1 X75.091 Y118.13 E7.64423
G1 X74.704 Y117.748 E7.67136
G1 X74.323 Y117.339 E7.69925
G1 X74.006 Y116.97 E7.72352
G1 X73.465 Y116.307 E7.76621
G1 X73.193 Y115.948 E7.78868
G1 X72.689 Y115.233 E7.83232
G1 X72.446 Y114.861 E7.85449
G1 X72.033 Y114.179 E7.89427
G1 X71.814 Y113.789 E7.91658
G1 X71.421 Y113.024 E7.95949
G1 X71.232 Y112.621 E7.9817
G1 X70.898 Y111.842 E8.02398
G1 X70.734 Y111.419 E8.04662
G1 X70.441 Y110.575 E8.09119
G1 X70.257 Y109.986 E8.12197
G1 X70.124 Y109.48 E8.14808
G1 X70.02 Y109.014 E8.1719
G1 X69.84 Y108.109 E8.21793
G1 X69.743 Y107.522 E8.24762
G1 X69.674 Y106.954 E8.27616
G1 X69.635 Y106.479 E8.29994
G1 X69.584 Y105.568 E8.34546
G1 X69.57 Y104.971 E8.37525
G1 X69.581 Y104.366 E8.40544
G1 X69.608 Y103.917 E8.42788
G1 X69.686 Y102.992 E8.47419
G1 X69.755 Y102.392 E8.50433
G1 X69.842 Y101.844 E8.53201
G1 X69.935 Y101.38 E8.55562
G1 X70.145 Y100.458 E8.60279
G1 X70.292 Y99.894 E8.63187
G1 X70.46 Y99.345 E8.66052
G1 X70.61 Y98.922 E8.68291
G1 X70.936 Y98.065 E8.72865
G1 X71.108 Y97.656 E8.75079
G1 X71.441 Y96.935 E8.79041
G1 X71.644 Y96.534 E8.81283
G1 X72.066 Y95.767 E8.85651
G1 X72.294 Y95.384 E8.87875
G1 X72.735 Y94.7 E8.91935
G1 X72.984 Y94.341 E8.94115
G1 X73.504 Y93.644 E8.98453
G1 X73.792 Y93.286 E9.00745
G1 X74.353 Y92.637 E9.05025
G1 X74.797 Y92.155 E9.08295
G1 X75.316 Y91.649 E9.11911
G1 X75.499 Y91.482 E9.13147
G1 X76.174 Y90.892 E9.1762
M205 X10 Y10
G0 F6000 X76.437 Y91.193
M205 X8 Y8
G1 F1200 X76.767 Y90.926 E9.19737
G1 X77.436 Y90.42 E9.23922
G1 X77.768 Y90.185 E9.25952
G1 X78.466 Y89.728 E9.30114
G1 X78.823 Y89.512 E9.32196
G1 X79.613 Y89.07 E9.36712
G1 X80.145 Y88.795 E9.397
G1 X80.613 Y88.578 E9.42273
G1 X81.013 Y88.412 E9.44434
G1 X81.828 Y88.095 E9.48797
G1 X82.225 Y87.956 E9.50895
G1 X83.031 Y87.706 E9.55105
G1 X83.443 Y87.595 E9.57234
G1 X84.281 Y87.399 E9.61528
G1 X84.689 Y87.318 E9.63603
G1 X85.505 Y87.186 E9.67727
G1 X85.92 Y87.134 E9.69814
G1 X86.734 Y87.06 E9.73891
G1 X87.151 Y87.036 E9.75975
G1 X88.01 Y87.018 E9.80262
G1 X88.429 Y87.024 E9.82352
G1 X89.268 Y87.065 E9.86543
G1 X89.689 Y87.101 E9.88651
G1 X90.764 Y87.231 E9.94054
G1 X93.343 Y87.591 E10.07045
G1 X95.968 Y87.882 E10.20221
G1 X98.657 Y88.104 E10.33682
G1 X101.281 Y88.245 E10.46793
G1 X103.948 Y88.313 E10.60103
G1 X106.613 Y88.306 E10.73398
G1 X109.247 Y88.224 E10.86546
G1 X111.932 Y88.065 E10.99965
G1 X114.562 Y87.834 E11.13136
G1 X117.233 Y87.523 E11.26552
G1 X119.626 Y87.175 E11.38616
G1 X119.936 Y87.14 E11.40173
G1 X120.814 Y87.06 E11.44571
G1 X121.232 Y87.036 E11.4666
G1 X122.091 Y87.018 E11.50947
G1 X122.51 Y87.024 E11.53037
G1 X123.349 Y87.065 E11.57228
G1 X123.772 Y87.101 E11.59346
G1 X124.579 Y87.198 E11.63401
G1 X124.976 Y87.259 E11.65405
G1 X125.818 Y87.418 E11.6968
G1 X126.247 Y87.516 E11.71876
G1 X127.044 Y87.728 E11.7599
G1 X127.435 Y87.846 E11.78028
G1 X128.249 Y88.123 E11.82317
G1 X128.644 Y88.273 E11.84425
G1 X129.447 Y88.611 E11.88772
G1 X129.943 Y88.839 E11.91495
G1 X130.425 Y89.083 E11.94191
G1 X130.828 Y89.309 E11.96496
G1 X131.617 Y89.78 E12.0108
G1 X131.977 Y90.013 E12.0322
G1 X132.663 Y90.492 E12.07394
G1 X132.983 Y90.732 E12.0939
G1 X133.611 Y91.236 E12.13407
G1 X133.928 Y91.508 E12.15491
G1 X134.638 Y92.164 E12.20313
G1 X135.006 Y92.528 E12.22896
G1 X135.377 Y92.926 E12.2561
G1 X135.683 Y93.282 E12.27952
G1 X136.224 Y93.945 E12.32222
G1 X136.477 Y94.278 E12.34308
G1 X136.981 Y94.992 E12.38668
G1 X137.213 Y95.347 E12.40784
G1 X137.626 Y96.03 E12.44766
G1 X137.828 Y96.391 E12.4683
G1 X138.222 Y97.157 E12.51127
G1 X138.401 Y97.537 E12.53223
G1 X138.735 Y98.316 E12.57452
G1 X138.888 Y98.712 E12.5957
G1 X139.181 Y99.556 E12.64027
G1 X139.356 Y100.117 E12.66959
G1 X139.546 Y100.87 E12.70833
G1 X139.586 Y101.053 E12.71768
G1 X139.768 Y101.968 E12.76422
G1 X139.858 Y102.517 E12.79198
G1 X139.926 Y103.063 E12.81943
G1 X139.966 Y103.542 E12.84341
G1 X140.017 Y104.455 E12.88903
G1 X140.031 Y105.028 E12.91762
G1 X140.021 Y105.588 E12.94557
G1 X139.996 Y106.027 E12.9675
G1 X139.916 Y106.975 E13.01497
G1 X139.852 Y107.53 E13.04284
G1 X139.765 Y108.082 E13.07072
G1 X139.675 Y108.531 E13.09357
G1 X139.465 Y109.453 E13.14074
G1 X139.324 Y109.993 E13.16859
G1 X139.161 Y110.524 E13.1963
G1 X139.016 Y110.937 E13.21814
G1 X138.691 Y111.791 E13.26372
G1 X138.531 Y112.17 E13.28425
G1 X138.197 Y112.894 E13.32403
G1 X138.006 Y113.273 E13.3452
G1 X137.584 Y114.04 E13.38888
G1 X137.37 Y114.399 E13.40973
G1 X136.929 Y115.083 E13.45033
G1 X136.696 Y115.419 E13.47073
G1 X136.177 Y116.115 E13.51404
G1 X135.906 Y116.452 E13.53562
G1 X135.35 Y117.095 E13.57803
G1 X134.919 Y117.564 E13.60981
G1 X134.409 Y118.06 E13.6453
G1 X134.238 Y118.217 E13.65688
G1 X133.563 Y118.807 E13.70161
G1 X133.233 Y119.074 E13.72278
G1 X132.564 Y119.58 E13.76463
G1 X132.232 Y119.815 E13.78493
G1 X131.534 Y120.272 E13.82655
G1 X131.178 Y120.487 E13.8473
G1 X130.401 Y120.922 E13.89172
G1 X129.875 Y121.195 E13.92129
G1 X129.387 Y121.422 E13.94814
G1 X128.987 Y121.588 E13.96975
G1 X128.172 Y121.905 E14.01338
G1 X127.775 Y122.044 E14.03436
G1 X126.969 Y122.294 E14.07646
G1 X126.557 Y122.405 E14.09775
G1 X125.719 Y122.601 E14.14069
G1 X125.311 Y122.682 E14.16144
G1 X124.495 Y122.814 E14.20268
G1 X124.08 Y122.866 E14.22355
G1 X123.266 Y122.94 E14.26432
G1 X122.849 Y122.964 E14.28516
G1 X121.99 Y122.982 E14.32803
G1 X121.571 Y122.976 E14.34893
G1 X120.732 Y122.935 E14.39084
G1 X120.311 Y122.899 E14.41192
G1 X119.236 Y122.769 E14.46594
G1 X116.657 Y122.409 E14.59586
G1 X114.032 Y122.118 E14.72762
G1 X111.343 Y121.896 E14.86223
G1 X108.719 Y121.755 E14.99333
G1 X106.052 Y121.687 E15.12644
G1 X103.387 Y121.694 E15.25939
G1 X100.753 Y121.776 E15.39087
G1 X98.068 Y121.935 E15.52506
G1 X95.438 Y122.166 E15.65677
G1 X92.767 Y122.477 E15.79093
G1 X90.374 Y122.825 E15.91157
G1 X90.064 Y122.86 E15.92714
G1 X89.186 Y122.94 E15.97112
G1 X88.768 Y122.964 E15.99201
G1 X87.909 Y122.982 E16.03488
G1 X87.49 Y122.976 E16.05578
G1 X86.651 Y122.935 E16.09769
G1 X86.228 Y122.899 E16.11887
G1 X85.421 Y122.802 E16.15942
G1 X85.024 Y122.741 E16.17946
G1 X84.182 Y122.582 E16.22221
G1 X83.753 Y122.484 E16.24416
G1 X82.956 Y122.272 E16.28531
G1 X82.565 Y122.154 E16.30569
G1 X81.748 Y121.876 E16.34874
G1 X81.352 Y121.725 E16.36989
G1 X80.552 Y121.388 E16.41319
G1 X80.031 Y121.149 E16.44179
G1 X79.575 Y120.917 E16.46732
G1 X79.172 Y120.691 E16.49037
G1 X78.383 Y120.22 E16.53621
G1 X78.023 Y119.987 E16.55761
G1 X77.337 Y119.508 E16.59935
G1 X77.016 Y119.268 E16.61934
G1 X76.387 Y118.763 E16.65959
G1 X76.072 Y118.491 E16.68035
G1 X75.363 Y117.836 E16.72851
G1 X74.994 Y117.472 E16.75437
G1 X74.625 Y117.076 E16.78137
G1 X74.316 Y116.717 E16.805
G1 X73.775 Y116.054 E16.84769
G1 X73.52 Y115.718 E16.86874
G1 X73.016 Y115.003 E16.91238
G1 X72.788 Y114.654 E16.93318
G1 X72.375 Y113.972 E16.97296
G1 X72.17 Y113.606 E16.99389
G1 X71.777 Y112.841 E17.03679
G1 X71.599 Y112.463 E17.05764
G1 X71.265 Y111.684 E17.09992
G1 X71.112 Y111.288 E17.1211
G1 X70.819 Y110.444 E17.16568
G1 X70.643 Y109.881 E17.19511
G1 X70.514 Y109.39 E17.22043
G1 X70.412 Y108.936 E17.24365
G1 X70.232 Y108.031 E17.28968
G1 X70.14 Y107.469 E17.31809
G1 X70.072 Y106.919 E17.34574
G1 X70.034 Y106.456 E17.36892
G1 X69.983 Y105.545 E17.41444
G1 X69.97 Y104.973 E17.44298
G1 X69.98 Y104.387 E17.47222
G1 X70.006 Y103.951 E17.49402
G1 X70.084 Y103.026 E17.54033
G1 X70.151 Y102.45 E17.56926
G1 X70.235 Y101.92 E17.59603
G1 X70.325 Y101.469 E17.61897
G1 X70.535 Y100.547 E17.66615
G1 X70.676 Y100.006 E17.69404
G1 X70.839 Y99.476 E17.72171
G1 X70.984 Y99.064 E17.7435
G1 X71.31 Y98.207 E17.78924
G1 X71.471 Y97.824 E17.80997
G1 X71.804 Y97.103 E17.84959
G1 X71.994 Y96.727 E17.87061
G1 X72.416 Y95.96 E17.91429
G1 X72.63 Y95.601 E17.93514
G1 X73.071 Y94.917 E17.97574
G1 X73.305 Y94.58 E17.99621
G1 X73.825 Y93.883 E18.03959
G1 X74.095 Y93.547 E18.0611
G1 X74.656 Y92.898 E18.1039
G1 X75.081 Y92.436 E18.13521
G1 X75.591 Y91.94 E18.17071
G1 X75.762 Y91.783 E18.18229
G1 X76.437 Y91.193 E18.22702
M205 X10 Y10
G0 F6000 X76.701 Y91.495
M205 X8 Y8
G1 F1200 X77.008 Y91.245 E18.24677
G1 X77.677 Y90.739 E18.28862
G1 X77.988 Y90.52 E18.30759
G1 X78.686 Y90.063 E18.34922
G1 X79.019 Y89.861 E18.36865
G1 X79.809 Y89.419 E18.41381
G1 X80.317 Y89.156 E18.44235
G1 X81.008 Y88.846 E18.48013
G1 X81.158 Y88.785 E18.48821
G1 X81.973 Y88.468 E18.53184
G1 X82.344 Y88.338 E18.55145
G1 X83.15 Y88.088 E18.59356
G1 X83.534 Y87.984 E18.6134
G1 X84.372 Y87.788 E18.65634
G1 X84.753 Y87.713 E18.67571
G1 X85.569 Y87.581 E18.71695
G1 X85.956 Y87.532 E18.73641
G1 X86.77 Y87.458 E18.77719
G1 X87.16 Y87.436 E18.79668
G1 X88.019 Y87.418 E18.83954
G1 X88.409 Y87.424 E18.859
G1 X89.248 Y87.465 E18.90091
G1 X89.641 Y87.498 E18.92059
G1 X90.709 Y87.627 E18.97426
G1 X93.28 Y87.986 E19.10377
G1 X95.962 Y88.284 E19.2384
G1 X98.601 Y88.501 E19.3705
G1 X101.285 Y88.645 E19.5046
G1 X103.939 Y88.713 E19.63705
G1 X106.627 Y88.706 E19.77116
G1 X109.281 Y88.624 E19.90363
G1 X111.957 Y88.465 E20.03737
G1 X114.607 Y88.232 E20.17009
G1 X117.236 Y87.926 E20.30214
