;FLAVOR:Marlin
;TIME:2997
;Filament used: 2.11394m
;Layer height: 0.2
;MINX:75.06
;MINY:75.06
;MINZ:0.3
;MAXX:134.936
;MAXY:134.936
;MAXZ:9.175
;Generated with Cura_SteamEngine 4.13.1
M82 ;absolute extrusion mode
G21                                        ; metric values 
G90                                        ; absolute positioning 
M82                                        ; set extruder to absolute mode 
M107                                       ; start with the fan off 
M140 S60           ; Start heating the bed 
G4 S60                                     ; wait 1 minute 
M104 S210         ; start heating the hot end 
M190 S60           ; wait for bed 
M109 S210         ; wait for hotend 
M300 S1000 P500                            ; BEEP heating done 
G28 X0 Y10 Z0                              ; move X/Y to min endstops 
M420 S1                                    ; Enable leveling 
M420 Z2.0                                  ; Set leveling fading height to 2 mm 
G0 Z0.15                                   ; lift nozzle a bit 
G92 E0                                     ; zero the extruded length 
G1 X50 E25 F500                            ; Extrude 25mm of filament in a 5cm line. 
G92 E0                                     ; zero the extruded length again 
G1 E-2 F500                                ; Retract a little 
G1 X120 F4000                              ; Quickly wipe away from the filament line`
G92 E0
G92 E0
G1 F1500 E-6
;LAYER_COUNT:45
;LAYER:0
M106 S76.5
M205 X10 Y10
G1 F600 Z0.375
G0 F6000 X84.054 Y83.606 Z0.375
M205 X8 Y8
;TYPE:SKIRT
G1 F600 Z0.3
G1 F1500 E0
G1 F1200 X85.332 Y82.425 E0.08682
G1 X85.798 Y82.028 E0.11736
G1 X87.162 Y80.953 E0.204
G1 X87.661 Y80.59 E0.23479
G1 X89.109 Y79.624 E0.32163
G1 X89.625 Y79.309 E0.35179
G1 X91.14 Y78.46 E0.43843
G1 X91.696 Y78.176 E0.46958
G1 X93.276 Y77.45 E0.55633
G1 X93.831 Y77.221 E0.58628
G1 X95.464 Y76.618 E0.67313
G1 X96.055 Y76.426 E0.70413
G1 X97.727 Y75.956 E0.79078
G1 X98.319 Y75.814 E0.82116
G1 X100.026 Y75.475 E0.90798
G1 X100.723 Y75.375 E0.94311
G1 X102.377 Y75.175 E1.02623
G1 X102.999 Y75.126 E1.05736
G1 X104.706 Y75.06 E1.14258
G1 X105.321 Y75.06 E1.17327
G1 X107.031 Y75.129 E1.25865
G1 X107.627 Y75.176 E1.28848
G1 X109.381 Y75.382 E1.37658
G1 X109.995 Y75.479 E1.4076
G1 X111.702 Y75.819 E1.49443
G1 X112.301 Y75.964 E1.52518
G1 X113.973 Y76.437 E1.61187
G1 X114.552 Y76.625 E1.64224
G1 X116.185 Y77.228 E1.72909
G1 X116.75 Y77.462 E1.7596
G1 X118.326 Y78.189 E1.84619
G1 X118.875 Y78.469 E1.87693
G1 X120.392 Y79.32 E1.96371
G1 X120.912 Y79.639 E1.99415
G1 X122.358 Y80.606 E2.08093
G1 X122.856 Y80.968 E2.11165
G1 X124.22 Y82.045 E2.19836
G1 X124.682 Y82.44 E2.22868
G1 X125.958 Y83.62 E2.31539
G1 X126.393 Y84.055 E2.34608
G1 X127.574 Y85.334 E2.43293
G1 X127.967 Y85.796 E2.46319
G1 X129.042 Y87.159 E2.5498
G1 X129.408 Y87.662 E2.58083
G1 X130.374 Y89.111 E2.66772
G1 X130.688 Y89.625 E2.69777
G1 X131.537 Y91.14 E2.78441
G1 X131.82 Y91.695 E2.81549
G1 X132.546 Y93.274 E2.90219
G1 X132.777 Y93.832 E2.93232
G1 X133.38 Y95.466 E3.01922
G1 X133.572 Y96.058 E3.05027
G1 X134.041 Y97.729 E3.13686
G1 X134.181 Y98.312 E3.16677
G1 X134.521 Y100.018 E3.25356
G1 X134.625 Y100.728 E3.28936
G1 X134.823 Y102.382 E3.37246
G1 X134.871 Y103.003 E3.40354
G1 X134.936 Y104.71 E3.48876
G1 X134.936 Y105.317 E3.51905
G1 X134.868 Y107.026 E3.60438
G1 X134.82 Y107.633 E3.63475
G1 X134.609 Y109.416 E3.72433
G1 X134.513 Y110.022 E3.75494
G1 X134.179 Y111.7 E3.8403
G1 X134.034 Y112.301 E3.87114
G1 X133.561 Y113.972 E3.95778
G1 X133.373 Y114.55 E3.98811
G1 X132.77 Y116.183 E4.07495
G1 X132.537 Y116.747 E4.1054
G1 X131.81 Y118.324 E4.19203
G1 X131.528 Y118.876 E4.22296
G1 X130.677 Y120.392 E4.30969
G1 X130.36 Y120.908 E4.33991
G1 X129.393 Y122.355 E4.42673
G1 X129.03 Y122.855 E4.45756
G1 X127.953 Y124.219 E4.54427
G1 X127.558 Y124.681 E4.57459
G1 X126.378 Y125.957 E4.6613
G1 X125.943 Y126.392 E4.69199
G1 X124.664 Y127.573 E4.77884
G1 X124.192 Y127.974 E4.80974
G1 X122.804 Y129.065 E4.89782
G1 X122.313 Y129.422 E4.92811
G1 X120.889 Y130.372 E5.01351
G1 X120.373 Y130.687 E5.04367
G1 X118.858 Y131.536 E5.13031
G1 X118.303 Y131.819 E5.1614
G1 X116.724 Y132.545 E5.2481
G1 X116.166 Y132.776 E5.27823
G1 X114.532 Y133.379 E5.36512
G1 X113.939 Y133.571 E5.39622
G1 X112.267 Y134.04 E5.48286
G1 X111.684 Y134.18 E5.51277
G1 X109.977 Y134.52 E5.59961
G1 X109.184 Y134.636 E5.63959
G1 X107.613 Y134.822 E5.71851
G1 X106.998 Y134.87 E5.74929
G1 X105.292 Y134.936 E5.83447
G1 X104.68 Y134.936 E5.865
G1 X102.971 Y134.868 E5.95033
G1 X102.372 Y134.821 E5.98031
G1 X100.617 Y134.615 E6.06846
G1 X100.002 Y134.518 E6.09953
G1 X98.295 Y134.178 E6.18636
G1 X97.695 Y134.033 E6.21716
G1 X96.024 Y133.56 E6.3038
G1 X95.442 Y133.371 E6.33433
G1 X93.809 Y132.767 E6.42119
G1 X93.253 Y132.536 E6.45123
G1 X91.674 Y131.809 E6.53796
G1 X91.119 Y131.526 E6.56904
G1 X89.604 Y130.676 E6.6557
G1 X89.084 Y130.357 E6.68614
G1 X87.637 Y129.389 E6.77299
G1 X87.141 Y129.028 E6.8036
G1 X85.778 Y127.952 E6.89024
G1 X85.313 Y127.554 E6.92077
G1 X84.036 Y126.372 E7.00759
G1 X83.605 Y125.942 E7.03796
G1 X82.425 Y124.665 E7.1247
G1 X82.028 Y124.2 E7.15521
G1 X80.952 Y122.835 E7.24192
G1 X80.589 Y122.334 E7.27279
G1 X79.624 Y120.887 E7.35956
G1 X79.307 Y120.37 E7.38982
G1 X78.457 Y118.852 E7.47661
G1 X78.176 Y118.299 E7.50756
G1 X77.451 Y116.722 E7.59415
G1 X77.221 Y116.166 E7.62417
G1 X76.618 Y114.533 E7.71102
G1 X76.425 Y113.938 E7.74223
G1 X75.956 Y112.266 E7.82886
G1 X75.816 Y111.683 E7.85878
G1 X75.476 Y109.976 E7.94561
G1 X75.375 Y109.268 E7.98129
G1 X75.175 Y107.615 E8.06436
G1 X75.127 Y107.003 E8.09499
G1 X75.06 Y105.297 E8.18017
G1 X75.06 Y104.677 E8.2111
G1 X75.129 Y102.966 E8.29653
G1 X75.176 Y102.37 E8.32636
G1 X75.382 Y100.616 E8.41447
G1 X75.479 Y100.002 E8.44548
G1 X75.819 Y98.295 E8.53231
G1 X75.964 Y97.696 E8.56306
G1 X76.437 Y96.024 E8.64975
G1 X76.625 Y95.445 E8.68012
G1 X77.228 Y93.812 E8.76697
G1 X77.462 Y93.247 E8.79748
G1 X78.189 Y91.671 E8.88407
G1 X78.469 Y91.122 E8.91482
G1 X79.32 Y89.605 E9.00159
G1 X79.639 Y89.085 E9.03203
G1 X80.606 Y87.639 E9.11882
G1 X80.968 Y87.141 E9.14953
G1 X82.045 Y85.777 E9.23624
G1 X82.443 Y85.313 E9.26674
G1 X83.624 Y84.037 E9.35348
G1 X84.054 Y83.606 E9.38385
M205 X10 Y10
G0 F6000 X84.326 Y83.9
M205 X8 Y8
G1 F1200 X85.604 Y82.719 E9.47067
G1 X86.045 Y82.342 E9.49961
G1 X87.409 Y81.267 E9.58626
G1 X87.883 Y80.923 E9.61548
G1 X89.331 Y79.957 E9.70232
G1 X89.82 Y79.658 E9.73091
G1 X91.335 Y78.809 E9.81756
G1 X91.863 Y78.54 E9.84712
G1 X93.443 Y77.814 E9.93387
G1 X93.97 Y77.596 E9.96232
G1 X95.603 Y76.993 E10.04917
G1 X96.163 Y76.811 E10.07855
G1 X97.835 Y76.341 E10.1652
G1 X98.397 Y76.207 E10.19402
G1 X100.104 Y75.868 E10.28085
G1 X100.771 Y75.772 E10.31447
G1 X100.89 Y75.755 E10.32046
G1 X102.425 Y75.572 E10.39759
G1 X103.014 Y75.526 E10.42706
G1 X104.721 Y75.46 E10.51229
G1 X105.305 Y75.46 E10.54142
G1 X107.015 Y75.529 E10.62681
G1 X107.58 Y75.574 E10.65508
G1 X109.334 Y75.78 E10.74319
G1 X109.917 Y75.872 E10.77264
G1 X111.624 Y76.212 E10.85947
G1 X112.192 Y76.348 E10.88861
G1 X113.864 Y76.821 E10.9753
G1 X114.413 Y77 E11.00411
G1 X116.046 Y77.603 E11.09096
G1 X116.583 Y77.825 E11.11995
G1 X118.159 Y78.552 E11.20654
G1 X118.679 Y78.818 E11.23568
G1 X120.196 Y79.669 E11.32246
G1 X120.69 Y79.972 E11.35137
G1 X122.136 Y80.939 E11.43816
G1 X122.608 Y81.282 E11.46726
G1 X123.972 Y82.359 E11.55397
G1 X124.41 Y82.734 E11.58274
G1 X125.686 Y83.914 E11.66945
G1 X126.099 Y84.327 E11.69858
G1 X127.28 Y85.606 E11.78544
G1 X127.653 Y86.043 E11.8141
G1 X128.728 Y87.406 E11.90071
G1 X129.075 Y87.884 E11.93017
G1 X130.041 Y89.333 E12.01706
G1 X130.339 Y89.82 E12.04554
G1 X131.188 Y91.335 E12.13218
G1 X131.456 Y91.862 E12.16168
G1 X132.182 Y93.441 E12.24839
G1 X132.401 Y93.97 E12.27695
G1 X133.004 Y95.604 E12.36384
G1 X133.187 Y96.166 E12.39333
G1 X133.656 Y97.837 E12.47992
G1 X133.788 Y98.391 E12.50833
G1 X134.128 Y100.097 E12.59512
G1 X134.228 Y100.775 E12.62931
G1 X134.426 Y102.429 E12.71242
G1 X134.472 Y103.018 E12.74189
G1 X134.537 Y104.725 E12.82712
G1 X134.536 Y105.301 E12.85585
G1 X134.468 Y107.01 E12.94118
G1 X134.423 Y107.586 E12.97001
G1 X134.212 Y109.369 E13.05958
G1 X134.121 Y109.944 E13.08863
G1 X133.787 Y111.622 E13.17398
G1 X133.649 Y112.192 E13.20324
G1 X133.176 Y113.863 E13.28989
G1 X132.998 Y114.411 E13.31863
G1 X132.395 Y116.044 E13.40548
G1 X132.173 Y116.579 E13.43438
G1 X131.446 Y118.156 E13.52101
G1 X131.179 Y118.68 E13.55035
G1 X130.328 Y120.196 E13.63709
G1 X130.028 Y120.686 E13.66575
G1 X129.061 Y122.133 E13.75258
G1 X128.716 Y122.607 E13.78183
G1 X127.639 Y123.971 E13.86853
G1 X127.264 Y124.409 E13.8973
G1 X126.084 Y125.685 E13.98401
G1 X125.671 Y126.098 E14.01315
G1 X124.392 Y127.279 E14.1
G1 X123.945 Y127.66 E14.1293
G1 X122.557 Y128.751 E14.21738
G1 X122.091 Y129.089 E14.2461
G1 X120.667 Y130.039 E14.3315
G1 X120.178 Y130.338 E14.3601
G1 X118.663 Y131.187 E14.44674
G1 X118.136 Y131.455 E14.47624
G1 X116.557 Y132.181 E14.56294
G1 X116.028 Y132.4 E14.59151
G1 X114.394 Y133.003 E14.6784
G1 X113.831 Y133.186 E14.70794
G1 X112.159 Y133.655 E14.79457
G1 X111.606 Y133.787 E14.82294
G1 X109.899 Y134.127 E14.90977
G1 X109.148 Y134.238 E14.94765
G1 X107.566 Y134.425 E15.02712
G1 X106.982 Y134.47 E15.05635
G1 X105.276 Y134.536 E15.14152
G1 X104.696 Y134.536 E15.17046
G1 X102.987 Y134.468 E15.25579
G1 X102.418 Y134.424 E15.28426
G1 X100.663 Y134.218 E15.37242
G1 X100.08 Y134.125 E15.40187
G1 X98.373 Y133.785 E15.48871
G1 X97.804 Y133.648 E15.51791
G1 X96.133 Y133.175 E15.60455
G1 X95.581 Y132.995 E15.63352
G1 X93.948 Y132.391 E15.72038
G1 X93.42 Y132.173 E15.74888
G1 X91.841 Y131.446 E15.8356
G1 X91.315 Y131.178 E15.86506
G1 X89.8 Y130.328 E15.95172
G1 X89.306 Y130.025 E15.98064
G1 X87.859 Y129.057 E16.06749
G1 X87.389 Y128.714 E16.09652
G1 X86.026 Y127.638 E16.18316
G1 X85.584 Y127.261 E16.21214
G1 X84.307 Y126.079 E16.29895
G1 X83.899 Y125.67 E16.32777
G1 X82.719 Y124.393 E16.41452
G1 X82.342 Y123.952 E16.44346
G1 X81.266 Y122.587 E16.53018
G1 X80.921 Y122.112 E16.55947
G1 X79.956 Y120.665 E16.64624
G1 X79.656 Y120.174 E16.67495
G1 X78.806 Y118.656 E16.76174
G1 X78.539 Y118.132 E16.79108
G1 X77.814 Y116.555 E16.87768
G1 X77.596 Y116.027 E16.90618
G1 X76.993 Y114.394 E16.99302
G1 X76.81 Y113.83 E17.02261
G1 X76.341 Y112.158 E17.10924
G1 X76.209 Y111.605 E17.13761
G1 X75.869 Y109.898 E17.22444
G1 X75.772 Y109.221 E17.25856
G1 X75.572 Y107.568 E17.34163
G1 X75.527 Y106.987 E17.37071
G1 X75.46 Y105.281 E17.45588
G1 X75.46 Y104.693 E17.48522
G1 X75.529 Y102.982 E17.57065
G1 X75.574 Y102.417 E17.59893
G1 X75.78 Y100.663 E17.68704
G1 X75.872 Y100.08 E17.71648
G1 X76.212 Y98.373 E17.80332
G1 X76.348 Y97.805 E17.83246
G1 X76.821 Y96.133 E17.91915
G1 X77 Y95.584 E17.94796
G1 X77.603 Y93.951 E18.0348
G1 X77.825 Y93.414 E18.06379
G1 X78.552 Y91.838 E18.15038
G1 X78.818 Y91.318 E18.17952
G1 X79.669 Y89.801 E18.2663
G1 X79.972 Y89.307 E18.29521
G1 X80.939 Y87.861 E18.382
G1 X81.282 Y87.389 E18.41111
G1 X82.359 Y86.025 E18.49782
G1 X82.736 Y85.584 E18.52676
G1 X83.917 Y84.308 E18.6135
G1 X84.326 Y83.9 E18.64233
M205 X10 Y10
G0 F6000 X84.597 Y84.194
M205 X8 Y8
G1 F1200 X85.875 Y83.013 E18.72914
G1 X86.293 Y82.656 E18.75657
G1 X87.657 Y81.581 E18.84321
G1 X88.105 Y81.256 E18.87082
G1 X89.553 Y80.29 E18.95766
G1 X90.016 Y80.006 E18.98476
G1 X91.531 Y79.157 E19.0714
G1 X92.03 Y78.903 E19.09934
G1 X93.61 Y78.177 E19.18609
G1 X94.108 Y77.971 E19.21298
G1 X95.741 Y77.368 E19.29982
G1 X96.272 Y77.196 E19.32767
G1 X97.944 Y76.726 E19.41432
G1 X98.474 Y76.599 E19.44151
G1 X100.181 Y76.26 E19.52834
G1 X100.818 Y76.169 E19.56044
G1 X102.472 Y75.969 E19.64356
G1 X103.03 Y75.925 E19.67148
G1 X104.737 Y75.859 E19.75671
G1 X105.289 Y75.86 E19.78425
G1 X106.999 Y75.929 E19.86963
G1 X107.534 Y75.971 E19.8964
G1 X109.288 Y76.177 E19.98451
G1 X109.838 Y76.264 E20.01229
G1 X111.545 Y76.604 E20.09913
G1 X112.083 Y76.733 E20.12673
G1 X113.755 Y77.206 E20.21342
G1 X114.275 Y77.375 E20.2407
G1 X115.908 Y77.978 E20.32755
G1 X116.415 Y78.189 E20.35495
G1 X117.991 Y78.916 E20.44153
G1 X118.484 Y79.167 E20.46913
G1 X120.001 Y80.018 E20.55591
G1 X120.467 Y80.304 E20.58319
G1 X121.913 Y81.271 E20.66998
G1 X122.36 Y81.596 E20.69755
G1 X123.724 Y82.673 E20.78426
G1 X124.139 Y83.028 E20.8115
G1 X125.415 Y84.208 E20.89821
G1 X125.805 Y84.598 E20.92573
G1 X126.986 Y85.877 E21.01258
G1 X127.339 Y86.291 E21.03972
G1 X128.414 Y87.654 E21.12633
G1 X128.742 Y88.106 E21.15419
G1 X129.708 Y89.555 E21.24107
G1 X129.991 Y90.016 E21.26806
G1 X130.84 Y91.531 E21.3547
G1 X131.093 Y92.029 E21.38257
G1 X131.819 Y93.608 E21.46927
G1 X132.026 Y94.109 E21.49632
G1 X132.629 Y95.743 E21.58321
G1 X132.802 Y96.274 E21.61108
G1 X133.271 Y97.945 E21.69766
G1 X133.396 Y98.469 E21.72454
G1 X133.736 Y100.175 E21.81133
G1 X133.841 Y100.898 E21.84778
G1 X134.028 Y102.476 E21.92705
G1 X134.072 Y103.034 E21.95498
G1 X134.137 Y104.741 E22.0402
G1 X134.136 Y105.285 E22.06734
G1 X134.068 Y106.994 E22.15267
G1 X134.025 Y107.539 E22.17995
G1 X133.814 Y109.322 E22.26952
G1 X133.728 Y109.866 E22.297
G1 X133.394 Y111.544 E22.38236
G1 X133.264 Y112.084 E22.41007
G1 X132.791 Y113.755 E22.49671
G1 X132.623 Y114.273 E22.52388
G1 X132.02 Y115.906 E22.61073
G1 X131.81 Y116.412 E22.63806
G1 X131.083 Y117.989 E22.72469
G1 X130.83 Y118.484 E22.75243
G1 X129.979 Y120 E22.83916
G1 X129.695 Y120.463 E22.86626
G1 X128.728 Y121.91 E22.95309
G1 X128.402 Y122.359 E22.98077
G1 X127.325 Y123.723 E23.06748
G1 X126.97 Y124.138 E23.09472
G1 X125.79 Y125.414 E23.18143
G1 X125.4 Y125.804 E23.20895
G1 X124.121 Y126.985 E23.2958
G1 X123.698 Y127.345 E23.32351
G1 X122.31 Y128.436 E23.41159
G1 X121.869 Y128.756 E23.43877
G1 X120.445 Y129.706 E23.52418
G1 X119.982 Y129.99 E23.55127
G1 X118.467 Y130.839 E23.63792
G1 X117.969 Y131.092 E23.66579
G1 X116.39 Y131.818 E23.75249
G1 X115.889 Y132.025 E23.77953
G1 X114.255 Y132.628 E23.86643
G1 X113.723 Y132.801 E23.89434
G1 X112.051 Y133.27 E23.98097
G1 X111.527 Y133.395 E24.00785
G1 X109.82 Y133.735 E24.09469
G1 X109.136 Y133.837 E24.12919
G1 X109.062 Y133.844 E24.1329
G1 X107.519 Y134.027 E24.21042
G1 X106.967 Y134.071 E24.23804
G1 X105.261 Y134.137 E24.32322
G1 X104.712 Y134.136 E24.35061
G1 X103.003 Y134.068 E24.43594
G1 X102.465 Y134.026 E24.46286
G1 X100.71 Y133.82 E24.55102
G1 X100.159 Y133.733 E24.57885
G1 X98.452 Y133.393 E24.66569
G1 X97.912 Y133.263 E24.6934
G1 X96.241 Y132.79 E24.78004
G1 X95.72 Y132.62 E24.80738
G1 X94.087 Y132.016 E24.89424
G1 X93.587 Y131.809 E24.92124
G1 X92.008 Y131.082 E25.00797
G1 X91.511 Y130.829 E25.03579
G1 X89.996 Y129.979 E25.12246
G1 X89.529 Y129.692 E25.14981
G1 X88.082 Y128.724 E25.23666
G1 X87.637 Y128.4 E25.26412
G1 X86.274 Y127.324 E25.35076
G1 X85.856 Y126.967 E25.37818
G1 X84.579 Y125.785 E25.465
G1 X84.193 Y125.399 E25.49223
G1 X83.013 Y124.122 E25.57898
G1 X82.657 Y123.704 E25.60637
G1 X81.581 Y122.339 E25.69308
G1 X81.254 Y121.89 E25.72079
G1 X80.289 Y120.443 E25.80757
G1 X80.005 Y119.979 E25.83471
G1 X79.155 Y118.461 E25.92151
G1 X78.903 Y117.965 E25.94926
G1 X78.178 Y116.388 E26.03585
G1 X77.971 Y115.889 E26.06281
G1 X77.368 Y114.256 E26.14965
G1 X77.195 Y113.722 E26.17766
G1 X76.726 Y112.05 E26.26429
G1 X76.601 Y111.526 E26.29117
G1 X76.261 Y109.819 E26.37801
G1 X76.168 Y109.174 E26.41052
G1 X75.97 Y107.521 E26.49358
G1 X75.926 Y106.972 E26.52105
G1 X75.859 Y105.266 E26.60623
G1 X75.86 Y104.709 E26.63402
G1 X75.929 Y102.998 E26.71945
G1 X75.971 Y102.463 E26.74623
G1 X76.177 Y100.709 E26.83433
G1 X76.264 Y100.159 E26.86212
G1 X76.604 Y98.452 E26.94895
