;FLAVOR:Marlin
;TIME:7942
;Filament used: 6.20787m
;Layer height: 0.2
;MINX:62.513
;MINY:76.927
;MINZ:0.3
;MAXX:147.492
;MAXY:130.281
;MAXZ:17.575
;Generated with Cura_SteamEngine 4.13.1
M82 ;absolute extrusion mode
G21                                        ; metric values 
G90                                        ; absolute positioning 
M82                                        ; set extruder to absolute mode 
M107                                       ; start with the fan off 
M140 S60           ; Start heating the bed 
G4 S60                                     ; wait 1 minute 
M104 S210         ; start heating the hot end 
M190 S60           ; wait for bed 
M109 S210         ; wait for hotend 
M300 S1000 P500                            ; BEEP heating done 
G28 X0 Y10 Z0                              ; move X/Y to min endstops 
M420 S1                                    ; Enable leveling 
M420 Z2.0                                  ; Set leveling fading height to 2 mm 
G0 Z0.15                                   ; lift nozzle a bit 
G92 E0                                     ; zero the extruded length 
G1 X50 E25 F500                            ; Extrude 25mm of filament in a 5cm line. 
G92 E0                                     ; zero the extruded length again 
G1 E-2 F500                                ; Retract a little 
G1 X120 F4000                              ; Quickly wipe away from the filament line`
G92 E0
G92 E0
G1 F1500 E-6
;LAYER_COUNT:87
;LAYER:0
M106 S76.5
M205 X10 Y10
G1 F600 Z0.375
G0 F6000 X66.804 Y84.226 Z0.375
M205 X8 Y8
;TYPE:SKIRT
G1 F600 Z0.3
G1 F1500 E0
G1 F1200 X67.398 Y83.848 E0.03513
G1 X68.031 Y83.539 E0.07027
G1 X68.694 Y83.304 E0.10536
G1 X69.38 Y83.146 E0.14048
G1 X70.428 Y83.057 E0.19296
G1 X74.091 Y83.057 E0.3757
G1 X74.199 Y82.778 E0.39063
G1 X74.527 Y82.155 E0.42576
G1 X74.923 Y81.574 E0.46083
G1 X75.383 Y81.041 E0.49596
G1 X75.901 Y80.563 E0.53112
G1 X76.193 Y80.337 E0.54955
G1 X77.051 Y79.713 E0.60248
G1 X77.643 Y79.332 E0.6376
G1 X78.275 Y79.02 E0.67276
G1 X78.937 Y78.782 E0.70786
G1 X79.622 Y78.621 E0.74297
G1 X80.322 Y78.538 E0.77813
G1 X80.698 Y78.527 E0.7969
G1 X81.756 Y78.527 E0.84968
G1 X82.459 Y78.567 E0.88481
G1 X83.056 Y78.572 E0.9146
G1 X83.437 Y78.56 E0.93362
G1 X84.475 Y78.56 E0.9854
G1 X85.178 Y78.6 E1.02053
G1 X85.872 Y78.719 E1.05566
G1 X86.547 Y78.917 E1.09076
G1 X87.196 Y79.189 E1.12586
G1 X87.81 Y79.534 E1.161
G1 X88.125 Y79.748 E1.18
G1 X88.964 Y80.359 E1.23178
G1 X89.508 Y80.805 E1.26688
G1 X89.999 Y81.31 E1.30202
G1 X90.429 Y81.867 E1.33712
G1 X90.793 Y82.47 E1.37226
G1 X91.063 Y83.057 E1.4045
G1 X119.592 Y83.057 E2.82781
G1 X119.685 Y82.818 E2.84061
G1 X120.013 Y82.195 E2.87574
G1 X120.41 Y81.613 E2.91088
G1 X120.87 Y81.08 E2.94601
G1 X121.387 Y80.603 E2.9811
G1 X121.674 Y80.381 E2.99921
G1 X122.496 Y79.782 E3.04995
G1 X123.087 Y79.401 E3.08503
G1 X123.718 Y79.089 E3.12015
G1 X124.381 Y78.85 E3.15531
G1 X125.066 Y78.688 E3.19043
G1 X125.765 Y78.605 E3.22554
G1 X126.147 Y78.593 E3.24461
G1 X127.295 Y78.593 E3.30189
G1 X127.759 Y78.538 E3.3252
G1 X128.136 Y78.527 E3.34401
G1 X129.194 Y78.527 E3.3968
G1 X129.897 Y78.567 E3.43193
G1 X130.591 Y78.686 E3.46706
G1 X131.266 Y78.884 E3.50215
G1 X131.915 Y79.156 E3.53726
G1 X132.529 Y79.501 E3.5724
G1 X132.841 Y79.713 E3.59122
G1 X133.699 Y80.337 E3.64414
G1 X134.244 Y80.783 E3.67928
G1 X134.734 Y81.287 E3.71435
G1 X135.165 Y81.844 E3.74948
G1 X135.53 Y82.446 E3.78461
G1 X135.811 Y83.057 E3.81816
G1 X139.572 Y83.057 E4.0058
G1 X140.275 Y83.097 E4.04093
G1 X140.969 Y83.216 E4.07606
G1 X141.644 Y83.414 E4.11115
G1 X142.293 Y83.686 E4.14626
G1 X142.907 Y84.031 E4.18139
G1 X143.478 Y84.442 E4.21649
G1 X144.236 Y85.172 E4.269
G1 X144.356 Y85.309 E4.27808
G1 X144.789 Y85.864 E4.3132
G1 X145.156 Y86.464 E4.34829
G1 X145.453 Y87.103 E4.38345
G1 X145.676 Y87.771 E4.41858
G1 X145.821 Y88.459 E4.45366
G1 X145.888 Y89.16 E4.48879
G1 X145.874 Y89.864 E4.52392
G1 X145.833 Y90.247 E4.54314
G1 X142.072 Y117.316 E5.90659
G1 X141.936 Y118.007 E5.94173
G1 X141.722 Y118.678 E5.97686
G1 X141.434 Y119.32 E6.01197
G1 X141.074 Y119.925 E6.04709
G1 X140.703 Y120.421 E6.07799
G1 X140.63 Y120.509 E6.0837
G1 X140.15 Y121.025 E6.11886
G1 X139.615 Y121.483 E6.15399
G1 X139.032 Y121.877 E6.1891
G1 X138.408 Y122.202 E6.2242
G1 X137.737 Y122.459 E6.26005
G1 X124.57 Y126.646 E6.94936
G1 X123.593 Y126.872 E6.99939
G1 X123.559 Y126.877 E7.00111
G1 X122.657 Y126.943 E7.04623
G1 X87.343 Y126.943 E8.80805
G1 X86.441 Y126.877 E8.85317
G1 X86.407 Y126.872 E8.85489
G1 X85.43 Y126.646 E8.90492
G1 X84.827 Y126.454 E8.93649
G1 X84.25 Y126.944 E8.97426
G1 X83.498 Y127.492 E9.02068
G1 X82.907 Y127.873 E9.05576
G1 X82.276 Y128.185 E9.09088
G1 X81.613 Y128.424 E9.12604
G1 X80.928 Y128.586 E9.16116
G1 X80.229 Y128.669 E9.19627
G1 X79.847 Y128.681 E9.21534
G1 X78.917 Y128.681 E9.26174
G1 X78.214 Y128.641 E9.29687
G1 X77.52 Y128.522 E9.332
G1 X76.845 Y128.324 E9.36709
G1 X76.196 Y128.052 E9.4022
G1 X75.582 Y127.707 E9.43734
G1 X75.266 Y127.492 E9.45641
G1 X74.514 Y126.944 E9.50283
G1 X73.969 Y126.497 E9.53799
G1 X73.479 Y125.992 E9.5731
G1 X73.049 Y125.435 E9.60821
G1 X72.685 Y124.832 E9.64335
G1 X72.391 Y124.192 E9.67848
G1 X72.271 Y123.856 E9.69628
G1 X71.983 Y122.973 E9.74262
G1 X71.802 Y122.283 E9.77821
G1 X71.605 Y122.208 E9.78873
G1 X70.98 Y121.884 E9.82385
G1 X70.396 Y121.492 E9.85894
G1 X69.86 Y121.035 E9.89408
G1 X69.37 Y120.509 E9.92995
G1 X69.297 Y120.421 E9.93565
G1 X68.879 Y119.855 E9.97075
G1 X68.528 Y119.245 E10.00586
G1 X68.248 Y118.599 E10.04099
G1 X68.044 Y117.925 E10.07612
G1 X67.928 Y117.316 E10.10705
G1 X64.167 Y90.247 E11.4705
G1 X64.11 Y89.546 E11.50559
G1 X64.133 Y88.842 E11.54073
G1 X64.235 Y88.145 E11.57588
G1 X64.416 Y87.465 E11.61098
G1 X64.672 Y86.81 E11.64607
G1 X65.002 Y86.187 E11.68124
G1 X65.399 Y85.606 E11.71635
G1 X65.764 Y85.172 E11.74464
G1 X66.257 Y84.669 E11.77978
G1 X66.804 Y84.226 E11.8149
M205 X10 Y10
G0 F6000 X66.533 Y83.929
M205 X8 Y8
G1 F1200 X67.142 Y83.533 E11.85114
G1 X67.791 Y83.207 E11.88737
G1 X68.472 Y82.954 E11.92362
G1 X69.176 Y82.777 E11.95983
G1 X69.896 Y82.678 E11.99609
G1 X70.428 Y82.657 E12.02265
G1 X73.816 Y82.657 E12.19168
G1 X73.825 Y82.633 E12.19296
G1 X74.161 Y81.989 E12.2292
G1 X74.564 Y81.385 E12.26542
G1 X75.032 Y80.829 E12.30168
G1 X75.558 Y80.329 E12.33789
G1 X75.958 Y80.013 E12.36332
G1 X76.816 Y79.389 E12.41625
G1 X77.426 Y78.995 E12.45248
G1 X78.076 Y78.67 E12.48874
G1 X78.757 Y78.419 E12.52495
G1 X79.462 Y78.244 E12.56119
G1 X80.182 Y78.147 E12.59743
G1 X80.698 Y78.127 E12.62319
G1 X81.756 Y78.127 E12.67598
G1 X82.481 Y78.167 E12.7122
G1 X82.916 Y78.181 E12.73392
G1 X83.437 Y78.16 E12.75993
G1 X84.475 Y78.16 E12.81172
G1 X85.2 Y78.2 E12.84794
G1 X85.917 Y78.319 E12.8842
G1 X86.616 Y78.517 E12.92045
G1 X87.289 Y78.79 E12.95668
G1 X87.928 Y79.135 E12.99291
G1 X88.36 Y79.425 E13.01887
G1 X89.199 Y80.036 E13.07065
G1 X89.762 Y80.495 E13.10689
G1 X90.271 Y81.013 E13.14312
G1 X90.72 Y81.584 E13.17936
G1 X91.103 Y82.201 E13.21559
G1 X91.321 Y82.657 E13.24081
G1 X119.319 Y82.657 E14.63763
G1 X119.647 Y82.028 E14.67303
G1 X120.051 Y81.425 E14.70924
G1 X120.519 Y80.869 E14.74549
G1 X121.045 Y80.368 E14.78174
G1 X121.438 Y80.058 E14.80671
G1 X122.26 Y79.459 E14.85745
G1 X122.87 Y79.064 E14.89371
G1 X123.519 Y78.739 E14.92992
G1 X124.2 Y78.487 E14.96615
G1 X124.905 Y78.311 E15.0024
G1 X125.625 Y78.214 E15.03864
G1 X126.147 Y78.193 E15.06471
G1 X127.163 Y78.193 E15.1154
G1 X127.619 Y78.147 E15.13826
G1 X128.136 Y78.127 E15.16407
G1 X129.194 Y78.127 E15.21686
G1 X129.919 Y78.167 E15.25308
G1 X130.636 Y78.286 E15.28934
G1 X131.335 Y78.484 E15.32559
G1 X132.008 Y78.757 E15.36182
G1 X132.647 Y79.102 E15.39805
G1 X133.076 Y79.389 E15.4238
G1 X133.934 Y80.013 E15.47673
G1 X134.497 Y80.472 E15.51297
G1 X135.006 Y80.99 E15.5492
G1 X135.455 Y81.561 E15.58544
G1 X135.839 Y82.178 E15.6217
G1 X136.069 Y82.657 E15.64821
G1 X139.572 Y82.657 E15.82297
G1 X140.297 Y82.697 E15.8592
G1 X141.014 Y82.816 E15.89546
G1 X141.713 Y83.014 E15.93171
G1 X142.386 Y83.287 E15.96794
G1 X143.025 Y83.632 E16.00417
G1 X143.622 Y84.046 E16.04041
G1 X144.17 Y84.522 E16.07663
G1 X144.537 Y84.908 E16.1032
G1 X144.657 Y85.045 E16.11229
G1 X145.105 Y85.617 E16.14853
G1 X145.487 Y86.235 E16.18478
G1 X145.799 Y86.891 E16.22102
G1 X146.037 Y87.577 E16.25725
G1 X146.198 Y88.285 E16.29347
G1 X146.281 Y89.007 E16.32973
G1 X146.283 Y89.733 E16.36595
G1 X146.229 Y90.302 E16.39447
G1 X142.468 Y117.371 E17.75792
G1 X142.329 Y118.084 E17.79416
G1 X142.112 Y118.777 E17.83039
G1 X141.82 Y119.443 E17.86667
G1 X141.457 Y120.072 E17.9029
G1 X141.011 Y120.677 E17.9404
G1 X140.938 Y120.765 E17.9461
G1 X140.444 Y121.298 E17.98236
G1 X139.895 Y121.773 E18.01858
G1 X139.296 Y122.185 E18.05485
G1 X138.656 Y122.528 E18.09107
G1 X137.858 Y122.841 E18.13384
G1 X124.691 Y127.028 E18.82316
G1 X123.651 Y127.268 E18.87641
G1 X123.617 Y127.273 E18.87812
G1 X122.657 Y127.343 E18.92614
G1 X87.343 Y127.343 E20.68797
G1 X86.383 Y127.273 E20.73599
G1 X86.349 Y127.268 E20.7377
G1 X85.309 Y127.028 E20.79095
G1 X84.931 Y126.908 E20.81074
G1 X84.486 Y127.267 E20.83926
G1 X83.734 Y127.815 E20.88568
G1 X83.124 Y128.21 E20.92194
G1 X82.475 Y128.535 E20.95815
G1 X81.794 Y128.787 E20.99438
G1 X81.089 Y128.963 E21.03063
G1 X80.369 Y129.06 E21.06688
G1 X79.847 Y129.081 E21.09294
G1 X78.917 Y129.081 E21.13934
G1 X78.192 Y129.041 E21.17556
G1 X77.475 Y128.922 E21.21182
G1 X76.776 Y128.724 E21.24807
G1 X76.103 Y128.451 E21.2843
G1 X75.464 Y128.106 E21.32053
G1 X75.03 Y127.815 E21.3466
G1 X74.278 Y127.267 E21.39302
G1 X73.715 Y126.808 E21.42926
G1 X73.207 Y126.289 E21.4655
G1 X72.758 Y125.718 E21.50174
G1 X72.375 Y125.101 E21.53797
G1 X72.062 Y124.445 E21.57423
G1 X71.89 Y123.98 E21.59896
G1 X71.602 Y123.097 E21.6453
G1 X71.465 Y122.584 E21.67179
G1 X70.816 Y122.252 E21.70816
G1 X70.21 Y121.852 E21.74439
G1 X69.651 Y121.388 E21.78063
G1 X69.062 Y120.765 E21.8234
G1 X68.989 Y120.677 E21.82911
G1 X68.557 Y120.093 E21.86535
G1 X68.191 Y119.465 E21.90161
G1 X67.897 Y118.801 E21.93784
G1 X67.678 Y118.109 E21.97405
G1 X67.532 Y117.371 E22.01159
G1 X63.771 Y90.302 E23.37504
G1 X63.711 Y89.578 E23.41128
G1 X63.73 Y88.852 E23.44752
G1 X63.83 Y88.133 E23.48373
G1 X64.007 Y87.429 E23.51995
G1 X64.262 Y86.748 E23.55623
G1 X64.589 Y86.1 E23.59244
G1 X64.986 Y85.491 E23.62871
G1 X65.343 Y85.045 E23.65721
G1 X65.463 Y84.908 E23.66629
G1 X65.971 Y84.389 E23.70253
G1 X66.533 Y83.929 E23.73876
M205 X10 Y10
G0 F6000 X66.261 Y83.632
M205 X8 Y8
G1 F1200 X66.885 Y83.22 E23.77606
G1 X67.55 Y82.876 E23.81342
G1 X68.247 Y82.605 E23.85073
G1 X68.969 Y82.411 E23.88803
G1 X69.708 Y82.294 E23.92535
G1 X70.428 Y82.257 E23.96132
G1 X73.571 Y82.257 E24.11813
G1 X73.794 Y81.824 E24.14243
G1 X74.205 Y81.199 E24.17975
G1 X74.68 Y80.621 E24.21707
G1 X75.214 Y80.097 E24.2544
G1 X75.723 Y79.69 E24.28691
G1 X76.581 Y79.066 E24.33984
G1 X77.208 Y78.659 E24.37713
G1 X77.876 Y78.321 E24.41448
G1 X78.576 Y78.057 E24.45181
G1 X79.3 Y77.868 E24.48914
G1 X80.04 Y77.758 E24.52646
G1 X80.698 Y77.727 E24.55933
G1 X81.756 Y77.727 E24.61211
G1 X82.503 Y77.767 E24.64943
G1 X82.773 Y77.792 E24.66296
G1 X83.437 Y77.76 E24.69613
G1 X84.475 Y77.76 E24.74791
G1 X85.222 Y77.8 E24.78523
G1 X85.96 Y77.919 E24.82253
G1 X86.682 Y78.117 E24.85988
G1 X87.378 Y78.39 E24.89718
G1 X88.041 Y78.737 E24.93451
G1 X88.596 Y79.101 E24.96762
G1 X89.435 Y79.712 E25.0194
G1 X90.015 Y80.185 E25.05674
G1 X90.542 Y80.716 E25.09407
G1 X91.009 Y81.3 E25.13137
G1 X91.411 Y81.931 E25.1687
G1 X91.573 Y82.257 E25.18686
G1 X119.077 Y82.257 E26.55904
G1 X119.28 Y81.863 E26.58115
G1 X119.691 Y81.238 E26.61847
G1 X120.166 Y80.66 E26.6558
G1 X120.701 Y80.137 E26.69312
G1 X121.202 Y79.735 E26.72517
G1 X122.024 Y79.136 E26.77591
G1 X122.652 Y78.728 E26.81328
G1 X123.319 Y78.39 E26.85058
G1 X124.018 Y78.124 E26.8879
G1 X124.742 Y77.935 E26.92523
G1 X125.482 Y77.825 E26.96255
G1 X126.147 Y77.793 E26.99577
G1 X127.163 Y77.793 E27.04645
G1 X127.477 Y77.758 E27.06222
G1 X128.136 Y77.727 E27.09513
G1 X129.194 Y77.727 E27.14791
G1 X129.941 Y77.767 E27.18524
G1 X130.679 Y77.886 E27.22253
G1 X131.401 Y78.084 E27.25988
G1 X132.097 Y78.357 E27.29718
G1 X132.76 Y78.704 E27.33451
G1 X133.311 Y79.066 E27.36741
G1 X134.169 Y79.69 E27.42034
G1 X134.75 Y80.162 E27.45768
G1 X135.277 Y80.692 E27.49497
G1 X135.744 Y81.277 E27.53231
G1 X136.146 Y81.907 E27.5696
G1 X136.32 Y82.257 E27.5891
G1 X139.572 Y82.257 E27.75134
G1 X140.319 Y82.297 E27.78866
G1 X141.057 Y82.416 E27.82596
G1 X141.779 Y82.614 E27.86331
G1 X142.475 Y82.887 E27.90061
G1 X143.138 Y83.234 E27.93794
G1 X143.761 Y83.649 E27.97529
G1 X144.335 Y84.128 E28.01259
G1 X144.838 Y84.645 E28.04857
G1 X144.958 Y84.782 E28.05766
G1 X145.42 Y85.37 E28.09497
G1 X145.816 Y86.004 E28.13226
G1 X146.143 Y86.677 E28.16959
G1 X146.396 Y87.381 E28.20691
G1 X146.573 Y88.108 E28.24424
G1 X146.671 Y88.85 E28.28158
G1 X146.689 Y89.597 E28.31886
G1 X146.625 Y90.357 E28.35691
G1 X142.864 Y117.426 E29.72036
G1 X142.722 Y118.161 E29.75771
G1 X142.502 Y118.876 E29.79503
G1 X142.207 Y119.563 E29.83233
G1 X141.84 Y120.215 E29.86966
G1 X141.319 Y120.932 E29.91388
G1 X141.246 Y121.02 E29.91958
G1 X140.738 Y121.57 E29.95693
G1 X140.174 Y122.062 E29.99427
G1 X139.562 Y122.491 E30.03156
G1 X138.907 Y122.852 E30.06887
G1 X137.979 Y123.222 E30.11872
G1 X124.812 Y127.409 E30.80803
G1 X124.088 Y127.597 E30.84535
G1 X123.675 Y127.669 E30.86627
G1 X122.657 Y127.743 E30.91719
G1 X87.343 Y127.743 E32.67901
G1 X86.325 Y127.669 E32.72993
G1 X86.291 Y127.664 E32.73165
G1 X85.557 Y127.515 E32.76902
G1 X85.016 Y127.354 E32.79718
G1 X84.722 Y127.59 E32.81598
G1 X83.97 Y128.138 E32.86241
G1 X83.342 Y128.546 E32.89977
G1 X82.675 Y128.884 E32.93708
G1 X81.976 Y129.149 E32.97437
G1 X81.252 Y129.339 E33.01171
G1 X80.512 Y129.449 E33.04904
G1 X79.847 Y129.481 E33.08225
G1 X78.917 Y129.481 E33.12865
G1 X78.17 Y129.441 E33.16597
G1 X77.432 Y129.322 E33.20327
G1 X76.71 Y129.124 E33.24062
G1 X76.014 Y128.851 E33.27792
G1 X75.351 Y128.504 E33.31525
G1 X74.794 Y128.138 E33.3485
G1 X74.042 Y127.59 E33.39492
G1 X73.462 Y127.118 E33.43223
G1 X72.936 Y126.587 E33.46952
G1 X72.469 Y126.002 E33.50687
G1 X72.067 Y125.371 E33.54419
G1 X71.735 Y124.701 E33.5815
G1 X71.51 Y124.104 E33.61333
G1 X71.222 Y123.221 E33.65966
G1 X71.125 Y122.858 E33.67841
G1 X70.653 Y122.62 E33.70478
G1 X70.026 Y122.213 E33.74208
G1 X69.445 Y121.741 E33.77942
G1 X68.754 Y121.02 E33.82924
G1 X68.681 Y120.932 E33.83495
G1 X68.235 Y120.332 E33.87225
G1 X67.856 Y119.687 E33.90957
G1 X67.547 Y119.006 E33.94688
G1 X67.313 Y118.295 E33.98422
G1 X67.136 Y117.426 E34.02847
G1 X63.375 Y90.357 E35.39192
G1 X63.311 Y89.612 E35.42922
G1 X63.328 Y88.864 E35.46655
G1 X63.424 Y88.122 E35.50388
G1 X63.6 Y87.395 E35.5412
G1 X63.851 Y86.69 E35.57853
G1 X64.177 Y86.017 E35.61584
G1 X64.572 Y85.382 E35.65315
G1 X65.042 Y84.782 E35.69117
G1 X65.162 Y84.645 E35.70026
G1 X65.685 Y84.109 E35.73762
G1 X66.261 Y83.632 E35.77493
M205 X10 Y10
G0 F6000 X65.988 Y83.337
M205 X8 Y8
G1 F1200 X66.627 Y82.908 E35.81333
G1 X67.306 Y82.548 E35.85167
G1 X68.019 Y82.26 E35.89004
G1 X68.759 Y82.048 E35.92844
G1 X69.516 Y81.913 E35.9668
G1 X70.428 Y81.857 E36.01239
G1 X73.326 Y81.857 E36.15697
G1 X73.426 Y81.66 E36.16799
G1 X73.844 Y81.014 E36.20638
G1 X74.327 Y80.415 E36.24477
G1 X74.869 Y79.869 E36.28315
G1 X75.488 Y79.366 E36.32295
G1 X76.346 Y78.742 E36.37587
G1 X76.99 Y78.323 E36.41421
G1 X77.675 Y77.973 E36.45258
G1 X78.392 Y77.695 E36.49095
G1 X79.135 Y77.494 E36.52935
G1 X79.894 Y77.371 E36.56771
G1 X80.698 Y77.327 E36.60788
