;FLAVOR:Marlin
;TIME:8426
;Filament used: 6.70945m
;Layer height: 0.2
;MINX:69.907
;MINY:64.796
;MINZ:0.3
;MAXX:140.093
;MAXY:137.102
;MAXZ:34.575
;Generated with Cura_SteamEngine 4.13.1
M82 ;absolute extrusion mode
G21                                        ; metric values 
G90                                        ; absolute positioning 
M82                                        ; set extruder to absolute mode 
M107                                       ; start with the fan off 
M140 S60           ; Start heating the bed 
G4 S60                                     ; wait 1 minute 
M104 S210         ; start heating the hot end 
M190 S60           ; wait for bed 
M109 S210         ; wait for hotend 
M300 S1000 P500                            ; BEEP heating done 
G28 X0 Y10 Z0                              ; move X/Y to min endstops 
M420 S1                                    ; Enable leveling 
M420 Z2.0                                  ; Set leveling fading height to 2 mm 
G0 Z0.15                                   ; lift nozzle a bit 
G92 E0                                     ; zero the extruded length 
G1 X50 E25 F500                            ; Extrude 25mm of filament in a 5cm line. 
G92 E0                                     ; zero the extruded length again 
G1 E-2 F500                                ; Retract a little 
G1 X120 F4000                              ; Quickly wipe away from the filament line`
G92 E0
G92 E0
G1 F1500 E-6
;LAYER_COUNT:172
;LAYER:0
M106 S76.5
M205 X10 Y10
G1 F600 Z0.375
G0 F6000 X72.192 Y67.198 Z0.375
M205 X8 Y8
;TYPE:SKIRT
G1 F600 Z0.3
G1 F1500 E0
G1 F1200 X72.309 Y67.081 E0.00825
G1 X72.895 Y66.551 E0.04767
G1 X73.531 Y66.084 E0.08704
G1 X74.211 Y65.683 E0.12642
G1 X74.929 Y65.353 E0.16585
G1 X75.676 Y65.098 E0.20523
G1 X76.445 Y64.919 E0.24462
G1 X77.229 Y64.819 E0.28405
G1 X77.824 Y64.796 E0.31376
G1 X84.971 Y64.796 E0.67032
G1 X85.76 Y64.836 E0.70974
G1 X86.54 Y64.955 E0.7491
G1 X87.305 Y65.153 E0.78852
G1 X88.045 Y65.427 E0.82789
G1 X88.754 Y65.775 E0.8673
G1 X89.425 Y66.193 E0.90674
G1 X90.049 Y66.676 E0.9461
G1 X90.486 Y67.081 E0.97583
G1 X90.603 Y67.198 E0.98408
G1 X91.133 Y67.784 E1.0235
G1 X91.6 Y68.42 E1.06287
G1 X92.001 Y69.1 E1.10225
G1 X92.331 Y69.818 E1.14168
G1 X92.586 Y70.565 E1.18106
G1 X92.765 Y71.334 E1.22045
G1 X92.865 Y72.118 E1.25988
G1 X92.888 Y72.713 E1.28959
G1 X92.888 Y92.365 E2.27003
G1 X117.112 Y92.365 E3.47857
G1 X117.112 Y72.713 E4.45901
G1 X117.152 Y71.924 E4.49842
G1 X117.271 Y71.144 E4.53779
G1 X117.469 Y70.379 E4.57721
G1 X117.743 Y69.639 E4.61658
G1 X118.091 Y68.93 E4.65598
G1 X118.509 Y68.259 E4.69543
G1 X118.992 Y67.635 E4.73479
G1 X119.397 Y67.198 E4.76452
G1 X119.514 Y67.081 E4.77277
G1 X120.1 Y66.551 E4.81219
G1 X120.736 Y66.084 E4.85156
G1 X121.416 Y65.683 E4.89094
G1 X122.134 Y65.353 E4.93037
G1 X122.881 Y65.098 E4.96975
G1 X123.65 Y64.919 E5.00914
G1 X124.434 Y64.819 E5.04857
G1 X125.029 Y64.796 E5.07828
G1 X132.176 Y64.796 E5.43484
G1 X132.965 Y64.836 E5.47425
G1 X133.745 Y64.955 E5.51362
G1 X134.51 Y65.153 E5.55304
G1 X135.25 Y65.427 E5.59241
G1 X135.959 Y65.775 E5.63181
G1 X136.63 Y66.193 E5.67125
G1 X137.254 Y66.676 E5.71062
G1 X137.691 Y67.081 E5.74035
G1 X137.808 Y67.198 E5.7486
G1 X138.338 Y67.784 E5.78802
G1 X138.805 Y68.42 E5.82739
G1 X139.206 Y69.1 E5.86677
G1 X139.536 Y69.818 E5.9062
G1 X139.791 Y70.565 E5.94558
G1 X139.97 Y71.334 E5.98497
G1 X140.07 Y72.118 E6.0244
G1 X140.093 Y72.713 E6.0541
G1 X140.093 Y100.174 E7.42414
G1 X140.062 Y127.802 E8.80251
G1 X140.021 Y128.59 E8.84187
G1 X139.901 Y129.371 E8.88129
G1 X139.702 Y130.135 E8.92068
G1 X139.427 Y130.875 E8.96007
G1 X139.079 Y131.584 E8.99947
G1 X138.66 Y132.254 E9.0389
G1 X138.177 Y132.878 E9.07826
G1 X137.777 Y133.308 E9.10756
G1 X137.66 Y133.425 E9.11582
G1 X137.074 Y133.955 E9.15524
G1 X136.438 Y134.422 E9.1946
G1 X135.758 Y134.823 E9.23399
G1 X135.04 Y135.153 E9.27341
G1 X134.293 Y135.408 E9.31279
G1 X133.524 Y135.587 E9.35218
G1 X132.74 Y135.687 E9.39161
G1 X132.145 Y135.71 E9.42132
G1 X126.087 Y135.71 E9.72356
G1 X125.298 Y135.67 E9.76297
G1 X124.518 Y135.551 E9.80233
G1 X123.753 Y135.353 E9.84176
G1 X123.013 Y135.079 E9.88113
G1 X122.304 Y134.731 E9.92053
G1 X121.633 Y134.313 E9.95997
G1 X120.977 Y133.803 E10.00142
G1 X120.864 Y133.705 E10.00889
G1 X120.294 Y133.158 E10.0483
G1 X119.783 Y132.556 E10.0877
G1 X119.335 Y131.906 E10.12708
G1 X118.955 Y131.213 E10.16651
G1 X118.647 Y130.486 E10.2059
G1 X118.414 Y129.732 E10.24527
G1 X118.247 Y128.875 E10.28883
G1 X117.527 Y123.646 E10.55217
G1 X117.441 Y123.302 E10.56986
G1 X115.704 Y120 E10.756
G1 X113.607 Y119.556 E10.86294
G1 X106.722 Y121.096 E11.21492
G1 X105.944 Y121.229 E11.2543
G1 X105.02 Y121.284 E11.30048
G1 X104.98 Y121.284 E11.30248
G1 X104.191 Y121.244 E11.34189
G1 X103.277 Y121.096 E11.38808
G1 X96.394 Y119.556 E11.73997
G1 X94.296 Y120 E11.84696
G1 X92.637 Y123.155 E12.0248
G1 X92.57 Y123.475 E12.04111
G1 X91.83 Y128.851 E12.31184
G1 X91.683 Y129.627 E12.35125
G1 X91.458 Y130.384 E12.39065
G1 X91.158 Y131.114 E12.43002
G1 X90.785 Y131.811 E12.46946
G1 X90.344 Y132.466 E12.50886
G1 X89.839 Y133.073 E12.54825
G1 X89.213 Y133.68 E12.59175
G1 X89.1 Y133.778 E12.59922
G1 X88.478 Y134.264 E12.6386
G1 X87.81 Y134.685 E12.67799
G1 X87.103 Y135.037 E12.71739
G1 X86.364 Y135.315 E12.75678
G1 X85.601 Y135.517 E12.79616
G1 X84.821 Y135.641 E12.83556
G1 X83.991 Y135.685 E12.87703
G1 X77.856 Y135.686 E13.18311
G1 X77.068 Y135.646 E13.22247
G1 X76.287 Y135.527 E13.26189
G1 X75.522 Y135.329 E13.30131
G1 X74.782 Y135.055 E13.34068
G1 X74.073 Y134.708 E13.38006
G1 X73.402 Y134.29 E13.4195
G1 X72.778 Y133.807 E13.45887
G1 X72.34 Y133.401 E13.48866
G1 X72.223 Y133.284 E13.49692
G1 X71.693 Y132.698 E13.53634
G1 X71.226 Y132.062 E13.5757
G1 X70.825 Y131.382 E13.61509
G1 X70.495 Y130.664 E13.65451
G1 X70.24 Y129.917 E13.69389
G1 X70.061 Y129.148 E13.73328
G1 X69.961 Y128.364 E13.77271
G1 X69.938 Y127.778 E13.80197
G1 X69.907 Y100.174 E15.17914
G1 X69.907 Y72.713 E16.54918
G1 X69.947 Y71.924 E16.58859
G1 X70.066 Y71.144 E16.62795
G1 X70.264 Y70.379 E16.66738
G1 X70.538 Y69.639 E16.70675
G1 X70.886 Y68.93 E16.74615
G1 X71.304 Y68.259 E16.78559
G1 X71.787 Y67.635 E16.82496
G1 X72.192 Y67.198 E16.85468
M205 X10 Y10
G0 F6000 X72.591 Y67.363
M205 X8 Y8
G1 F1200 X73.163 Y66.849 E16.89305
G1 X73.785 Y66.396 E16.93144
G1 X74.45 Y66.01 E16.9698
G1 X75.152 Y65.695 E17.00819
G1 X75.883 Y65.455 E17.04657
G1 X76.634 Y65.292 E17.08491
G1 X77.399 Y65.208 E17.12331
G1 X77.824 Y65.196 E17.14452
G1 X84.971 Y65.196 E17.50108
G1 X85.739 Y65.236 E17.53945
G1 X86.499 Y65.355 E17.57783
G1 X87.242 Y65.553 E17.61619
G1 X87.961 Y65.827 E17.65458
G1 X88.647 Y66.174 E17.69293
G1 X89.294 Y66.59 E17.73131
G1 X89.894 Y67.071 E17.76968
G1 X90.321 Y67.48 E17.79917
G1 X90.835 Y68.052 E17.83754
G1 X91.288 Y68.674 E17.87593
G1 X91.674 Y69.339 E17.91429
G1 X91.989 Y70.041 E17.95268
G1 X92.229 Y70.772 E17.99106
G1 X92.392 Y71.523 E18.0294
G1 X92.476 Y72.288 E18.0678
G1 X92.488 Y72.713 E18.08901
G1 X92.488 Y92.765 E19.08941
G1 X117.512 Y92.765 E20.33786
G1 X117.512 Y72.713 E21.33826
G1 X117.552 Y71.945 E21.37663
G1 X117.671 Y71.185 E21.41501
G1 X117.869 Y70.442 E21.45337
G1 X118.143 Y69.723 E21.49176
G1 X118.49 Y69.037 E21.53011
G1 X118.906 Y68.39 E21.56848
G1 X119.387 Y67.79 E21.60685
G1 X119.796 Y67.363 E21.63635
G1 X120.368 Y66.849 E21.67472
G1 X120.99 Y66.396 E21.7131
G1 X121.655 Y66.01 E21.75147
G1 X122.357 Y65.695 E21.78985
G1 X123.088 Y65.455 E21.82824
G1 X123.839 Y65.292 E21.86658
G1 X124.604 Y65.208 E21.90497
G1 X125.029 Y65.196 E21.92619
G1 X132.176 Y65.196 E22.28275
G1 X132.944 Y65.236 E22.32112
G1 X133.704 Y65.355 E22.3595
G1 X134.447 Y65.553 E22.39786
G1 X135.166 Y65.827 E22.43625
G1 X135.852 Y66.174 E22.4746
G1 X136.499 Y66.59 E22.51298
G1 X137.099 Y67.071 E22.55134
G1 X137.526 Y67.48 E22.58084
G1 X138.04 Y68.052 E22.61921
G1 X138.493 Y68.674 E22.6576
G1 X138.879 Y69.339 E22.69596
G1 X139.194 Y70.041 E22.73434
G1 X139.434 Y70.772 E22.77273
G1 X139.597 Y71.523 E22.81107
G1 X139.681 Y72.288 E22.84946
G1 X139.693 Y72.713 E22.87068
G1 X139.693 Y100.173 E24.24066
G1 X139.662 Y127.801 E25.61903
G1 X139.621 Y128.569 E25.6574
G1 X139.501 Y129.329 E25.69578
G1 X139.302 Y130.072 E25.73416
G1 X139.028 Y130.791 E25.77255
G1 X138.68 Y131.477 E25.81092
G1 X138.263 Y132.123 E25.84928
G1 X137.781 Y132.722 E25.88764
G1 X137.378 Y133.143 E25.91672
G1 X136.806 Y133.657 E25.95508
G1 X136.184 Y134.11 E25.99347
G1 X135.519 Y134.496 E26.03183
G1 X134.817 Y134.811 E26.07022
G1 X134.086 Y135.051 E26.10861
G1 X133.335 Y135.214 E26.14695
G1 X132.57 Y135.298 E26.18534
G1 X132.145 Y135.31 E26.20655
G1 X126.087 Y135.31 E26.50879
G1 X125.319 Y135.27 E26.54716
G1 X124.559 Y135.151 E26.58553
G1 X123.816 Y134.953 E26.6239
G1 X123.097 Y134.679 E26.66228
G1 X122.411 Y134.332 E26.70064
G1 X121.764 Y133.916 E26.73901
G1 X121.239 Y133.5 E26.77243
G1 X121.126 Y133.402 E26.77989
G1 X120.572 Y132.869 E26.81825
G1 X120.076 Y132.281 E26.85663
G1 X119.644 Y131.645 E26.89498
G1 X119.28 Y130.967 E26.93338
G1 X118.989 Y130.255 E26.97175
G1 X118.773 Y129.517 E27.01011
G1 X118.643 Y128.821 E27.04544
G1 X117.92 Y123.567 E27.31003
G1 X117.817 Y123.159 E27.33103
G1 X115.97 Y119.647 E27.52899
G1 X113.608 Y119.147 E27.64945
G1 X106.635 Y120.706 E28.00592
G1 X105.877 Y120.834 E28.04427
G1 X105.02 Y120.884 E28.0871
G1 X104.98 Y120.884 E28.08909
G1 X104.212 Y120.844 E28.12746
G1 X103.364 Y120.705 E28.17033
G1 X96.396 Y119.146 E28.52656
G1 X94.03 Y119.647 E28.64722
G1 X92.256 Y123.02 E28.83736
G1 X92.178 Y123.395 E28.85647
G1 X91.434 Y128.797 E29.12852
G1 X91.289 Y129.552 E29.16687
G1 X91.067 Y130.289 E29.20527
G1 X90.77 Y130.998 E29.24362
G1 X90.401 Y131.673 E29.282
G1 X89.963 Y132.305 E29.32036
G1 X89.463 Y132.889 E29.35872
G1 X88.951 Y133.377 E29.39401
G1 X88.838 Y133.475 E29.40147
G1 X88.232 Y133.949 E29.43985
G1 X87.58 Y134.356 E29.4782
G1 X86.889 Y134.694 E29.51658
G1 X86.166 Y134.958 E29.55498
G1 X85.42 Y135.145 E29.59335
G1 X84.659 Y135.255 E29.63171
G1 X83.991 Y135.285 E29.66507
G1 X77.856 Y135.286 E29.97114
G1 X77.088 Y135.246 E30.00951
G1 X76.328 Y135.127 E30.04789
G1 X75.585 Y134.929 E30.08625
G1 X74.866 Y134.656 E30.12462
G1 X74.18 Y134.309 E30.16298
G1 X73.533 Y133.893 E30.20135
G1 X72.933 Y133.411 E30.23975
G1 X72.505 Y133.002 E30.26928
G1 X71.991 Y132.43 E30.30765
G1 X71.538 Y131.808 E30.34604
G1 X71.152 Y131.143 E30.3844
G1 X70.837 Y130.441 E30.42279
G1 X70.597 Y129.71 E30.46117
G1 X70.434 Y128.959 E30.49951
G1 X70.35 Y128.194 E30.53791
G1 X70.338 Y127.777 E30.55872
G1 X70.307 Y100.173 E31.93589
G1 X70.307 Y72.713 E33.30588
G1 X70.347 Y71.945 E33.34424
G1 X70.466 Y71.185 E33.38262
G1 X70.664 Y70.442 E33.42098
G1 X70.938 Y69.723 E33.45937
G1 X71.285 Y69.037 E33.49773
G1 X71.701 Y68.39 E33.5361
G1 X72.182 Y67.79 E33.57447
G1 X72.591 Y67.363 E33.60397
M205 X10 Y10
G0 F6000 X72.757 Y67.763
M205 X8 Y8
G1 F1200 X72.874 Y67.646 E33.61222
G1 X73.431 Y67.146 E33.64956
G1 X74.037 Y66.709 E33.68684
G1 X74.687 Y66.338 E33.72418
G1 X75.373 Y66.039 E33.76151
G1 X76.087 Y65.815 E33.79884
G1 X76.82 Y65.668 E33.83614
G1 X77.824 Y65.596 E33.88636
G1 X84.971 Y65.596 E34.24293
G1 X85.718 Y65.636 E34.28025
G1 X86.456 Y65.755 E34.31754
G1 X87.178 Y65.953 E34.35489
G1 X87.874 Y66.226 E34.39219
G1 X88.537 Y66.573 E34.42953
G1 X89.16 Y66.988 E34.46687
G1 X89.921 Y67.646 E34.51706
G1 X90.038 Y67.763 E34.52532
G1 X90.538 Y68.32 E34.56266
G1 X90.975 Y68.926 E34.59993
G1 X91.346 Y69.576 E34.63727
G1 X91.645 Y70.262 E34.67461
G1 X91.869 Y70.976 E34.71194
G1 X92.016 Y71.709 E34.74924
G1 X92.088 Y72.713 E34.79946
G1 X92.088 Y93.165 E35.81981
G1 X117.912 Y93.165 E37.10818
G1 X117.912 Y72.713 E38.12853
G1 X117.952 Y71.966 E38.16585
G1 X118.071 Y71.228 E38.20315
G1 X118.269 Y70.506 E38.2405
G1 X118.542 Y69.81 E38.2778
G1 X118.889 Y69.147 E38.31513
G1 X119.304 Y68.524 E38.35248
G1 X119.962 Y67.763 E38.40267
G1 X120.079 Y67.646 E38.41092
G1 X120.636 Y67.146 E38.44827
G1 X121.242 Y66.709 E38.48554
G1 X121.892 Y66.338 E38.52288
G1 X122.578 Y66.039 E38.56021
G1 X123.292 Y65.815 E38.59755
G1 X124.025 Y65.668 E38.63484
G1 X125.029 Y65.596 E38.68506
G1 X132.176 Y65.596 E39.04163
G1 X132.923 Y65.636 E39.07895
G1 X133.661 Y65.755 E39.11624
G1 X134.383 Y65.953 E39.15359
G1 X135.079 Y66.226 E39.19089
G1 X135.742 Y66.573 E39.22823
G1 X136.365 Y66.988 E39.26557
G1 X137.126 Y67.646 E39.31576
G1 X137.243 Y67.763 E39.32402
G1 X137.743 Y68.32 E39.36136
G1 X138.18 Y68.926 E39.39864
G1 X138.551 Y69.576 E39.43598
G1 X138.85 Y70.262 E39.47331
G1 X139.074 Y70.976 E39.51064
G1 X139.221 Y71.709 E39.54794
G1 X139.293 Y72.713 E39.59816
G1 X139.293 Y100.173 E40.96814
G1 X139.262 Y127.801 E42.34651
G1 X139.221 Y128.548 E42.38384
G1 X139.101 Y129.286 E42.42114
G1 X138.903 Y130.007 E42.45844
G1 X138.628 Y130.703 E42.49578
G1 X138.281 Y131.366 E42.53311
G1 X137.866 Y131.988 E42.57042
G1 X137.212 Y132.743 E42.62025
G1 X137.095 Y132.86 E42.6285
G1 X136.538 Y133.36 E42.66585
G1 X135.932 Y133.797 E42.70312
G1 X135.282 Y134.168 E42.74046
G1 X134.596 Y134.467 E42.77779
G1 X133.882 Y134.691 E42.81513
G1 X133.149 Y134.838 E42.85243
G1 X132.145 Y134.91 E42.90264
G1 X126.087 Y134.91 E43.20488
G1 X125.34 Y134.87 E43.2422
G1 X124.602 Y134.751 E43.27949
G1 X123.88 Y134.553 E43.31685
G1 X123.184 Y134.28 E43.35414
G1 X122.521 Y133.933 E43.39148
G1 X121.898 Y133.518 E43.42882
G1 X121.501 Y133.198 E43.45426
G1 X121.388 Y133.1 E43.46173
G1 X120.85 Y132.581 E43.49902
G1 X120.37 Y132.007 E43.53635
G1 X119.954 Y131.385 E43.57368
G1 X119.607 Y130.722 E43.61102
G1 X119.333 Y130.026 E43.64834
G1 X119.135 Y129.305 E43.68564
G1 X119.039 Y128.766 E43.71295
G1 X118.313 Y123.487 E43.9788
G1 X118.194 Y123.016 E44.00304
G1 X116.237 Y119.295 E44.21279
G1 X113.603 Y118.737 E44.34712
G1 X106.548 Y120.315 E44.70779
G1 X105.81 Y120.439 E44.74512
G1 X105.02 Y120.484 E44.7846
G1 X104.98 Y120.484 E44.7866
G1 X104.233 Y120.444 E44.82392
G1 X103.451 Y120.315 E44.86346
G1 X96.398 Y118.737 E45.22403
G1 X93.763 Y119.295 E45.35841
G1 X91.876 Y122.883 E45.56066
G1 X91.785 Y123.32 E45.58293
G1 X91.038 Y128.742 E45.85599
G1 X90.896 Y129.477 E45.89334
G1 X90.677 Y130.192 E45.93065
G1 X90.383 Y130.88 E45.96797
G1 X90.017 Y131.532 E46.00528
G1 X89.583 Y132.142 E46.04263
G1 X89.087 Y132.702 E46.07995
G1 X88.689 Y133.075 E46.10716
G1 X88.576 Y133.173 E46.11462
G1 X87.986 Y133.633 E46.15195
G1 X87.35 Y134.026 E46.18925
G1 X86.675 Y134.35 E46.2266
G1 X85.97 Y134.599 E46.2639
G1 X85.242 Y134.772 E46.30123
G1 X84.5 Y134.866 E46.33855
G1 X83.991 Y134.885 E46.36396
G1 X77.856 Y134.886 E46.67004
G1 X77.109 Y134.846 E46.70736
G1 X76.371 Y134.727 E46.74465
G1 X75.649 Y134.529 E46.782
G1 X74.953 Y134.256 E46.8193
G1 X74.29 Y133.91 E46.85661
G1 X73.667 Y133.495 E46.89396
G1 X72.905 Y132.836 E46.94422
G1 X72.788 Y132.719 E46.95248
G1 X72.288 Y132.162 E46.98982
G1 X71.851 Y131.556 E47.02709
G1 X71.48 Y130.906 E47.06443
G1 X71.181 Y130.22 E47.10177
G1 X70.957 Y129.506 E47.1391
G1 X70.81 Y128.773 E47.1764
G1 X70.738 Y127.777 E47.22622
G1 X70.707 Y100.173 E48.60339
G1 X70.707 Y72.713 E49.97337
G1 X70.747 Y71.966 E50.01069
G1 X70.866 Y71.228 E50.04799
G1 X71.064 Y70.506 E50.08534
G1 X71.337 Y69.81 E50.12264
G1 X71.684 Y69.147 E50.15997
G1 X72.099 Y68.524 E50.19732
G1 X72.757 Y67.763 E50.24751
M205 X10 Y10
G0 F6000 X73.04 Y68.046
M205 X8 Y8
G1 F1200 X73.157 Y67.929 E50.25576
G1 X73.698 Y67.445 E50.29198
G1 X74.289 Y67.022 E50.32824
G1 X74.923 Y66.668 E50.36447
G1 X75.592 Y66.385 E50.40071
G1 X76.288 Y66.177 E50.43695
G1 X77.003 Y66.047 E50.4732
G1 X77.824 Y65.996 E50.51424
