;FLAVOR:Marlin
;TIME:5153
;Filament used: 4.16534m
;Layer height: 0.2
;MINX:72.234
;MINY:77.549
;MINZ:0.3
;MAXX:137.767
;MAXY:132.451
;MAXZ:14.175
;Generated with Cura_SteamEngine 4.13.1
M82 ;absolute extrusion mode
G21                                        ; metric values 
G90                                        ; absolute positioning 
M82                                        ; set extruder to absolute mode 
M107                                       ; start with the fan off 
M140 S60           ; Start heating the bed 
G4 S60                                     ; wait 1 minute 
M104 S210         ; start heating the hot end 
M190 S60           ; wait for bed 
M109 S210         ; wait for hotend 
M300 S1000 P500                            ; BEEP heating done 
G28 X0 Y10 Z0                              ; move X/Y to min endstops 
M420 S1                                    ; Enable leveling 
M420 Z2.0                                  ; Set leveling fading height to 2 mm 
G0 Z0.15                                   ; lift nozzle a bit 
G92 E0                                     ; zero the extruded length 
G1 X50 E25 F500                            ; Extrude 25mm of filament in a 5cm line. 
G92 E0                                     ; zero the extruded length again 
G1 E-2 F500                                ; Retract a little 
G1 X120 F4000                              ; Quickly wipe away from the filament line`
G92 E0
G92 E0
G1 F1500 E-6
;LAYER_COUNT:70
;LAYER:0
M106 S76.5
M205 X10 Y10
G1 F600 Z0.375
G0 F6000 X74.636 Y79.859 Z0.375
M205 X8 Y8
;TYPE:SKIRT
G1 F600 Z0.3
G1 F1500 E0
G1 F1200 X75.222 Y79.329 E0.03942
G1 X75.858 Y78.862 E0.07878
G1 X76.538 Y78.461 E0.11817
G1 X77.256 Y78.131 E0.15759
G1 X78.003 Y77.876 E0.19697
G1 X78.772 Y77.697 E0.23636
G1 X79.556 Y77.597 E0.27579
G1 X80.147 Y77.574 E0.3053
G1 X129.844 Y77.549 E2.7847
G1 X130.633 Y77.589 E2.82411
G1 X131.413 Y77.708 E2.86347
G1 X132.178 Y77.905 E2.90289
G1 X132.919 Y78.179 E2.9423
G1 X133.628 Y78.526 E2.98168
G1 X134.298 Y78.943 E3.02105
G1 X134.923 Y79.426 E3.06046
G1 X135.363 Y79.834 E3.0904
G1 X135.48 Y79.951 E3.09865
G1 X136.01 Y80.537 E3.13807
G1 X136.477 Y81.173 E3.17744
G1 X136.878 Y81.853 E3.21682
G1 X137.208 Y82.571 E3.25625
G1 X137.463 Y83.318 E3.29563
G1 X137.642 Y84.087 E3.33502
G1 X137.742 Y84.871 E3.37445
G1 X137.765 Y85.463 E3.40401
G1 X137.767 Y90.229 E3.64178
G1 X137.727 Y91.017 E3.68115
G1 X137.608 Y91.798 E3.72056
G1 X137.411 Y92.563 E3.75997
G1 X137.137 Y93.303 E3.79934
G1 X136.79 Y94.013 E3.83877
G1 X136.372 Y94.683 E3.87816
G1 X135.889 Y95.308 E3.91757
G1 X135.482 Y95.747 E3.94744
G1 X135.365 Y95.864 E3.95569
G1 X134.779 Y96.394 E3.99511
G1 X134.143 Y96.861 E4.03448
G1 X133.463 Y97.262 E4.07386
G1 X132.745 Y97.592 E4.11329
G1 X131.998 Y97.847 E4.15267
G1 X131.229 Y98.026 E4.19206
G1 X130.969 Y98.059 E4.20513
G1 X130.547 Y98.72 E4.24426
G1 X130.057 Y99.339 E4.28364
G1 X129.507 Y99.906 E4.32305
G1 X128.785 Y100.501 E4.36973
G1 X127.98 Y101.087 E4.41941
G1 X127.803 Y101.202 E4.42994
G1 X127.816 Y110.784 E4.90798
G1 X129.999 Y115.097 E5.14915
G1 X130.32 Y115.818 E5.18853
G1 X130.618 Y116.772 E5.23839
G1 X130.628 Y116.813 E5.2405
G1 X130.776 Y117.588 E5.27986
G1 X130.85 Y118.657 E5.33332
G1 X130.853 Y124.511 E5.62538
G1 X130.813 Y125.3 E5.66479
G1 X130.694 Y126.08 E5.70416
G1 X130.497 Y126.845 E5.74357
G1 X130.223 Y127.586 E5.78298
G1 X129.876 Y128.295 E5.82236
G1 X129.459 Y128.965 E5.86174
G1 X128.976 Y129.59 E5.90114
G1 X128.568 Y130.03 E5.93108
G1 X128.451 Y130.147 E5.93934
G1 X127.865 Y130.677 E5.97875
G1 X127.229 Y131.144 E6.01812
G1 X126.549 Y131.545 E6.0575
G1 X125.831 Y131.875 E6.09693
G1 X125.084 Y132.13 E6.13631
G1 X124.315 Y132.309 E6.1757
G1 X123.531 Y132.409 E6.21513
G1 X122.94 Y132.432 E6.24464
G1 X87.202 Y132.451 E8.02761
G1 X86.413 Y132.411 E8.06703
G1 X85.633 Y132.292 E8.10639
G1 X84.868 Y132.095 E8.1458
G1 X84.127 Y131.821 E8.18522
G1 X83.418 Y131.474 E8.2246
G1 X82.748 Y131.057 E8.26397
G1 X82.123 Y130.574 E8.30338
G1 X81.683 Y130.166 E8.33332
G1 X81.566 Y130.049 E8.34157
G1 X81.036 Y129.463 E8.38099
G1 X80.569 Y128.827 E8.42036
G1 X80.168 Y128.147 E8.45974
G1 X79.838 Y127.429 E8.49916
G1 X79.583 Y126.682 E8.53854
G1 X79.404 Y125.913 E8.57793
G1 X79.304 Y125.129 E8.61737
G1 X79.281 Y124.538 E8.64687
G1 X79.278 Y118.689 E8.93868
G1 X79.318 Y117.9 E8.97809
G1 X79.46 Y117.009 E9.02311
G1 X79.471 Y116.959 E9.02566
G1 X79.68 Y116.197 E9.06508
G1 X80.097 Y115.179 E9.11997
G1 X82.238 Y110.848 E9.361
G1 X82.233 Y101.231 E9.8408
G1 X82.041 Y101.109 E9.85214
G1 X81.236 Y100.523 E9.90182
G1 X80.622 Y100.027 E9.9412
G1 X80.062 Y99.471 E9.98057
G1 X79.56 Y98.861 E10.01998
G1 X79.123 Y98.203 E10.05939
G1 X79.063 Y98.089 E10.06582
G1 X78.588 Y98.016 E10.08979
G1 X77.824 Y97.819 E10.12916
G1 X77.083 Y97.545 E10.16857
G1 X76.374 Y97.198 E10.20795
G1 X75.703 Y96.781 E10.24737
G1 X75.078 Y96.298 E10.28677
G1 X74.638 Y95.89 E10.31671
G1 X74.521 Y95.773 E10.32497
G1 X73.991 Y95.187 E10.36439
G1 X73.524 Y94.551 E10.40375
G1 X73.123 Y93.871 E10.44314
G1 X72.793 Y93.153 E10.48256
G1 X72.538 Y92.406 E10.52194
G1 X72.359 Y91.637 E10.56133
G1 X72.259 Y90.853 E10.60076
G1 X72.236 Y90.261 E10.63032
G1 X72.234 Y85.494 E10.86814
G1 X72.274 Y84.706 E10.90751
G1 X72.393 Y83.925 E10.94692
G1 X72.59 Y83.16 E10.98633
G1 X72.864 Y82.42 E11.0257
G1 X73.211 Y81.71 E11.06513
G1 X73.629 Y81.04 E11.10453
G1 X74.112 Y80.415 E11.14393
G1 X74.519 Y79.976 E11.1738
G1 X74.636 Y79.859 E11.18206
M205 X10 Y10
G0 F6000 X74.918 Y80.141
M205 X8 Y8
G1 F1200 X75.49 Y79.627 E11.22042
G1 X76.112 Y79.174 E11.25881
G1 X76.777 Y78.788 E11.29717
G1 X77.479 Y78.473 E11.33556
G1 X78.21 Y78.233 E11.37394
G1 X78.961 Y78.07 E11.41228
G1 X79.726 Y77.986 E11.45068
G1 X80.147 Y77.974 E11.47169
G1 X129.844 Y77.949 E13.95109
G1 X130.612 Y77.989 E13.98945
G1 X131.372 Y78.108 E14.02783
G1 X132.116 Y78.305 E14.06623
G1 X132.835 Y78.578 E14.1046
G1 X133.521 Y78.925 E14.14295
G1 X134.168 Y79.341 E14.18133
G1 X134.769 Y79.822 E14.21973
G1 X135.198 Y80.233 E14.24937
G1 X135.712 Y80.805 E14.28774
G1 X136.165 Y81.427 E14.32613
G1 X136.551 Y82.092 E14.36449
G1 X136.866 Y82.794 E14.40288
G1 X137.106 Y83.525 E14.44126
G1 X137.269 Y84.276 E14.4796
G1 X137.353 Y85.041 E14.518
G1 X137.365 Y85.463 E14.53906
G1 X137.367 Y90.229 E14.77684
G1 X137.327 Y90.997 E14.8152
G1 X137.208 Y91.757 E14.85358
G1 X137.011 Y92.5 E14.89193
G1 X136.737 Y93.219 E14.93032
G1 X136.391 Y93.906 E14.96869
G1 X135.975 Y94.553 E15.00707
G1 X135.494 Y95.153 E15.04544
G1 X135.083 Y95.582 E15.07508
G1 X134.511 Y96.096 E15.11344
G1 X133.889 Y96.549 E15.15183
G1 X133.224 Y96.935 E15.19019
G1 X132.522 Y97.25 E15.22858
G1 X131.791 Y97.49 E15.26696
G1 X131.04 Y97.653 E15.3053
G1 X130.708 Y97.689 E15.32197
G1 X130.605 Y97.891 E15.33328
G1 X130.186 Y98.537 E15.37169
G1 X129.703 Y99.135 E15.41004
G1 X129.161 Y99.681 E15.44843
G1 X128.549 Y100.178 E15.48776
G1 X127.744 Y100.764 E15.53743
G1 X127.403 Y100.986 E15.55773
G1 X127.416 Y110.88 E16.05135
G1 X129.642 Y115.277 E16.29722
G1 X129.953 Y115.981 E16.33562
G1 X130.229 Y116.867 E16.38192
G1 X130.239 Y116.908 E16.38402
G1 X130.382 Y117.663 E16.42236
G1 X130.45 Y118.657 E16.47207
G1 X130.453 Y124.511 E16.76413
G1 X130.413 Y125.279 E16.80249
G1 X130.294 Y126.039 E16.84087
G1 X130.097 Y126.783 E16.87927
G1 X129.824 Y127.502 E16.91764
G1 X129.477 Y128.188 E16.95599
G1 X129.061 Y128.835 E16.99437
G1 X128.58 Y129.435 E17.03273
G1 X128.169 Y129.865 E17.06241
G1 X127.597 Y130.379 E17.10078
G1 X126.975 Y130.832 E17.13917
G1 X126.31 Y131.218 E17.17753
G1 X125.608 Y131.533 E17.21591
G1 X124.877 Y131.773 E17.2543
G1 X124.126 Y131.936 E17.29264
G1 X123.361 Y132.02 E17.33103
G1 X122.94 Y132.032 E17.35205
G1 X87.202 Y132.051 E19.13502
G1 X86.434 Y132.011 E19.17339
G1 X85.674 Y131.892 E19.21177
G1 X84.931 Y131.695 E19.25012
G1 X84.212 Y131.422 E19.28849
G1 X83.525 Y131.075 E19.32689
G1 X82.878 Y130.659 E19.36526
G1 X82.278 Y130.178 E19.40363
G1 X81.848 Y129.767 E19.4333
G1 X81.334 Y129.195 E19.47167
G1 X80.881 Y128.573 E19.51006
G1 X80.495 Y127.908 E19.54842
G1 X80.18 Y127.206 E19.58681
G1 X79.94 Y126.475 E19.62519
G1 X79.777 Y125.724 E19.66353
G1 X79.693 Y124.959 E19.70193
G1 X79.681 Y124.538 E19.72294
G1 X79.678 Y118.689 E20.01475
G1 X79.718 Y117.921 E20.05312
G1 X79.851 Y117.095 E20.09486
G1 X79.862 Y117.045 E20.09741
G1 X80.066 Y116.303 E20.1358
G1 X80.455 Y115.356 E20.18688
G1 X82.638 Y110.94 E20.43264
G1 X82.633 Y101.016 E20.92775
G1 X82.277 Y100.786 E20.9489
G1 X81.472 Y100.2 E20.99857
G1 X80.874 Y99.715 E21.03699
G1 X80.33 Y99.172 E21.07533
G1 X79.846 Y98.574 E21.11372
G1 X79.426 Y97.93 E21.15207
G1 X79.321 Y97.724 E21.16361
G1 X78.629 Y97.616 E21.19855
G1 X77.886 Y97.419 E21.2369
G1 X77.167 Y97.146 E21.27527
G1 X76.48 Y96.799 E21.31367
G1 X75.833 Y96.383 E21.35204
G1 X75.233 Y95.903 E21.39038
G1 X74.803 Y95.491 E21.42009
G1 X74.289 Y94.919 E21.45846
G1 X73.836 Y94.297 E21.49685
G1 X73.45 Y93.632 E21.53521
G1 X73.135 Y92.93 E21.57359
G1 X72.895 Y92.199 E21.61198
G1 X72.732 Y91.448 E21.65032
G1 X72.648 Y90.683 E21.68871
G1 X72.636 Y90.261 E21.70978
G1 X72.634 Y85.494 E21.9476
G1 X72.674 Y84.726 E21.98597
G1 X72.793 Y83.966 E22.02435
G1 X72.99 Y83.223 E22.0627
G1 X73.264 Y82.504 E22.10109
G1 X73.61 Y81.817 E22.13946
G1 X74.026 Y81.17 E22.17784
G1 X74.507 Y80.57 E22.2162
G1 X74.918 Y80.141 E22.24584
M205 X10 Y10
G0 F6000 X75.201 Y80.424
M205 X8 Y8
G1 F1200 X75.758 Y79.924 E22.28319
G1 X76.364 Y79.487 E22.32046
G1 X77.014 Y79.116 E22.3578
G1 X77.7 Y78.817 E22.39513
G1 X78.414 Y78.593 E22.43247
G1 X79.147 Y78.446 E22.46976
G1 X80.147 Y78.374 E22.51978
G1 X129.844 Y78.349 E24.99918
G1 X130.591 Y78.389 E25.0365
G1 X131.33 Y78.508 E25.07384
G1 X132.052 Y78.705 E25.11118
G1 X132.748 Y78.978 E25.14848
G1 X133.411 Y79.324 E25.18579
G1 X134.034 Y79.739 E25.22314
G1 X134.798 Y80.399 E25.27351
G1 X134.915 Y80.516 E25.28176
G1 X135.415 Y81.073 E25.3191
G1 X135.852 Y81.679 E25.35638
G1 X136.223 Y82.329 E25.39372
G1 X136.522 Y83.015 E25.43105
G1 X136.746 Y83.729 E25.46838
G1 X136.893 Y84.462 E25.50568
G1 X136.965 Y85.463 E25.55575
G1 X136.967 Y90.229 E25.79353
G1 X136.927 Y90.976 E25.83085
G1 X136.808 Y91.715 E25.86819
G1 X136.611 Y92.436 E25.90548
G1 X136.338 Y93.133 E25.94283
G1 X135.992 Y93.796 E25.98014
G1 X135.577 Y94.418 E26.01744
G1 X134.917 Y95.182 E26.06781
G1 X134.8 Y95.299 E26.07607
G1 X134.243 Y95.799 E26.11341
G1 X133.637 Y96.236 E26.15069
G1 X132.987 Y96.607 E26.18802
G1 X132.301 Y96.906 E26.22536
G1 X131.587 Y97.13 E26.26269
G1 X130.854 Y97.277 E26.29999
G1 X130.455 Y97.306 E26.31995
G1 X130.238 Y97.727 E26.34358
G1 X129.826 Y98.352 E26.38092
G1 X129.35 Y98.929 E26.41824
G1 X128.816 Y99.452 E26.45553
G1 X128.314 Y99.854 E26.48762
G1 X127.509 Y100.44 E26.53729
G1 X127.003 Y100.769 E26.56741
G1 X127.016 Y110.976 E27.07664
G1 X129.285 Y115.458 E27.32726
G1 X129.587 Y116.143 E27.36461
G1 X129.841 Y116.961 E27.40735
G1 X129.851 Y117.002 E27.40945
G1 X129.989 Y117.737 E27.44676
G1 X130.05 Y118.657 E27.49276
G1 X130.053 Y124.511 E27.78482
G1 X130.013 Y125.258 E27.82214
G1 X129.894 Y125.997 E27.85948
G1 X129.697 Y126.719 E27.89682
G1 X129.424 Y127.415 E27.93412
G1 X129.078 Y128.078 E27.97143
G1 X128.664 Y128.701 E28.00875
G1 X128.003 Y129.465 E28.05915
G1 X127.886 Y129.582 E28.06741
G1 X127.329 Y130.082 E28.10475
G1 X126.723 Y130.519 E28.14202
G1 X126.073 Y130.89 E28.17936
G1 X125.387 Y131.189 E28.2167
G1 X124.673 Y131.413 E28.25403
G1 X123.94 Y131.56 E28.29133
G1 X122.94 Y131.632 E28.34135
G1 X87.202 Y131.651 E30.12432
G1 X86.455 Y131.611 E30.16165
G1 X85.716 Y131.492 E30.19899
G1 X84.995 Y131.295 E30.23628
G1 X84.298 Y131.022 E30.27362
G1 X83.635 Y130.676 E30.31093
G1 X83.012 Y130.262 E30.34825
G1 X82.248 Y129.601 E30.39865
G1 X82.131 Y129.484 E30.40691
G1 X81.631 Y128.927 E30.44425
G1 X81.194 Y128.321 E30.48153
G1 X80.823 Y127.671 E30.51887
G1 X80.524 Y126.985 E30.5562
G1 X80.3 Y126.271 E30.59353
G1 X80.153 Y125.538 E30.63083
G1 X80.081 Y124.538 E30.68085
G1 X80.078 Y118.689 E30.97266
G1 X80.118 Y117.942 E31.00998
G1 X80.241 Y117.181 E31.04844
G1 X80.252 Y117.131 E31.05099
G1 X80.452 Y116.41 E31.08832
G1 X80.814 Y115.533 E31.13566
G1 X83.038 Y111.033 E31.38609
G1 X83.033 Y100.804 E31.89641
G1 X82.512 Y100.462 E31.9275
G1 X81.707 Y99.876 E31.97718
G1 X81.127 Y99.404 E32.01449
G1 X80.6 Y98.873 E32.05181
G1 X80.133 Y98.289 E32.08912
G1 X79.731 Y97.658 E32.12644
G1 X79.575 Y97.344 E32.14394
G1 X79.41 Y97.335 E32.15218
G1 X78.672 Y97.216 E32.18948
G1 X77.95 Y97.019 E32.22681
G1 X77.254 Y96.746 E32.26411
G1 X76.59 Y96.401 E32.30144
G1 X75.968 Y95.986 E32.33875
G1 X75.203 Y95.325 E32.38919
G1 X75.086 Y95.208 E32.39744
G1 X74.586 Y94.651 E32.43479
G1 X74.149 Y94.045 E32.47206
G1 X73.778 Y93.395 E32.5094
G1 X73.479 Y92.709 E32.54673
G1 X73.255 Y91.995 E32.58407
G1 X73.108 Y91.262 E32.62136
G1 X73.036 Y90.261 E32.67143
G1 X73.034 Y85.494 E32.90926
G1 X73.074 Y84.747 E32.94658
G1 X73.193 Y84.008 E32.98393
G1 X73.39 Y83.287 E33.02122
G1 X73.663 Y82.59 E33.05856
G1 X74.009 Y81.927 E33.09587
G1 X74.424 Y81.305 E33.13318
G1 X75.084 Y80.541 E33.18355
G1 X75.201 Y80.424 E33.1918
M205 X10 Y10
G0 F6000 X75.484 Y80.707
M205 X8 Y8
G1 F1200 X76.025 Y80.223 E33.22802
G1 X76.616 Y79.8 E33.26427
G1 X77.25 Y79.446 E33.3005
G1 X77.919 Y79.163 E33.33674
G1 X78.615 Y78.955 E33.37298
G1 X79.33 Y78.825 E33.40924
G1 X80.148 Y78.774 E33.45013
G1 X129.845 Y78.749 E35.92952
G1 X130.57 Y78.789 E35.96575
G1 X131.286 Y78.908 E36.00196
G1 X131.986 Y79.105 E36.03824
G1 X132.659 Y79.377 E36.07445
G1 X133.298 Y79.723 E36.11071
G1 X133.895 Y80.136 E36.14692
G1 X134.515 Y80.682 E36.18814
G1 X134.632 Y80.799 E36.1964
G1 X135.116 Y81.34 E36.23261
G1 X135.539 Y81.931 E36.26887
G1 X135.893 Y82.565 E36.3051
G1 X136.176 Y83.234 E36.34134
G1 X136.384 Y83.93 E36.37758
G1 X136.514 Y84.645 E36.41383
G1 X136.565 Y85.463 E36.45472
G1 X136.567 Y90.229 E36.6925
G1 X136.527 Y90.955 E36.72878
G1 X136.408 Y91.671 E36.76499
G1 X136.211 Y92.37 E36.80122
G1 X135.938 Y93.043 E36.83745
G1 X135.593 Y93.682 E36.87368
G1 X135.18 Y94.28 E36.90994
G1 X134.634 Y94.899 E36.95112
G1 X134.517 Y95.016 E36.95937
G1 X133.976 Y95.5 E36.99559
G1 X133.385 Y95.923 E37.03185
G1 X132.751 Y96.277 E37.06808
G1 X132.082 Y96.56 E37.10432
G1 X131.386 Y96.768 E37.14056
G1 X130.671 Y96.898 E37.17681
G1 X130.201 Y96.927 E37.20031
G1 X129.871 Y97.562 E37.23601
G1 X129.466 Y98.165 E37.27225
G1 X128.998 Y98.72 E37.30847
G1 X128.472 Y99.221 E37.34471
G1 X128.078 Y99.531 E37.36972
G1 X127.273 Y100.117 E37.4194
G1 X126.663 Y100.511 E37.45563
G1 X126.602 Y100.542 E37.45904
G1 X126.616 Y111.072 E37.98438
G1 X128.928 Y115.639 E38.23976
G1 X129.22 Y116.304 E38.276
G1 X129.452 Y117.056 E38.31526
G1 X129.462 Y117.097 E38.31737
G1 X129.595 Y117.811 E38.3536
G1 X129.65 Y118.658 E38.39595
G1 X129.653 Y124.512 E38.688
G1 X129.613 Y125.237 E38.72423
G1 X129.494 Y125.953 E38.76044
G1 X129.297 Y126.653 E38.79672
G1 X129.025 Y127.326 E38.83294
G1 X128.68 Y127.965 E38.86917
G1 X128.266 Y128.562 E38.90541
G1 X127.72 Y129.182 E38.94663
G1 X127.603 Y129.299 E38.95488
G1 X127.062 Y129.783 E38.9911
G1 X126.471 Y130.206 E39.02736
G1 X125.837 Y130.56 E39.06358
G1 X125.168 Y130.843 E39.09982
G1 X124.472 Y131.051 E39.13607
G1 X123.757 Y131.181 E39.17232
G1 X122.94 Y131.232 E39.21316
G1 X87.202 Y131.251 E40.99614
G1 X86.476 Y131.211 E41.03241
G1 X85.76 Y131.092 E41.06862
G1 X85.061 Y130.895 E41.10486
G1 X84.387 Y130.623 E41.14112
G1 X83.748 Y130.278 E41.17735
G1 X83.151 Y129.864 E41.21359
G1 X82.531 Y129.318 E41.25481
G1 X82.414 Y129.201 E41.26306
G1 X81.93 Y128.66 E41.29928
