;FLAVOR:Marlin
;TIME:9873
;Filament used: 7.92979m
;Layer height: 0.2
;MINX:62.484
;MINY:38.92
;MINZ:0.3
;MAXX:150.041
;MAXY:171.079
;MAXZ:21.775
;Generated with Cura_SteamEngine 4.13.1
M82 ;absolute extrusion mode
G21                                        ; metric values 
G90                                        ; absolute positioning 
M82                                        ; set extruder to absolute mode 
M107                                       ; start with the fan off 
M140 S60           ; Start heating the bed 
G4 S60                                     ; wait 1 minute 
M104 S210         ; start heating the hot end 
M190 S60           ; wait for bed 
M109 S210         ; wait for hotend 
M300 S1000 P500                            ; BEEP heating done 
G28 X0 Y10 Z0                              ; move X/Y to min endstops 
M420 S1                                    ; Enable leveling 
M420 Z2.0                                  ; Set leveling fading height to 2 mm 
G0 Z0.15                                   ; lift nozzle a bit 
G92 E0                                     ; zero the extruded length 
G1 X50 E25 F500                            ; Extrude 25mm of filament in a 5cm line. 
G92 E0                                     ; zero the extruded length again 
G1 E-2 F500                                ; Retract a little 
G1 X120 F4000                              ; Quickly wipe away from the filament line`
G92 E0
G92 E0
G1 F1500 E-6
;LAYER_COUNT:108
;LAYER:0
M106 S76.5
M205 X10 Y10
G1 F600 Z0.375
G0 F6000 X64.515 Y60.383 Z0.375
M205 X8 Y8
;TYPE:SKIRT
G1 F600 Z0.3
G1 F1500 E0
G1 F1200 X65.177 Y59.729 E0.04643
G1 X78.329 Y48.193 E0.91923
G1 X78.329 Y46.843 E0.98658
G1 X78.369 Y46.054 E1.02599
G1 X78.488 Y45.274 E1.06536
G1 X78.686 Y44.509 E1.10478
G1 X78.96 Y43.769 E1.14415
G1 X79.308 Y43.06 E1.18355
G1 X79.726 Y42.389 E1.22299
G1 X80.209 Y41.765 E1.26236
G1 X80.614 Y41.328 E1.29209
G1 X80.731 Y41.211 E1.30034
G1 X81.317 Y40.681 E1.33976
G1 X81.953 Y40.214 E1.37913
G1 X82.633 Y39.813 E1.41851
G1 X83.351 Y39.483 E1.45793
G1 X84.098 Y39.228 E1.49731
G1 X84.867 Y39.049 E1.5367
G1 X85.651 Y38.949 E1.57614
G1 X86.245 Y38.926 E1.60579
G1 X135.937 Y38.92 E4.08494
G1 X136.726 Y38.96 E4.12435
G1 X137.506 Y39.079 E4.16371
G1 X138.271 Y39.277 E4.20314
G1 X139.011 Y39.551 E4.24251
G1 X139.721 Y39.899 E4.28195
G1 X140.391 Y40.316 E4.32133
G1 X141.016 Y40.799 E4.36073
G1 X141.453 Y41.205 E4.39049
G1 X141.57 Y41.322 E4.39875
G1 X142.1 Y41.908 E4.43817
G1 X142.567 Y42.544 E4.47753
G1 X142.968 Y43.224 E4.51692
G1 X143.298 Y43.942 E4.55634
G1 X143.553 Y44.689 E4.59572
G1 X143.732 Y45.458 E4.63511
G1 X143.832 Y46.242 E4.67454
G1 X143.855 Y46.837 E4.70425
G1 X143.86 Y136.312 E9.16818
G1 X144.309 Y136.532 E9.19312
G1 X145.119 Y137.048 E9.24103
G1 X146.36 Y137.952 E9.31763
G1 X146.974 Y138.449 E9.35704
G1 X147.534 Y139.005 E9.39641
G1 X148.036 Y139.615 E9.43583
G1 X148.473 Y140.273 E9.47524
G1 X148.841 Y140.971 E9.5146
G1 X149.184 Y141.842 E9.5613
G1 X149.658 Y143.298 E9.6377
G1 X149.864 Y144.061 E9.67713
G1 X149.992 Y144.84 E9.71651
G1 X150.041 Y145.628 E9.7559
G1 X150.009 Y146.417 E9.7953
G1 X149.898 Y147.199 E9.8347
G1 X149.658 Y148.128 E9.88257
G1 X149.184 Y149.584 E9.95896
G1 X148.902 Y150.321 E9.99833
G1 X148.546 Y151.026 E10.03774
G1 X148.122 Y151.692 E10.07713
G1 X147.632 Y152.311 E10.11651
G1 X147.516 Y152.431 E10.12484
G1 X147.516 Y158.296 E10.41744
G1 X147.476 Y159.085 E10.45686
G1 X147.357 Y159.865 E10.49622
G1 X147.159 Y160.63 E10.53565
G1 X146.885 Y161.37 E10.57502
G1 X146.537 Y162.079 E10.61442
G1 X146.119 Y162.75 E10.65386
G1 X145.636 Y163.374 E10.69323
G1 X145.231 Y163.811 E10.72295
G1 X145.114 Y163.928 E10.73121
G1 X144.528 Y164.458 E10.77063
G1 X143.892 Y164.925 E10.80999
G1 X143.212 Y165.326 E10.84938
G1 X142.494 Y165.656 E10.8888
G1 X141.747 Y165.911 E10.92818
G1 X140.978 Y166.09 E10.96757
G1 X140.194 Y166.19 E11.007
G1 X139.599 Y166.213 E11.03671
G1 X132.741 Y166.213 E11.37886
G1 X132.732 Y166.236 E11.38009
G1 X132.384 Y166.945 E11.41949
G1 X131.966 Y167.616 E11.45893
G1 X131.483 Y168.24 E11.4983
G1 X131.078 Y168.677 E11.52802
G1 X130.961 Y168.794 E11.53628
G1 X130.375 Y169.324 E11.5757
G1 X129.739 Y169.791 E11.61506
G1 X129.059 Y170.192 E11.65445
G1 X128.341 Y170.522 E11.69387
G1 X127.594 Y170.777 E11.73325
G1 X126.825 Y170.956 E11.77264
G1 X126.041 Y171.056 E11.81207
G1 X125.446 Y171.079 E11.84178
G1 X97.09 Y171.079 E13.25647
G1 X96.301 Y171.039 E13.29588
G1 X95.521 Y170.92 E13.33525
G1 X94.756 Y170.722 E13.37467
G1 X94.016 Y170.448 E13.41404
G1 X93.307 Y170.1 E13.45344
G1 X92.636 Y169.682 E13.49288
G1 X92.012 Y169.199 E13.53225
G1 X91.575 Y168.794 E13.56198
G1 X91.458 Y168.677 E13.57023
G1 X90.928 Y168.091 E13.60965
G1 X90.461 Y167.455 E13.64902
G1 X90.06 Y166.775 E13.6884
G1 X89.802 Y166.213 E13.71925
G1 X82.655 Y166.213 E14.07582
G1 X81.866 Y166.173 E14.11523
G1 X81.086 Y166.054 E14.1546
G1 X80.321 Y165.856 E14.19402
G1 X79.581 Y165.582 E14.23339
G1 X78.872 Y165.234 E14.27279
G1 X78.201 Y164.816 E14.31223
G1 X77.577 Y164.333 E14.3516
G1 X77.14 Y163.928 E14.38132
G1 X77.023 Y163.811 E14.38958
G1 X76.493 Y163.225 E14.429
G1 X76.026 Y162.589 E14.46836
G1 X75.625 Y161.909 E14.50775
G1 X75.305 Y161.213 E14.54597
G1 X70.401 Y161.213 E14.79063
G1 X69.612 Y161.173 E14.83004
G1 X68.832 Y161.054 E14.86941
G1 X68.067 Y160.856 E14.90883
G1 X67.327 Y160.582 E14.9482
G1 X66.618 Y160.234 E14.9876
G1 X65.947 Y159.816 E15.02704
G1 X65.323 Y159.333 E15.06641
G1 X64.886 Y158.928 E15.09614
G1 X64.769 Y158.811 E15.10439
G1 X64.239 Y158.225 E15.14381
G1 X63.772 Y157.589 E15.18318
G1 X63.371 Y156.909 E15.22256
G1 X63.041 Y156.191 E15.26198
G1 X62.786 Y155.444 E15.30136
G1 X62.607 Y154.675 E15.34076
G1 X62.507 Y153.891 E15.38019
G1 X62.484 Y153.296 E15.40989
G1 X62.486 Y118.342 E17.15376
G1 X62.526 Y117.553 E17.19317
G1 X62.646 Y116.772 E17.23259
G1 X62.843 Y116.008 E17.27195
G1 X63.118 Y115.267 E17.31139
G1 X63.465 Y114.558 E17.35077
G1 X63.883 Y113.888 E17.39017
G1 X64.366 Y113.263 E17.42957
G1 X64.771 Y112.827 E17.45926
G1 X64.888 Y112.71 E17.46752
G1 X65.474 Y112.18 E17.50694
G1 X66.11 Y111.713 E17.5463
G1 X66.79 Y111.312 E17.58569
G1 X67.508 Y110.982 E17.62511
G1 X68.255 Y110.727 E17.66449
G1 X69.024 Y110.548 E17.70388
G1 X69.808 Y110.448 E17.74331
G1 X70.403 Y110.425 E17.77302
G1 X73.25 Y110.425 E17.91506
G1 X74.039 Y110.465 E17.95447
G1 X74.819 Y110.584 E17.99383
G1 X75.546 Y110.772 E18.0313
G1 X75.679 Y110.727 E18.0383
G1 X76.448 Y110.548 E18.07769
G1 X77.232 Y110.448 E18.11712
G1 X77.827 Y110.425 E18.14683
G1 X83.25 Y110.425 E18.41739
G1 X84.039 Y110.465 E18.4568
G1 X84.167 Y110.484 E18.46326
G1 X84.166 Y84.66 E19.75162
G1 X83.845 Y84.701 E19.76777
G1 X83.251 Y84.724 E19.79742
G1 X77.828 Y84.725 E20.06798
G1 X77.04 Y84.685 E20.10734
G1 X76.259 Y84.566 E20.14675
G1 X75.531 Y84.377 E20.18428
G1 X75.398 Y84.423 E20.1913
G1 X74.629 Y84.602 E20.23069
G1 X73.845 Y84.702 E20.27012
G1 X73.25 Y84.725 E20.29983
G1 X70.402 Y84.725 E20.44192
G1 X69.613 Y84.685 E20.48133
G1 X68.833 Y84.566 E20.52069
G1 X68.068 Y84.368 E20.56012
G1 X67.328 Y84.094 E20.59949
G1 X66.619 Y83.746 E20.63889
G1 X65.948 Y83.328 E20.67833
G1 X65.324 Y82.845 E20.7177
G1 X64.887 Y82.44 E20.74742
G1 X64.77 Y82.323 E20.75568
G1 X64.24 Y81.737 E20.7951
G1 X63.773 Y81.101 E20.83446
G1 X63.372 Y80.421 E20.87385
G1 X63.042 Y79.703 E20.91327
G1 X62.787 Y78.956 E20.95265
G1 X62.608 Y78.187 E20.99204
G1 X62.508 Y77.403 E21.03147
G1 X62.485 Y76.809 E21.06113
G1 X62.484 Y65.673 E21.61671
G1 X62.524 Y64.884 E21.65612
G1 X62.643 Y64.103 E21.69554
G1 X62.841 Y63.339 E21.73491
G1 X63.186 Y62.438 E21.78304
G1 X63.222 Y62.359 E21.78738
G1 X63.586 Y61.657 E21.82683
G1 X64.018 Y60.997 E21.86618
G1 X64.515 Y60.383 E21.90559
M205 X10 Y10
G0 F6000 X64.853 Y60.606
M205 X8 Y8
G1 F1200 X65.44 Y60.03 E21.94662
G1 X78.729 Y48.374 E22.82851
G1 X78.729 Y46.843 E22.90489
G1 X78.769 Y46.075 E22.94326
G1 X78.888 Y45.315 E22.98164
G1 X79.086 Y44.572 E23.02
G1 X79.36 Y43.853 E23.05838
G1 X79.707 Y43.167 E23.09674
G1 X80.123 Y42.52 E23.13511
G1 X80.604 Y41.92 E23.17348
G1 X81.013 Y41.493 E23.20298
G1 X81.585 Y40.979 E23.24134
G1 X82.207 Y40.526 E23.27973
G1 X82.872 Y40.14 E23.3181
G1 X83.574 Y39.825 E23.35648
G1 X84.305 Y39.585 E23.39487
G1 X85.056 Y39.422 E23.43321
G1 X85.821 Y39.338 E23.4716
G1 X86.245 Y39.326 E23.49276
G1 X135.937 Y39.32 E25.97191
G1 X136.705 Y39.36 E26.01028
G1 X137.465 Y39.479 E26.04865
G1 X138.208 Y39.677 E26.08702
G1 X138.927 Y39.951 E26.1254
G1 X139.614 Y40.297 E26.16378
G1 X140.261 Y40.714 E26.20218
G1 X140.861 Y41.195 E26.24055
G1 X141.288 Y41.604 E26.27005
G1 X141.802 Y42.176 E26.30841
G1 X142.255 Y42.798 E26.3468
G1 X142.641 Y43.463 E26.38516
G1 X142.956 Y44.165 E26.42355
G1 X143.196 Y44.896 E26.46194
G1 X143.359 Y45.647 E26.50028
G1 X143.443 Y46.412 E26.53867
G1 X143.455 Y46.837 E26.55988
G1 X143.46 Y136.563 E31.03633
G1 X143.516 Y136.584 E31.03932
G1 X144.202 Y136.931 E31.07767
G1 X144.883 Y137.372 E31.11815
G1 X146.124 Y138.276 E31.19475
G1 X146.721 Y138.76 E31.23309
G1 X147.265 Y139.304 E31.27147
G1 X147.75 Y139.902 E31.30988
G1 X148.169 Y140.546 E31.34821
G1 X148.52 Y141.231 E31.38661
G1 X148.804 Y141.966 E31.42593
G1 X149.278 Y143.422 E31.50232
G1 X149.477 Y144.165 E31.54069
G1 X149.599 Y144.925 E31.5791
G1 X149.641 Y145.693 E31.61747
G1 X149.603 Y146.461 E31.65583
G1 X149.486 Y147.221 E31.69419
G1 X149.278 Y148.004 E31.73461
G1 X148.804 Y149.46 E31.81101
G1 X148.528 Y150.178 E31.84938
G1 X148.179 Y150.863 E31.88774
G1 X147.761 Y151.509 E31.92612
G1 X147.278 Y152.108 E31.96451
G1 X147.116 Y152.271 E31.97598
G1 X147.116 Y158.296 E32.27657
G1 X147.076 Y159.064 E32.31493
G1 X146.957 Y159.824 E32.35331
G1 X146.759 Y160.567 E32.39168
G1 X146.485 Y161.286 E32.43006
G1 X146.138 Y161.972 E32.46842
G1 X145.722 Y162.619 E32.50679
G1 X145.241 Y163.219 E32.54516
G1 X144.832 Y163.646 E32.57466
G1 X144.26 Y164.16 E32.61302
G1 X143.638 Y164.613 E32.65141
G1 X142.973 Y164.999 E32.68977
G1 X142.271 Y165.314 E32.72816
G1 X141.54 Y165.554 E32.76655
G1 X140.789 Y165.717 E32.80489
G1 X140.024 Y165.801 E32.84328
G1 X139.599 Y165.813 E32.86449
G1 X132.461 Y165.813 E33.22061
G1 X132.332 Y166.152 E33.23871
G1 X131.985 Y166.838 E33.27706
G1 X131.569 Y167.485 E33.31543
G1 X131.088 Y168.085 E33.3538
G1 X130.679 Y168.512 E33.3833
G1 X130.107 Y169.026 E33.42167
G1 X129.485 Y169.479 E33.46005
G1 X128.82 Y169.865 E33.49842
G1 X128.118 Y170.18 E33.5368
G1 X127.387 Y170.42 E33.57519
G1 X126.636 Y170.583 E33.61353
G1 X125.871 Y170.667 E33.65192
G1 X125.446 Y170.679 E33.67313
G1 X97.09 Y170.679 E35.08782
G1 X96.322 Y170.639 E35.12619
G1 X95.562 Y170.52 E35.16457
G1 X94.819 Y170.322 E35.20293
G1 X94.1 Y170.048 E35.24132
G1 X93.414 Y169.701 E35.27967
G1 X92.767 Y169.285 E35.31805
G1 X92.167 Y168.804 E35.35641
G1 X91.74 Y168.395 E35.38591
G1 X91.226 Y167.823 E35.42428
G1 X90.773 Y167.201 E35.46267
G1 X90.387 Y166.536 E35.50103
G1 X90.072 Y165.834 E35.53941
G1 X90.065 Y165.813 E35.54052
G1 X82.655 Y165.813 E35.91021
G1 X81.887 Y165.773 E35.94857
G1 X81.127 Y165.654 E35.98695
G1 X80.384 Y165.456 E36.02531
G1 X79.665 Y165.182 E36.0637
G1 X78.979 Y164.835 E36.10206
G1 X78.332 Y164.419 E36.14043
G1 X77.732 Y163.938 E36.1788
G1 X77.305 Y163.529 E36.2083
G1 X76.791 Y162.957 E36.24666
G1 X76.338 Y162.335 E36.28505
G1 X75.952 Y161.67 E36.32341
G1 X75.637 Y160.968 E36.3618
G1 X75.586 Y160.813 E36.36994
G1 X70.401 Y160.813 E36.62862
G1 X69.633 Y160.773 E36.66699
G1 X68.873 Y160.654 E36.70537
G1 X68.13 Y160.456 E36.74373
G1 X67.411 Y160.182 E36.78212
G1 X66.725 Y159.835 E36.82047
G1 X66.078 Y159.419 E36.85885
G1 X65.478 Y158.938 E36.89721
G1 X65.051 Y158.529 E36.92671
G1 X64.537 Y157.957 E36.96508
G1 X64.084 Y157.335 E37.00347
G1 X63.698 Y156.67 E37.04183
G1 X63.383 Y155.968 E37.08021
G1 X63.143 Y155.237 E37.1186
G1 X62.98 Y154.486 E37.15694
G1 X62.896 Y153.721 E37.19533
G1 X62.884 Y153.296 E37.21655
G1 X62.886 Y118.342 E38.96041
G1 X62.926 Y117.573 E38.99883
G1 X63.046 Y116.814 E39.03716
G1 X63.243 Y116.07 E39.07556
G1 X63.517 Y115.352 E39.1139
G1 X63.864 Y114.665 E39.1523
G1 X64.28 Y114.018 E39.19068
G1 X64.762 Y113.418 E39.22907
G1 X65.17 Y112.992 E39.2585
G1 X65.742 Y112.478 E39.29687
G1 X66.364 Y112.025 E39.33526
G1 X67.029 Y111.639 E39.37362
G1 X67.731 Y111.324 E39.412
G1 X68.462 Y111.084 E39.45039
G1 X69.213 Y110.921 E39.48873
G1 X69.978 Y110.837 E39.52712
G1 X70.403 Y110.825 E39.54834
G1 X73.25 Y110.825 E39.69037
G1 X74.018 Y110.865 E39.72874
G1 X74.778 Y110.984 E39.76712
G1 X75.521 Y111.182 E39.80548
G1 X75.886 Y111.084 E39.82434
G1 X76.637 Y110.921 E39.86268
G1 X77.402 Y110.837 E39.90107
G1 X77.827 Y110.825 E39.92228
G1 X83.25 Y110.825 E40.19284
G1 X84.018 Y110.865 E40.23121
G1 X84.567 Y110.951 E40.25893
G1 X84.566 Y84.201 E41.59349
G1 X84.44 Y84.228 E41.59992
G1 X83.675 Y84.312 E41.63832
G1 X83.251 Y84.324 E41.65948
G1 X77.828 Y84.325 E41.93003
G1 X77.06 Y84.285 E41.9684
G1 X76.3 Y84.166 E42.00678
G1 X75.557 Y83.968 E42.04514
G1 X75.191 Y84.066 E42.06404
G1 X74.44 Y84.229 E42.10238
G1 X73.675 Y84.313 E42.14078
G1 X73.25 Y84.325 E42.16199
G1 X70.402 Y84.325 E42.30408
G1 X69.634 Y84.285 E42.34245
G1 X68.874 Y84.166 E42.38083
G1 X68.131 Y83.968 E42.41919
G1 X67.412 Y83.694 E42.45757
G1 X66.726 Y83.347 E42.49593
G1 X66.079 Y82.931 E42.5343
G1 X65.479 Y82.45 E42.57267
G1 X65.052 Y82.041 E42.60217
G1 X64.538 Y81.469 E42.64053
G1 X64.085 Y80.847 E42.67892
G1 X63.699 Y80.182 E42.71729
G1 X63.384 Y79.48 E42.75567
G1 X63.144 Y78.749 E42.79406
G1 X62.981 Y77.998 E42.8324
G1 X62.897 Y77.233 E42.87079
G1 X62.885 Y76.809 E42.89195
G1 X62.884 Y65.673 E43.44753
G1 X62.924 Y64.905 E43.4859
G1 X63.043 Y64.145 E43.52428
G1 X63.241 Y63.401 E43.56269
G1 X63.55 Y62.603 E43.60538
G1 X63.586 Y62.524 E43.60971
G1 X63.941 Y61.842 E43.64807
G1 X64.365 Y61.2 E43.68646
G1 X64.853 Y60.606 E43.72481
M205 X10 Y10
G0 F6000 X65.19 Y60.83
M205 X8 Y8
G1 F1200 X65.704 Y60.33 E43.76058
G1 X79.129 Y48.555 E44.65149
G1 X79.129 Y46.843 E44.7369
G1 X79.169 Y46.096 E44.77422
G1 X79.288 Y45.358 E44.81151
G1 X79.486 Y44.636 E44.84886
G1 X79.759 Y43.94 E44.88616
G1 X80.106 Y43.277 E44.9235
G1 X80.521 Y42.654 E44.96084
G1 X81.179 Y41.893 E45.01103
G1 X81.296 Y41.776 E45.01929
G1 X81.853 Y41.276 E45.05663
G1 X82.459 Y40.839 E45.09391
G1 X83.109 Y40.468 E45.13125
G1 X83.795 Y40.169 E45.16858
G1 X84.509 Y39.945 E45.20591
G1 X85.242 Y39.798 E45.24321
G1 X86.245 Y39.726 E45.29338
G1 X135.937 Y39.72 E47.77252
G1 X136.684 Y39.76 E47.80984
G1 X137.423 Y39.879 E47.84719
G1 X138.144 Y40.077 E47.88449
G1 X138.84 Y40.35 E47.92179
G1 X139.504 Y40.696 E47.95915
G1 X140.126 Y41.111 E47.99645
G1 X140.888 Y41.77 E48.04671
G1 X141.005 Y41.887 E48.05497
G1 X141.505 Y42.444 E48.09231
G1 X141.942 Y43.05 E48.12958
G1 X142.313 Y43.7 E48.16692
G1 X142.612 Y44.386 E48.20426
G1 X142.836 Y45.1 E48.24159
G1 X142.983 Y45.833 E48.27889
G1 X143.055 Y46.837 E48.32911
G1 X143.06 Y136.838 E52.81927
G1 X143.429 Y136.983 E52.83905
G1 X144.092 Y137.33 E52.87639
G1 X144.648 Y137.695 E52.90957
G1 X145.889 Y138.599 E52.98617
G1 X146.469 Y139.071 E53.02348
G1 X146.995 Y139.602 E53.06076
G1 X147.462 Y140.187 E53.09811
G1 X147.864 Y140.818 E53.13544
G1 X148.196 Y141.488 E53.17274
G1 X148.423 Y142.09 E53.20484
G1 X148.897 Y143.546 E53.28123
G1 X149.09 Y144.269 E53.31857
G1 X149.205 Y145.008 E53.35588
G1 X149.241 Y145.755 E53.39319
G1 X149.196 Y146.502 E53.43053
G1 X149.072 Y147.24 E53.46786
G1 X148.897 Y147.88 E53.50096
G1 X148.423 Y149.336 E53.57735
G1 X148.154 Y150.034 E53.61467
G1 X147.812 Y150.699 E53.65198
G1 X147.401 Y151.324 E53.6893
