;FLAVOR:Marlin
;TIME:5759
;Filament used: 4.55476m
;Layer height: 0.2
;MINX:55.417
;MINY:42.087
;MINZ:0.3
;MAXX:154.579
;MAXY:167.921
;MAXZ:8.375
;Generated with Cura_SteamEngine 4.13.1
M82 ;absolute extrusion mode
G21                                        ; metric values 
G90                                        ; absolute positioning 
M82                                        ; set extruder to absolute mode 
M107                                       ; start with the fan off 
M140 S60           ; Start heating the bed 
G4 S60                                     ; wait 1 minute 
M104 S210         ; start heating the hot end 
M190 S60           ; wait for bed 
M109 S210         ; wait for hotend 
M300 S1000 P500                            ; BEEP heating done 
G28 X0 Y10 Z0                              ; move X/Y to min endstops 
M420 S1                                    ; Enable leveling 
M420 Z2.0                                  ; Set leveling fading height to 2 mm 
G0 Z0.15                                   ; lift nozzle a bit 
G92 E0                                     ; zero the extruded length 
G1 X50 E25 F500                            ; Extrude 25mm of filament in a 5cm line. 
G92 E0                                     ; zero the extruded length again 
G1 E-2 F500                                ; Retract a little 
G1 X120 F4000                              ; Quickly wipe away from the filament line`
G92 E0
G92 E0
G1 F1500 E-6
;LAYER_COUNT:41
;LAYER:0
M106 S76.5
M205 X10 Y10
G1 F600 Z0.375
G0 F6000 X70.911 Y59.616 Z0.375
M205 X8 Y8
;TYPE:SKIRT
G1 F600 Z0.3
G1 F1500 E0
G1 F1200 X71.454 Y59.043 E0.03938
G1 X72.053 Y58.528 E0.0788
G1 X72.51 Y58.199 E0.10689
G1 X86.203 Y49.083 E0.92758
G1 X86.882 Y48.679 E0.967
G1 X87.846 Y48.251 E1.01962
G1 X87.887 Y48.236 E1.0218
G1 X88.641 Y48.002 E1.06118
G1 X89.415 Y47.847 E1.10056
G1 X127.455 Y42.164 E3.01945
G1 X128.237 Y42.087 E3.05865
G1 X129.137 Y42.094 E3.10356
G1 X147.183 Y43.276 E4.0058
G1 X147.967 Y43.367 E4.04518
G1 X148.738 Y43.537 E4.08457
G1 X149.488 Y43.785 E4.12398
G1 X150.209 Y44.107 E4.16337
G1 X150.894 Y44.5 E4.20277
G1 X151.536 Y44.96 E4.24218
G1 X152.127 Y45.483 E4.28155
G1 X152.492 Y45.865 E4.30791
G1 X152.6 Y45.986 E4.316
G1 X153.096 Y46.601 E4.35542
G1 X153.526 Y47.263 E4.3948
G1 X153.888 Y47.965 E4.43421
G1 X154.176 Y48.7 E4.47359
G1 X154.389 Y49.461 E4.51302
G1 X154.524 Y50.239 E4.55241
G1 X154.579 Y51.026 E4.59177
G1 X154.573 Y51.525 E4.61667
G1 X153.741 Y70.31 E5.55477
G1 X153.667 Y71.096 E5.59416
G1 X153.513 Y71.871 E5.63358
G1 X153.365 Y72.384 E5.66022
G1 X153.087 Y73.123 E5.69961
G1 X152.535 Y74.167 E5.75853
G1 X151.259 Y76.194 E5.87802
G1 X150.805 Y76.84 E5.91742
G1 X150.288 Y77.437 E5.95682
G1 X149.713 Y77.979 E5.99624
G1 X148.964 Y78.542 E6.04299
G1 X148.89 Y78.591 E6.04741
G1 X148.211 Y78.994 E6.08681
G1 X147.494 Y79.325 E6.12621
G1 X146.747 Y79.582 E6.16562
G1 X145.716 Y79.805 E6.21824
G1 X129.28 Y82.215 E7.04701
G1 X128.493 Y82.29 E7.08645
G1 X127.704 Y82.285 E7.12581
G1 X126.919 Y82.201 E7.1652
G1 X126.146 Y82.037 E7.20462
G1 X125.394 Y81.796 E7.24402
G1 X124.9 Y81.59 E7.27072
G1 X124.793 Y81.541 E7.27659
G1 X124.093 Y81.176 E7.31598
G1 X123.433 Y80.742 E7.35539
G1 X122.82 Y80.244 E7.39479
G1 X122.261 Y79.687 E7.43416
G1 X121.761 Y79.075 E7.47359
G1 X121.434 Y78.595 E7.50257
G1 X116.837 Y71.268 E7.9341
G1 X100.652 Y71.783 E8.74198
G1 X94.315 Y120.458 E11.19088
G1 X94.189 Y121.888 E11.2625
G1 X95.544 Y137.664 E12.05247
G1 X95.572 Y138.197 E12.07909
G1 X95.882 Y156.085 E12.97166
G1 X95.856 Y156.874 E13.01105
G1 X95.75 Y157.657 E13.05047
G1 X95.565 Y158.424 E13.08983
G1 X95.353 Y159.047 E13.12266
G1 X95.325 Y159.119 E13.12652
G1 X95.002 Y159.84 E13.16593
G1 X94.607 Y160.524 E13.20534
G1 X94.146 Y161.165 E13.24473
G1 X93.876 Y161.484 E13.26558
G1 X92.91 Y162.567 E13.33798
G1 X92.06 Y163.386 E13.39687
G1 X90.893 Y164.351 E13.47242
G1 X90.259 Y164.823 E13.51186
G1 X89.91 Y165.044 E13.53246
G1 X88.629 Y165.806 E13.60683
G1 X87.93 Y166.174 E13.64624
G1 X87.561 Y166.335 E13.66632
G1 X86.174 Y166.895 E13.74095
G1 X85.428 Y167.153 E13.78033
G1 X85.035 Y167.256 E13.8006
G1 X83.547 Y167.605 E13.87685
G1 X82.77 Y167.746 E13.91625
G1 X82.355 Y167.789 E13.93706
G1 X80.863 Y167.902 E14.01171
G1 X80.074 Y167.921 E14.05109
G1 X79.679 Y167.901 E14.07082
G1 X78.202 Y167.788 E14.14472
G1 X77.419 Y167.688 E14.1841
G1 X77.021 Y167.606 E14.20438
G1 X75.546 Y167.261 E14.27995
G1 X75.165 Y167.162 E14.29959
G1 X74.387 Y166.894 E14.34064
G1 X72.998 Y166.333 E14.41538
G1 X72.282 Y166.001 E14.45475
G1 X71.932 Y165.805 E14.47477
G1 X70.654 Y165.045 E14.54895
G1 X69.997 Y164.608 E14.58831
G1 X69.672 Y164.354 E14.60889
G1 X68.503 Y163.388 E14.68455
G1 X67.921 Y162.855 E14.72392
G1 X67.647 Y162.562 E14.74394
G1 X66.68 Y161.476 E14.81648
G1 X66.185 Y160.86 E14.85591
G1 X65.755 Y160.198 E14.89529
G1 X65.395 Y159.495 E14.9347
G1 X65.214 Y159.062 E14.95811
G1 X64.964 Y158.313 E14.9975
G1 X64.791 Y157.543 E15.03688
G1 X64.697 Y156.759 E15.07627
G1 X64.679 Y156.355 E15.09645
G1 X64.411 Y140.866 E15.86931
G1 X57.925 Y130.276 E16.48887
G1 X57.548 Y129.582 E16.52827
G1 X57.306 Y129.026 E16.55852
G1 X57.055 Y128.277 E16.59793
G1 X56.948 Y127.851 E16.61985
G1 X55.668 Y122.038 E16.91681
G1 X55.538 Y121.26 E16.95616
G1 X55.49 Y120.612 E16.98858
G1 X55.417 Y118.343 E17.10184
G1 X55.449 Y117.341 E17.15185
G1 X55.452 Y117.31 E17.1534
G1 X55.568 Y116.529 E17.1928
G1 X55.657 Y116.136 E17.2129
G1 X69.233 Y62.826 E19.95743
G1 X69.467 Y62.072 E19.99682
G1 X69.775 Y61.345 E20.03621
G1 X70.155 Y60.653 E20.0756
G1 X70.428 Y60.241 E20.10026
G1 X70.911 Y59.616 E20.13966
M205 X10 Y10
G0 F6000 X71.227 Y59.861
M205 X8 Y8
G1 F1200 X71.759 Y59.305 E20.17806
G1 X72.346 Y58.808 E20.21643
G1 X72.732 Y58.532 E20.2401
G1 X86.425 Y49.416 E21.06079
G1 X87.087 Y49.024 E21.09918
G1 X87.983 Y48.626 E21.14809
G1 X88.024 Y48.611 E21.15027
G1 X88.76 Y48.385 E21.18868
G1 X89.474 Y48.242 E21.22501
G1 X127.514 Y42.559 E23.14389
G1 X128.257 Y42.486 E23.18114
G1 X129.111 Y42.493 E23.22375
G1 X147.157 Y43.675 E24.12599
G1 X147.921 Y43.765 E24.16437
G1 X148.671 Y43.934 E24.20273
G1 X149.4 Y44.18 E24.24111
G1 X150.099 Y44.5 E24.27947
G1 X150.761 Y44.891 E24.31783
G1 X151.38 Y45.349 E24.35624
G1 X152.194 Y46.131 E24.41256
G1 X152.302 Y46.252 E24.42065
G1 X152.783 Y46.852 E24.45901
G1 X153.2 Y47.498 E24.49737
G1 X153.548 Y48.185 E24.5358
G1 X153.822 Y48.903 E24.57414
G1 X154.02 Y49.646 E24.6125
G1 X154.14 Y50.406 E24.65089
G1 X154.174 Y51.507 E24.70584
G1 X153.342 Y70.292 E25.64395
G1 X153.268 Y71.058 E25.68234
G1 X153.115 Y71.812 E25.72072
G1 X152.984 Y72.262 E25.74411
G1 X152.712 Y72.981 E25.78246
G1 X152.196 Y73.954 E25.83741
G1 X150.92 Y75.981 E25.9569
G1 X150.477 Y76.61 E25.99528
G1 X149.972 Y77.189 E26.03361
G1 X149.408 Y77.713 E26.07202
G1 X148.744 Y78.209 E26.11337
G1 X148.67 Y78.258 E26.1178
G1 X148.007 Y78.649 E26.1562
G1 X147.308 Y78.969 E26.19455
G1 X146.579 Y79.214 E26.23292
G1 X145.658 Y79.41 E26.2799
G1 X129.222 Y81.82 E27.10866
G1 X128.456 Y81.892 E27.14705
G1 X127.687 Y81.884 E27.18542
G1 X126.923 Y81.796 E27.22379
G1 X126.172 Y81.629 E27.26217
G1 X125.442 Y81.386 E27.30055
G1 X124.96 Y81.177 E27.32676
G1 X124.278 Y80.821 E27.36514
G1 X123.637 Y80.396 E27.40351
G1 X123.044 Y79.907 E27.44186
G1 X122.504 Y79.358 E27.48028
G1 X122.024 Y78.757 E27.51865
G1 X121.773 Y78.382 E27.54117
G1 X117.054 Y70.86 E27.98418
G1 X100.299 Y71.394 E28.82051
G1 X93.916 Y120.42 E31.28707
G1 X93.787 Y121.882 E31.3603
G1 X95.146 Y137.699 E32.15232
G1 X95.172 Y138.204 E32.17754
G1 X95.482 Y156.092 E33.07011
G1 X95.455 Y156.86 E33.10845
G1 X95.349 Y157.622 E33.14684
G1 X95.164 Y158.369 E33.18523
G1 X94.98 Y158.902 E33.21336
G1 X94.952 Y158.974 E33.21722
G1 X94.636 Y159.676 E33.25562
G1 X94.249 Y160.34 E33.29397
G1 X93.577 Y161.218 E33.34913
G1 X92.611 Y162.301 E33.42153
G1 X91.805 Y163.078 E33.47738
G1 X90.638 Y164.043 E33.55293
G1 X89.705 Y164.7 E33.60986
G1 X88.424 Y165.462 E33.68422
G1 X87.411 Y165.964 E33.74063
G1 X86.024 Y166.524 E33.81525
G1 X84.944 Y166.866 E33.87177
G1 X83.456 Y167.215 E33.94802
G1 X82.325 Y167.39 E34.00512
G1 X80.833 Y167.503 E34.07977
G1 X79.71 Y167.502 E34.1358
G1 X78.233 Y167.389 E34.2097
G1 X77.112 Y167.217 E34.26628
G1 X75.637 Y166.872 E34.34185
G1 X75.275 Y166.777 E34.36053
G1 X74.537 Y166.523 E34.39946
G1 X73.148 Y165.962 E34.4742
G1 X72.137 Y165.461 E34.53049
G1 X70.859 Y164.701 E34.60468
G1 X69.927 Y164.045 E34.66154
G1 X68.758 Y163.079 E34.73719
G1 X67.945 Y162.296 E34.79351
G1 X66.978 Y161.21 E34.86605
G1 X66.497 Y160.61 E34.90442
G1 X66.081 Y159.963 E34.94279
G1 X65.614 Y158.986 E34.99682
G1 X65.587 Y158.917 E35.00052
G1 X65.344 Y158.187 E35.0389
G1 X65.179 Y157.436 E35.07726
G1 X65.079 Y156.348 E35.13177
G1 X64.809 Y140.751 E35.91003
G1 X58.266 Y130.067 E36.53507
G1 X57.899 Y129.391 E36.57344
G1 X57.678 Y128.88 E36.60122
G1 X57.435 Y128.15 E36.6396
G1 X57.339 Y127.765 E36.6594
G1 X56.059 Y121.952 E36.95636
G1 X55.933 Y121.194 E36.99469
G1 X55.89 Y120.599 E37.02445
G1 X55.817 Y118.33 E37.13771
G1 X55.847 Y117.379 E37.18518
G1 X55.85 Y117.348 E37.18674
G1 X56.045 Y116.235 E37.24311
G1 X69.621 Y62.925 E39.98764
G1 X69.849 Y62.19 E40.02604
G1 X70.152 Y61.483 E40.06441
G1 X70.715 Y60.528 E40.11972
G1 X70.756 Y60.469 E40.12331
G1 X71.227 Y59.861 E40.16168
M205 X10 Y10
G0 F6000 X71.544 Y60.107
M205 X8 Y8
G1 F1200 X72.063 Y59.569 E40.19897
G1 X72.637 Y59.089 E40.2363
G1 X72.954 Y58.865 E40.25567
G1 X86.647 Y49.749 E41.07636
G1 X87.291 Y49.368 E41.11369
G1 X88.121 Y49.002 E41.15894
G1 X88.162 Y48.987 E41.16112
G1 X88.877 Y48.768 E41.19843
G1 X89.533 Y48.638 E41.23179
G1 X127.573 Y42.955 E43.15068
G1 X128.277 Y42.886 E43.18597
G1 X129.085 Y42.892 E43.22628
G1 X147.131 Y44.074 E44.12853
G1 X147.873 Y44.163 E44.16581
G1 X148.602 Y44.33 E44.20312
G1 X149.309 Y44.574 E44.24044
G1 X149.986 Y44.893 E44.27778
G1 X150.625 Y45.282 E44.3151
G1 X151.219 Y45.736 E44.3524
G1 X151.895 Y46.398 E44.3996
G1 X152.003 Y46.519 E44.40769
G1 X152.471 Y47.103 E44.44503
G1 X152.874 Y47.733 E44.48234
G1 X153.207 Y48.403 E44.51967
G1 X153.466 Y49.105 E44.557
G1 X153.65 Y49.83 E44.59432
G1 X153.754 Y50.57 E44.6316
G1 X153.774 Y51.49 E44.67751
G1 X152.942 Y70.275 E45.61561
G1 X152.869 Y71.019 E45.65291
G1 X152.618 Y72.093 E45.70794
G1 X152.603 Y72.14 E45.7104
G1 X152.337 Y72.84 E45.74776
G1 X151.858 Y73.741 E45.79867
G1 X150.582 Y75.768 E45.91816
G1 X150.15 Y76.379 E45.9555
G1 X149.656 Y76.94 E45.99279
G1 X149.104 Y77.446 E46.03015
G1 X148.523 Y77.875 E46.06618
G1 X148.449 Y77.924 E46.07061
G1 X147.804 Y78.304 E46.10796
G1 X147.122 Y78.612 E46.14529
G1 X146.411 Y78.845 E46.18262
G1 X145.6 Y79.014 E46.22395
G1 X129.164 Y81.424 E47.05271
G1 X128.419 Y81.493 E47.09004
G1 X127.671 Y81.482 E47.12736
G1 X126.928 Y81.391 E47.16471
G1 X126.2 Y81.221 E47.202
G1 X125.233 Y80.862 E47.25346
G1 X125.126 Y80.813 E47.25934
G1 X124.464 Y80.466 E47.29663
G1 X123.842 Y80.05 E47.33396
G1 X123.269 Y79.57 E47.37125
G1 X122.749 Y79.031 E47.40861
G1 X122.111 Y78.169 E47.46212
G1 X117.27 Y70.453 E47.91656
G1 X99.946 Y71.005 E48.7813
G1 X93.52 Y120.359 E51.26436
G1 X93.385 Y121.886 E51.34084
G1 X94.747 Y137.733 E52.13437
G1 X94.772 Y138.211 E52.15825
G1 X95.082 Y156.099 E53.05082
G1 X95.055 Y156.846 E53.08811
G1 X94.948 Y157.587 E53.12546
G1 X94.763 Y158.312 E53.16279
G1 X94.579 Y158.829 E53.19017
G1 X94.271 Y159.511 E53.2275
G1 X93.892 Y160.156 E53.26483
G1 X93.279 Y160.952 E53.31495
G1 X92.313 Y162.035 E53.38735
G1 X91.55 Y162.77 E53.44021
G1 X90.383 Y163.735 E53.51576
G1 X89.501 Y164.356 E53.56957
G1 X88.22 Y165.118 E53.64393
G1 X87.262 Y165.593 E53.69728
G1 X85.875 Y166.153 E53.77191
G1 X84.852 Y166.477 E53.82544
G1 X83.364 Y166.826 E53.90169
G1 X82.295 Y166.991 E53.95566
G1 X80.803 Y167.104 E54.03031
G1 X79.74 Y167.104 E54.08334
G1 X78.263 Y166.991 E54.15724
G1 X77.203 Y166.827 E54.21076
G1 X75.728 Y166.482 E54.28633
G1 X75.385 Y166.393 E54.30401
G1 X74.687 Y166.153 E54.34083
G1 X73.298 Y165.592 E54.41557
G1 X72.341 Y165.118 E54.46885
G1 X71.063 Y164.358 E54.54303
G1 X70.182 Y163.737 E54.59681
G1 X69.013 Y162.771 E54.67247
G1 X68.244 Y162.03 E54.72574
G1 X67.277 Y160.944 E54.79829
G1 X66.81 Y160.36 E54.8356
G1 X66.408 Y159.729 E54.87292
G1 X65.986 Y158.84 E54.92202
G1 X65.959 Y158.771 E54.92572
G1 X65.724 Y158.061 E54.96303
G1 X65.566 Y157.329 E55.00039
G1 X65.479 Y156.341 E55.04987
G1 X65.207 Y140.633 E55.83366
G1 X58.608 Y129.858 E56.46403
G1 X58.251 Y129.2 E56.50138
G1 X58.051 Y128.734 E56.52668
G1 X57.73 Y127.679 E56.5817
G1 X56.45 Y121.866 E56.87866
G1 X56.328 Y121.128 E56.91598
G1 X56.29 Y120.586 E56.94308
G1 X56.217 Y118.317 E57.05634
G1 X56.246 Y117.418 E57.10122
G1 X56.249 Y117.387 E57.10277
G1 X56.433 Y116.334 E57.1561
G1 X70.009 Y63.024 E59.90064
G1 X70.232 Y62.309 E59.938
G1 X70.53 Y61.623 E59.97532
G1 X71.044 Y60.756 E60.0256
G1 X71.085 Y60.697 E60.02919
G1 X71.544 Y60.107 E60.06648
M205 X10 Y10
G0 F6000 X71.86 Y60.353
M205 X8 Y8
G1 F1200 X72.367 Y59.833 E60.10271
G1 X73.175 Y59.198 E60.15398
G1 X86.868 Y50.082 E60.97467
G1 X87.494 Y49.713 E61.01093
G1 X88.258 Y49.378 E61.05255
G1 X88.299 Y49.363 E61.05472
G1 X88.994 Y49.151 E61.09097
G1 X89.592 Y49.033 E61.12138
G1 X127.632 Y43.35 E63.04027
G1 X128.297 Y43.285 E63.0736
G1 X129.058 Y43.291 E63.11157
G1 X147.104 Y44.473 E64.01382
G1 X147.825 Y44.56 E64.05005
G1 X148.533 Y44.726 E64.08633
G1 X149.217 Y44.969 E64.12255
G1 X149.871 Y45.286 E64.15881
G1 X150.486 Y45.672 E64.19503
G1 X151.055 Y46.124 E64.23128
G1 X151.597 Y46.664 E64.26946
G1 X151.705 Y46.785 E64.27755
G1 X152.158 Y47.353 E64.31379
G1 X152.546 Y47.967 E64.35003
G1 X152.864 Y48.62 E64.38627
G1 X153.109 Y49.304 E64.42251
G1 X153.277 Y50.01 E64.45872
G1 X153.366 Y50.731 E64.49496
G1 X153.375 Y51.472 E64.53193
G1 X152.543 Y70.257 E65.47004
G1 X152.471 Y70.98 E65.50629
G1 X152.237 Y71.972 E65.55714
G1 X152.222 Y72.019 E65.5596
G1 X151.963 Y72.697 E65.59581
G1 X151.519 Y73.528 E65.64282
G1 X150.243 Y75.555 E65.76231
G1 X149.823 Y76.148 E65.79857
G1 X149.341 Y76.69 E65.83475
G1 X148.801 Y77.177 E65.87103
G1 X148.302 Y77.542 E65.90187
G1 X148.228 Y77.591 E65.9063
G1 X147.601 Y77.958 E65.94255
G1 X146.938 Y78.254 E65.97877
G1 X146.246 Y78.475 E66.01501
G1 X145.542 Y78.618 E66.05085
G1 X129.106 Y81.028 E66.87962
G1 X128.382 Y81.094 E66.91589
G1 X127.656 Y81.08 E66.95211
G1 X126.936 Y80.986 E66.98834
G1 X126.23 Y80.813 E67.0246
G1 X125.4 Y80.499 E67.06888
G1 X125.293 Y80.45 E67.07475
G1 X124.65 Y80.111 E67.11101
G1 X124.049 Y79.705 E67.1472
G1 X123.495 Y79.234 E67.18348
G1 X122.997 Y78.705 E67.21972
G1 X122.45 Y77.957 E67.26596
G1 X117.487 Y70.047 E67.73183
G1 X99.593 Y70.616 E68.62502
G1 X93.12 Y120.343 E71.12684
G1 X92.984 Y121.875 E71.20357
G1 X94.349 Y137.767 E71.99935
G1 X94.372 Y138.218 E72.02188
G1 X94.682 Y156.106 E72.91445
G1 X94.655 Y156.831 E72.95064
G1 X94.548 Y157.55 E72.98691
G1 X94.362 Y158.252 E73.02314
G1 X94.206 Y158.684 E73.04605
G1 X93.906 Y159.346 E73.08231
G1 X93.535 Y159.97 E73.11853
G1 X92.98 Y160.685 E73.16369
G1 X92.014 Y161.768 E73.23609
G1 X91.295 Y162.461 E73.28591
G1 X90.128 Y163.426 E73.36146
G1 X89.296 Y164.012 E73.41223
G1 X88.015 Y164.774 E73.48659
G1 X87.112 Y165.222 E73.53688
G1 X85.725 Y165.782 E73.61151
G1 X84.761 Y166.088 E73.66197
G1 X83.273 Y166.437 E73.73822
G1 X82.264 Y166.592 E73.78915
G1 X80.772 Y166.705 E73.8638
G1 X79.771 Y166.705 E73.91374
G1 X78.294 Y166.592 E73.98764
G1 X77.294 Y166.438 E74.03812
G1 X75.819 Y166.093 E74.11369
G1 X75.495 Y166.008 E74.13041
G1 X74.836 Y165.782 E74.16516
G1 X73.447 Y165.221 E74.2399
G1 X72.546 Y164.774 E74.29008
