;FLAVOR:Marlin
;TIME:5748
;Filament used: 4.5558m
;Layer height: 0.2
;MINX:55.427
;MINY:42.084
;MINZ:0.3
;MAXX:154.583
;MAXY:167.924
;MAXZ:8.375
;Generated with Cura_SteamEngine 4.13.1
M82 ;absolute extrusion mode
G21                                        ; metric values 
G90                                        ; absolute positioning 
M82                                        ; set extruder to absolute mode 
M107                                       ; start with the fan off 
M140 S60           ; Start heating the bed 
G4 S60                                     ; wait 1 minute 
M104 S210         ; start heating the hot end 
M190 S60           ; wait for bed 
M109 S210         ; wait for hotend 
M300 S1000 P500                            ; BEEP heating done 
G28 X0 Y10 Z0                              ; move X/Y to min endstops 
M420 S1                                    ; Enable leveling 
M420 Z2.0                                  ; Set leveling fading height to 2 mm 
G0 Z0.15                                   ; lift nozzle a bit 
G92 E0                                     ; zero the extruded length 
G1 X50 E25 F500                            ; Extrude 25mm of filament in a 5cm line. 
G92 E0                                     ; zero the extruded length again 
G1 E-2 F500                                ; Retract a little 
G1 X120 F4000                              ; Quickly wipe away from the filament line`
G92 E0
G92 E0
G1 F1500 E-6
;LAYER_COUNT:41
;LAYER:0
M106 S76.5
M205 X10 Y10
G1 F600 Z0.375
G0 F6000 X57.08 Y46.366 Z0.375
M205 X8 Y8
;TYPE:SKIRT
G1 F600 Z0.3
G1 F1500 E0
G1 F1200 X57.508 Y45.862 E0.03299
G1 X58.063 Y45.3 E0.07239
G1 X58.672 Y44.797 E0.1118
G1 X59.328 Y44.359 E0.15115
G1 X60.026 Y43.989 E0.19057
G1 X60.758 Y43.691 E0.23
G1 X61.515 Y43.469 E0.26935
G1 X62.292 Y43.325 E0.30878
G1 X62.817 Y43.273 E0.3351
G1 X80.863 Y42.091 E1.23735
G1 X81.763 Y42.084 E1.28225
G1 X82.545 Y42.161 E1.32145
G1 X120.585 Y47.844 E3.24034
G1 X121.36 Y48 E3.27978
G1 X122.113 Y48.233 E3.3191
G1 X122.154 Y48.248 E3.32128
G1 X122.881 Y48.556 E3.36067
G1 X123.797 Y49.08 E3.41332
G1 X137.49 Y58.197 E4.23404
G1 X138.124 Y58.668 E4.27344
G1 X138.708 Y59.2 E4.31285
G1 X139.234 Y59.788 E4.35221
G1 X139.572 Y60.239 E4.38033
G1 X139.613 Y60.298 E4.38392
G1 X140.031 Y60.968 E4.42331
G1 X140.378 Y61.678 E4.46274
G1 X140.652 Y62.418 E4.50211
G1 X140.767 Y62.824 E4.52316
G1 X154.343 Y116.133 E7.26765
G1 X154.54 Y117.227 E7.32311
G1 X154.543 Y117.255 E7.32451
G1 X154.583 Y118.34 E7.37868
G1 X154.509 Y120.613 E7.49214
G1 X154.443 Y121.4 E7.53154
G1 X154.331 Y122.035 E7.56371
G1 X153.052 Y127.847 E7.86061
G1 X152.843 Y128.609 E7.90003
G1 X152.683 Y129.051 E7.92348
G1 X152.357 Y129.771 E7.96291
G1 X152.075 Y130.273 E7.99164
G1 X145.589 Y140.863 E8.61119
G1 X145.321 Y156.357 E9.38431
G1 X145.267 Y157.145 E9.42371
G1 X145.134 Y157.923 E9.46309
G1 X144.808 Y159.008 E9.51961
G1 X144.782 Y159.076 E9.52325
G1 X144.463 Y159.798 E9.56263
G1 X144.072 Y160.484 E9.60202
G1 X143.614 Y161.128 E9.64144
G1 X143.321 Y161.477 E9.66418
G1 X142.353 Y162.564 E9.7368
G1 X141.799 Y163.127 E9.7762
G1 X141.499 Y163.388 E9.79604
G1 X140.332 Y164.353 E9.87159
G1 X139.698 Y164.825 E9.91102
G1 X139.349 Y165.046 E9.93163
G1 X138.068 Y165.808 E10.00599
G1 X137.369 Y166.176 E10.04541
G1 X137 Y166.337 E10.06549
G1 X135.613 Y166.897 E10.14012
G1 X134.867 Y167.155 E10.1795
G1 X134.479 Y167.257 E10.19951
G1 X132.991 Y167.607 E10.27577
G1 X132.214 Y167.748 E10.31517
G1 X131.794 Y167.792 E10.33624
G1 X130.301 Y167.905 E10.41094
G1 X129.511 Y167.924 E10.45036
G1 X129.117 Y167.904 E10.47005
G1 X127.641 Y167.791 E10.5439
G1 X126.857 Y167.691 E10.58333
G1 X126.455 Y167.608 E10.60381
G1 X124.98 Y167.262 E10.6794
G1 X124.604 Y167.164 E10.69878
G1 X123.826 Y166.896 E10.73983
G1 X122.437 Y166.335 E10.81457
G1 X121.721 Y166.003 E10.85394
G1 X121.371 Y165.807 E10.87396
G1 X120.093 Y165.047 E10.94814
G1 X119.436 Y164.61 E10.98751
G1 X119.111 Y164.356 E11.00808
G1 X117.942 Y163.39 E11.08374
G1 X117.36 Y162.857 E11.12311
G1 X117.088 Y162.566 E11.14299
G1 X116.122 Y161.482 E11.21543
G1 X115.627 Y160.867 E11.25481
G1 X115.197 Y160.205 E11.2942
G1 X114.836 Y159.502 E11.33362
G1 X114.634 Y159.013 E11.36002
G1 X114.389 Y158.263 E11.39938
G1 X114.221 Y157.491 E11.4388
G1 X114.132 Y156.706 E11.47821
G1 X114.118 Y156.085 E11.5092
G1 X114.428 Y138.189 E12.40217
G1 X114.456 Y137.656 E12.4288
G1 X115.812 Y121.879 E13.21882
G1 X115.685 Y120.449 E13.29044
G1 X109.348 Y71.78 E15.73905
G1 X93.163 Y71.265 E16.54693
G1 X88.566 Y78.592 E16.97846
G1 X88.113 Y79.238 E17.01783
G1 X87.597 Y79.836 E17.05723
G1 X87.023 Y80.378 E17.09662
G1 X86.397 Y80.86 E17.13603
G1 X85.726 Y81.276 E17.17542
G1 X85.207 Y81.538 E17.20443
G1 X85.1 Y81.587 E17.2103
G1 X84.366 Y81.879 E17.24971
G1 X83.606 Y82.095 E17.28913
G1 X82.829 Y82.234 E17.32851
G1 X82.042 Y82.293 E17.36788
G1 X81.252 Y82.272 E17.40731
G1 X80.72 Y82.212 E17.43402
G1 X64.284 Y79.802 E18.26278
G1 X63.51 Y79.649 E18.30215
G1 X62.755 Y79.417 E18.34155
G1 X62.027 Y79.11 E18.38097
G1 X61.11 Y78.588 E18.43361
G1 X61.036 Y78.539 E18.43804
G1 X60.4 Y78.071 E18.47743
G1 X59.815 Y77.54 E18.51685
G1 X59.287 Y76.953 E18.55624
G1 X58.742 Y76.193 E18.6029
G1 X57.466 Y74.167 E18.72235
G1 X57.079 Y73.478 E18.76178
G1 X56.635 Y72.382 E18.82077
G1 X56.62 Y72.335 E18.82323
G1 X56.419 Y71.571 E18.86265
G1 X56.295 Y70.791 E18.90205
G1 X56.259 Y70.308 E18.92621
G1 X55.427 Y51.522 E19.86437
G1 X55.432 Y50.732 E19.90378
G1 X55.517 Y49.947 E19.94318
G1 X55.68 Y49.175 E19.98254
G1 X55.921 Y48.423 E20.02194
G1 X56.237 Y47.699 E20.06135
G1 X56.625 Y47.011 E20.10076
G1 X57.08 Y46.366 E20.14014
M205 X10 Y10
G0 F6000 X57.698 Y46.249
M205 X8 Y8
G1 F1200 X57.806 Y46.128 E20.14823
G1 X58.348 Y45.582 E20.18661
G1 X58.943 Y45.095 E20.22497
G1 X59.585 Y44.672 E20.26333
G1 X60.268 Y44.318 E20.30171
G1 X60.984 Y44.037 E20.34008
G1 X61.725 Y43.831 E20.37845
G1 X62.843 Y43.672 E20.43479
G1 X80.889 Y42.49 E21.33704
G1 X81.743 Y42.483 E21.37965
G1 X82.486 Y42.556 E21.41689
G1 X120.526 Y48.239 E23.33578
G1 X121.28 Y48.392 E23.37416
G1 X121.976 Y48.608 E23.41052
G1 X122.017 Y48.623 E23.4127
G1 X122.724 Y48.925 E23.45105
G1 X123.575 Y49.413 E23.49999
G1 X137.268 Y58.53 E24.32071
G1 X137.885 Y58.989 E24.35908
G1 X138.452 Y59.51 E24.39749
G1 X138.961 Y60.086 E24.43584
G1 X139.285 Y60.526 E24.4631
G1 X139.69 Y61.18 E24.50148
G1 X140.026 Y61.872 E24.53986
G1 X140.379 Y62.923 E24.59517
G1 X153.955 Y116.232 E27.33966
G1 X154.142 Y117.27 E27.39228
G1 X154.145 Y117.298 E27.39368
G1 X154.183 Y118.327 E27.44506
G1 X154.109 Y120.6 E27.55852
G1 X154.044 Y121.366 E27.59687
G1 X153.94 Y121.949 E27.62641
G1 X152.661 Y127.761 E27.92331
G1 X152.457 Y128.503 E27.96171
G1 X152.311 Y128.905 E27.98304
G1 X151.992 Y129.605 E28.02142
G1 X151.734 Y130.064 E28.04769
G1 X145.191 Y140.748 E28.67273
G1 X144.921 Y156.35 E29.45124
G1 X144.868 Y157.117 E29.48959
G1 X144.735 Y157.875 E29.52799
G1 X144.434 Y158.865 E29.57961
G1 X144.408 Y158.933 E29.58324
G1 X144.096 Y159.636 E29.62161
G1 X143.713 Y160.303 E29.65999
G1 X143.022 Y161.211 E29.71691
G1 X142.054 Y162.298 E29.78953
G1 X141.244 Y163.08 E29.8457
G1 X140.077 Y164.045 E29.92125
G1 X139.144 Y164.702 E29.97818
G1 X137.863 Y165.464 E30.05254
G1 X136.85 Y165.966 E30.10895
G1 X135.463 Y166.526 E30.18357
G1 X134.387 Y166.867 E30.23988
G1 X132.899 Y167.217 E30.31615
G1 X131.763 Y167.393 E30.3735
G1 X130.27 Y167.506 E30.4482
G1 X129.147 Y167.505 E30.50422
G1 X127.671 Y167.392 E30.57808
G1 X126.546 Y167.218 E30.63487
G1 X125.071 Y166.872 E30.71046
G1 X124.714 Y166.779 E30.72886
G1 X123.976 Y166.525 E30.7678
G1 X122.587 Y165.964 E30.84254
G1 X121.576 Y165.463 E30.89883
G1 X120.298 Y164.703 E30.97301
G1 X119.366 Y164.047 E31.02987
G1 X118.197 Y163.081 E31.10553
G1 X117.386 Y162.3 E31.1617
G1 X116.42 Y161.216 E31.23414
G1 X115.939 Y160.616 E31.27251
G1 X115.523 Y159.969 E31.31088
G1 X115.036 Y158.943 E31.36754
G1 X115.008 Y158.87 E31.37144
G1 X114.77 Y158.139 E31.4098
G1 X114.61 Y157.386 E31.4482
G1 X114.528 Y156.622 E31.48654
G1 X114.518 Y156.092 E31.51299
G1 X114.828 Y138.196 E32.40595
G1 X114.854 Y137.691 E32.43118
G1 X116.213 Y121.873 E33.22325
G1 X116.084 Y120.409 E33.29657
G1 X109.702 Y71.391 E35.76273
G1 X92.946 Y70.857 E36.59912
G1 X88.227 Y78.379 E37.04213
G1 X87.785 Y79.008 E37.08048
G1 X87.28 Y79.588 E37.11885
G1 X86.718 Y80.113 E37.15722
G1 X86.104 Y80.576 E37.19559
G1 X85.445 Y80.973 E37.23397
G1 X84.933 Y81.223 E37.26239
G1 X84.218 Y81.507 E37.30078
G1 X83.477 Y81.714 E37.33916
G1 X82.719 Y81.844 E37.37753
G1 X81.952 Y81.894 E37.41588
G1 X81.183 Y81.865 E37.45427
G1 X80.778 Y81.817 E37.47462
G1 X64.342 Y79.407 E38.30338
G1 X63.588 Y79.256 E38.34174
G1 X62.854 Y79.027 E38.3801
G1 X62.147 Y78.724 E38.41848
G1 X61.33 Y78.255 E38.46548
G1 X61.256 Y78.206 E38.46991
G1 X60.638 Y77.749 E38.50825
G1 X60.071 Y77.229 E38.54664
G1 X59.56 Y76.654 E38.58501
G1 X59.08 Y75.98 E38.6263
G1 X57.804 Y73.954 E38.74575
G1 X57.429 Y73.282 E38.78414
G1 X57.016 Y72.26 E38.83914
G1 X57.001 Y72.213 E38.8416
G1 X56.806 Y71.469 E38.87997
G1 X56.689 Y70.709 E38.91833
G1 X56.658 Y70.29 E38.93929
G1 X55.826 Y51.504 E39.87745
G1 X55.832 Y50.735 E39.91582
G1 X55.918 Y49.971 E39.95417
G1 X56.083 Y49.22 E39.99253
G1 X56.324 Y48.489 E40.03094
G1 X56.641 Y47.788 E40.06932
G1 X57.028 Y47.124 E40.10766
G1 X57.698 Y46.249 E40.16264
M205 X10 Y10
G0 F6000 X57.997 Y46.516
M205 X8 Y8
G1 F1200 X58.105 Y46.395 E40.17073
G1 X58.632 Y45.864 E40.20806
G1 X59.213 Y45.393 E40.24537
G1 X59.841 Y44.986 E40.28271
G1 X60.508 Y44.649 E40.31999
G1 X61.208 Y44.384 E40.35733
G1 X61.932 Y44.196 E40.39465
G1 X62.869 Y44.071 E40.44181
G1 X80.915 Y42.889 E41.34406
G1 X81.723 Y42.883 E41.38437
G1 X82.427 Y42.952 E41.41966
G1 X120.467 Y48.635 E43.33855
G1 X121.2 Y48.785 E43.37588
G1 X121.838 Y48.984 E43.40922
G1 X121.879 Y48.999 E43.4114
G1 X122.567 Y49.293 E43.44872
G1 X123.353 Y49.746 E43.49398
G1 X137.046 Y58.863 E44.3147
G1 X137.646 Y59.311 E44.35206
G1 X138.195 Y59.819 E44.38938
G1 X138.686 Y60.384 E44.42672
G1 X138.956 Y60.754 E44.44957
G1 X139.35 Y61.391 E44.48694
G1 X139.673 Y62.065 E44.52423
G1 X139.991 Y63.021 E44.57449
G1 X153.567 Y116.33 E47.31898
G1 X153.744 Y117.312 E47.36876
G1 X153.747 Y117.34 E47.37016
G1 X153.783 Y118.314 E47.41879
G1 X153.709 Y120.587 E47.53225
G1 X153.645 Y121.332 E47.56956
G1 X153.549 Y121.863 E47.59648
G1 X152.27 Y127.675 E47.89338
G1 X151.949 Y128.731 E47.94844
G1 X151.938 Y128.759 E47.94994
G1 X151.628 Y129.439 E47.98723
G1 X151.392 Y129.855 E48.01109
G1 X144.793 Y140.63 E48.64146
G1 X144.521 Y156.343 E49.4255
G1 X144.468 Y157.089 E49.46281
G1 X144.336 Y157.826 E49.50017
G1 X144.06 Y158.722 E49.54694
G1 X144.034 Y158.79 E49.55057
G1 X143.73 Y159.473 E49.58787
G1 X143.355 Y160.121 E49.62522
G1 X142.724 Y160.945 E49.677
G1 X141.756 Y162.032 E49.74962
G1 X140.989 Y162.772 E49.80279
G1 X139.822 Y163.737 E49.87834
G1 X138.94 Y164.358 E49.93216
G1 X137.659 Y165.12 E50.00652
G1 X136.701 Y165.595 E50.05987
G1 X135.314 Y166.155 E50.13449
G1 X134.296 Y166.478 E50.18777
G1 X132.808 Y166.828 E50.26404
G1 X131.733 Y166.994 E50.3183
G1 X130.24 Y167.107 E50.393
G1 X129.178 Y167.107 E50.44599
G1 X127.702 Y166.994 E50.51984
G1 X126.637 Y166.829 E50.57361
G1 X125.162 Y166.483 E50.64919
G1 X124.824 Y166.395 E50.66662
G1 X124.126 Y166.155 E50.70344
G1 X122.737 Y165.594 E50.77818
G1 X121.78 Y165.12 E50.83146
G1 X120.502 Y164.36 E50.90564
G1 X119.621 Y163.739 E50.95942
G1 X118.452 Y162.773 E51.03507
G1 X117.685 Y162.034 E51.08821
G1 X116.719 Y160.95 E51.16065
G1 X116.252 Y160.366 E51.19796
G1 X115.85 Y159.735 E51.23528
G1 X115.409 Y158.8 E51.28686
G1 X115.381 Y158.727 E51.29076
G1 X115.151 Y158.015 E51.32809
G1 X114.998 Y157.283 E51.3654
G1 X114.924 Y156.538 E51.40275
G1 X114.918 Y156.099 E51.42465
G1 X115.228 Y138.203 E52.31762
G1 X115.253 Y137.725 E52.3415
G1 X116.615 Y121.877 E53.13508
G1 X116.48 Y120.35 E53.21155
G1 X110.055 Y71.002 E55.69432
G1 X92.73 Y70.45 E56.5591
G1 X87.889 Y78.166 E57.01355
G1 X87.458 Y78.778 E57.05089
G1 X86.964 Y79.34 E57.08822
G1 X86.413 Y79.846 E57.12554
G1 X85.811 Y80.291 E57.16289
G1 X84.874 Y80.81 E57.21633
G1 X84.767 Y80.859 E57.2222
G1 X84.071 Y81.134 E57.25954
G1 X83.35 Y81.333 E57.29686
G1 X82.611 Y81.454 E57.33421
G1 X81.864 Y81.495 E57.37154
G1 X80.836 Y81.421 E57.42296
G1 X64.4 Y79.011 E58.25172
G1 X63.667 Y78.863 E58.28903
G1 X62.954 Y78.638 E58.32633
G1 X62.269 Y78.338 E58.36364
G1 X61.551 Y77.921 E58.40506
G1 X61.477 Y77.872 E58.40949
G1 X60.877 Y77.427 E58.44676
G1 X60.327 Y76.919 E58.48411
G1 X59.834 Y76.356 E58.52145
G1 X59.419 Y75.766 E58.55744
G1 X58.143 Y73.74 E58.67689
G1 X57.779 Y73.087 E58.71419
G1 X57.397 Y72.138 E58.76523
G1 X57.382 Y72.091 E58.76769
G1 X57.193 Y71.367 E58.80502
G1 X57.058 Y70.273 E58.86001
G1 X56.226 Y51.487 E59.79817
G1 X56.233 Y50.739 E59.83549
G1 X56.319 Y49.996 E59.8728
G1 X56.485 Y49.266 E59.91015
G1 X56.727 Y48.558 E59.94748
G1 X57.044 Y47.881 E59.98478
G1 X57.431 Y47.24 E60.02213
G1 X57.997 Y46.516 E60.06798
M205 X10 Y10
G0 F6000 X57.834 Y47.362
M205 X8 Y8
G1 F1200 X58.295 Y46.782 E60.10494
G1 X58.403 Y46.661 E60.11304
G1 X58.916 Y46.147 E60.14927
G1 X59.482 Y45.692 E60.1855
G1 X60.095 Y45.302 E60.22174
G1 X60.747 Y44.981 E60.258
G1 X61.43 Y44.735 E60.29422
G1 X62.136 Y44.564 E60.33046
G1 X62.896 Y44.47 E60.36867
G1 X80.942 Y43.288 E61.27091
G1 X81.703 Y43.282 E61.30888
G1 X82.368 Y43.347 E61.34222
G1 X120.408 Y49.03 E63.2611
G1 X121.12 Y49.177 E63.29737
G1 X121.701 Y49.36 E63.32776
G1 X121.742 Y49.375 E63.32994
G1 X122.409 Y49.662 E63.36617
G1 X123.132 Y50.079 E63.40781
G1 X136.825 Y59.196 E64.22852
G1 X137.406 Y59.632 E64.26476
G1 X137.937 Y60.128 E64.30102
G1 X138.587 Y60.924 E64.35229
G1 X138.628 Y60.983 E64.35587
G1 X139.009 Y61.601 E64.39209
G1 X139.32 Y62.258 E64.42836
G1 X139.604 Y63.12 E64.47364
G1 X153.18 Y116.429 E67.21812
G1 X153.346 Y117.355 E67.26506
G1 X153.349 Y117.383 E67.26646
G1 X153.384 Y118.301 E67.31229
G1 X153.31 Y120.574 E67.42575
G1 X153.246 Y121.297 E67.46197
G1 X153.159 Y121.777 E67.4863
G1 X151.88 Y127.589 E67.7832
G1 X151.577 Y128.584 E67.83509
G1 X151.566 Y128.612 E67.8366
G1 X151.264 Y129.273 E67.87285
G1 X151.051 Y129.646 E67.89428
G1 X144.395 Y140.514 E68.53009
G1 X144.121 Y156.336 E69.31958
G1 X144.068 Y157.061 E69.35584
G1 X143.937 Y157.775 E69.39206
G1 X143.687 Y158.579 E69.43406
G1 X143.661 Y158.647 E69.4377
G1 X143.364 Y159.31 E69.47394
G1 X142.997 Y159.937 E69.51019
G1 X142.425 Y160.679 E69.55693
G1 X141.457 Y161.766 E69.62954
G1 X140.734 Y162.463 E69.67965
G1 X139.567 Y163.428 E69.7552
G1 X138.735 Y164.014 E69.80597
G1 X137.454 Y164.776 E69.88033
G1 X136.551 Y165.224 E69.93062
G1 X135.164 Y165.784 E70.00524
G1 X134.204 Y166.089 E70.0555
G1 X132.716 Y166.439 E70.13176
G1 X131.703 Y166.595 E70.1829
G1 X130.21 Y166.708 E70.25759
G1 X129.208 Y166.708 E70.30758
G1 X127.732 Y166.595 E70.38144
G1 X126.729 Y166.44 E70.43207
G1 X125.254 Y166.094 E70.50766
G1 X124.934 Y166.01 E70.52416
G1 X124.275 Y165.784 E70.55892
G1 X122.886 Y165.223 E70.63366
G1 X121.985 Y164.776 E70.68384
G1 X120.707 Y164.016 E70.75802
G1 X119.876 Y163.431 E70.80872
G1 X118.707 Y162.465 E70.88438
G1 X117.984 Y161.768 E70.93448
G1 X117.018 Y160.684 E71.00692
G1 X116.565 Y160.116 E71.04316
G1 X116.177 Y159.502 E71.0794
G1 X115.783 Y158.657 E71.12592
G1 X115.755 Y158.584 E71.12982
G1 X115.532 Y157.892 E71.16609
G1 X115.387 Y157.18 E71.20234
G1 X115.318 Y156.106 E71.25603
G1 X115.628 Y138.21 E72.149
G1 X115.651 Y137.759 E72.17153
G1 X117.016 Y121.867 E72.96731
G1 X116.88 Y120.334 E73.04409
