;FLAVOR:Marlin
;TIME:8905
;Filament used: 6.28737m
;Layer height: 0.2
;MINX:69.934
;MINY:62.423
;MINZ:0.3
;MAXX:139.963
;MAXY:150.346
;MAXZ:28.775
;Generated with Cura_SteamEngine 4.13.1
M82 ;absolute extrusion mode
G21                                        ; metric values 
G90                                        ; absolute positioning 
M82                                        ; set extruder to absolute mode 
M107                                       ; start with the fan off 
M140 S60           ; Start heating the bed 
G4 S60                                     ; wait 1 minute 
M104 S210         ; start heating the hot end 
M190 S60           ; wait for bed 
M109 S210         ; wait for hotend 
M300 S1000 P500                            ; BEEP heating done 
G28 X0 Y10 Z0                              ; move X/Y to min endstops 
M420 S1                                    ; Enable leveling 
M420 Z2.0                                  ; Set leveling fading height to 2 mm 
G0 Z0.15                                   ; lift nozzle a bit 
G92 E0                                     ; zero the extruded length 
G1 X50 E25 F500                            ; Extrude 25mm of filament in a 5cm line. 
G92 E0                                     ; zero the extruded length again 
G1 E-2 F500                                ; Retract a little 
G1 X120 F4000                              ; Quickly wipe away from the filament line`
G92 E0
G92 E0
G1 F1500 E-6
;LAYER_COUNT:143
;LAYER:0
M106 S76.5
M205 X10 Y10
G1 F600 Z0.375
G0 F6000 X72.458 Y68.202 Z0.375
M205 X8 Y8
;TYPE:SKIRT
G1 F600 Z0.3
G1 F1500 E0
G1 F1200 X73.008 Y67.635 E0.03941
G1 X73.732 Y67.038 E0.08623
G1 X75.278 Y65.912 E0.18165
G1 X75.939 Y65.48 E0.22104
G1 X76.64 Y65.117 E0.26043
G1 X77.375 Y64.827 E0.29985
G1 X78.135 Y64.612 E0.33925
G1 X78.913 Y64.476 E0.37865
G1 X79.836 Y64.417 E0.4248
G1 X80.281 Y64.406 E0.447
G1 X81.011 Y64.104 E0.48642
G1 X81.767 Y63.877 E0.5258
G1 X82.378 Y63.753 E0.5569
G1 X82.97 Y63.518 E0.58868
G1 X83.705 Y63.228 E0.6281
G1 X84.465 Y63.014 E0.66749
G1 X85.219 Y62.882 E0.70568
G1 X85.344 Y62.833 E0.71238
G1 X86.105 Y62.619 E0.75182
G1 X86.883 Y62.483 E0.79122
G1 X87.833 Y62.425 E0.8387
G1 X89.193 Y62.425 E0.90656
G1 X89.982 Y62.465 E0.94597
G1 X90.762 Y62.584 E0.98533
G1 X91.527 Y62.782 E1.02476
G1 X92.267 Y63.056 E1.06413
G1 X92.976 Y63.404 E1.10353
G1 X93.779 Y63.916 E1.15104
G1 X94.881 Y64.717 E1.21901
G1 X95.495 Y65.213 E1.25839
G1 X96.057 Y65.768 E1.29779
G1 X96.559 Y66.378 E1.33721
G1 X96.997 Y67.035 E1.3766
G1 X97.366 Y67.733 E1.41599
G1 X97.713 Y68.616 E1.46332
G1 X97.778 Y68.817 E1.47386
G1 X112.387 Y68.817 E2.20271
G1 X112.453 Y68.614 E2.21336
G1 X112.734 Y67.877 E2.25271
G1 X113.089 Y67.171 E2.29213
G1 X113.513 Y66.505 E2.33152
G1 X114.003 Y65.885 E2.37095
G1 X114.553 Y65.318 E2.41036
G1 X115.285 Y64.715 E2.45767
G1 X116.387 Y63.914 E2.52564
G1 X117.048 Y63.482 E2.56504
G1 X117.75 Y63.12 E2.60444
G1 X118.485 Y62.831 E2.64385
G1 X119.245 Y62.617 E2.68324
G1 X120.023 Y62.481 E2.72264
G1 X120.973 Y62.423 E2.77012
G1 X122.333 Y62.423 E2.83797
G1 X123.122 Y62.463 E2.87739
G1 X123.902 Y62.582 E2.91675
G1 X124.667 Y62.78 E2.95618
G1 X124.828 Y62.839 E2.96473
G1 X125.421 Y62.93 E2.99466
G1 X126.186 Y63.128 E3.03409
G1 X126.926 Y63.402 E3.07345
G1 X127.314 Y63.582 E3.09479
G1 X128.089 Y63.735 E3.1342
G1 X128.844 Y63.966 E3.1736
G1 X129.287 Y64.029 E3.19592
G1 X130.076 Y64.069 E3.23533
G1 X130.856 Y64.188 E3.2747
G1 X131.621 Y64.386 E3.31412
G1 X132.361 Y64.66 E3.35349
G1 X133.07 Y65.008 E3.39289
G1 X133.879 Y65.524 E3.44077
G1 X135.425 Y66.65 E3.53618
G1 X136.039 Y67.147 E3.57559
G1 X136.6 Y67.703 E3.615
G1 X137.101 Y68.313 E3.65438
G1 X137.538 Y68.97 E3.69375
G1 X137.907 Y69.669 E3.73318
G1 X138.251 Y70.542 E3.78
G1 X138.841 Y72.356 E3.87516
G1 X139.046 Y73.119 E3.91458
G1 X139.174 Y73.898 E3.95397
G1 X139.223 Y74.686 E3.99335
G1 X139.191 Y75.475 E4.03275
G1 X139.08 Y76.257 E4.07216
G1 X138.841 Y77.182 E4.11982
G1 X138.251 Y78.996 E4.21499
G1 X137.969 Y79.733 E4.25436
G1 X137.613 Y80.439 E4.2938
G1 X137.189 Y81.104 E4.33315
G1 X136.699 Y81.724 E4.37258
G1 X136.149 Y82.291 E4.41199
G1 X135.425 Y82.888 E4.4588
G1 X133.879 Y84.014 E4.55422
G1 X133.218 Y84.446 E4.59362
G1 X132.517 Y84.809 E4.633
G1 X131.782 Y85.099 E4.67242
G1 X131.022 Y85.314 E4.71183
G1 X130.786 Y85.355 E4.72378
G1 X130.786 Y142.429 E7.57121
G1 X130.746 Y143.218 E7.61062
G1 X130.627 Y143.998 E7.64999
G1 X130.429 Y144.763 E7.68941
G1 X130.155 Y145.503 E7.72878
G1 X129.807 Y146.212 E7.76818
G1 X129.389 Y146.883 E7.80762
G1 X128.906 Y147.507 E7.84699
G1 X128.501 Y147.944 E7.87672
G1 X128.384 Y148.061 E7.88497
G1 X127.798 Y148.591 E7.92439
G1 X127.162 Y149.058 E7.96376
G1 X126.482 Y149.459 E8.00314
G1 X125.764 Y149.789 E8.04257
G1 X125.017 Y150.044 E8.08195
G1 X124.248 Y150.223 E8.12134
G1 X123.464 Y150.323 E8.16077
G1 X122.869 Y150.346 E8.19047
G1 X87.131 Y150.346 E9.97345
G1 X86.342 Y150.306 E10.01286
G1 X85.562 Y150.187 E10.05223
G1 X84.797 Y149.989 E10.09165
G1 X84.057 Y149.715 E10.13102
G1 X83.348 Y149.367 E10.17042
G1 X82.677 Y148.949 E10.20986
G1 X82.053 Y148.466 E10.24923
G1 X81.616 Y148.061 E10.27896
G1 X81.499 Y147.944 E10.28721
G1 X80.969 Y147.358 E10.32663
G1 X80.502 Y146.722 E10.366
G1 X80.101 Y146.042 E10.40538
G1 X79.771 Y145.324 E10.44481
G1 X79.516 Y144.577 E10.48419
G1 X79.337 Y143.808 E10.52358
G1 X79.237 Y143.024 E10.56301
G1 X79.214 Y142.429 E10.59271
G1 X79.214 Y85.864 E13.41475
G1 X79.081 Y85.857 E13.4214
G1 X78.301 Y85.738 E13.46076
G1 X77.536 Y85.54 E13.50019
G1 X76.796 Y85.266 E13.53955
G1 X76.087 Y84.918 E13.57896
G1 X75.278 Y84.402 E13.62683
G1 X73.732 Y83.276 E13.72225
G1 X73.118 Y82.779 E13.76166
G1 X72.557 Y82.223 E13.80107
G1 X72.056 Y81.613 E13.84045
G1 X71.619 Y80.956 E13.87981
G1 X71.25 Y80.257 E13.91925
G1 X70.906 Y79.384 E13.96606
G1 X70.316 Y77.57 E14.06123
G1 X70.111 Y76.807 E14.10065
G1 X69.983 Y76.028 E14.14003
G1 X69.934 Y75.24 E14.17942
G1 X69.966 Y74.451 E14.21882
G1 X70.077 Y73.669 E14.25822
G1 X70.316 Y72.744 E14.30589
G1 X70.906 Y70.93 E14.40105
G1 X71.188 Y70.193 E14.44042
G1 X71.544 Y69.487 E14.47987
G1 X71.968 Y68.822 E14.51922
G1 X72.458 Y68.202 E14.55864
M205 X10 Y10
G0 F6000 X72.812 Y68.406
M205 X8 Y8
G1 F1200 X73.354 Y67.86 E14.59702
G1 X73.967 Y67.361 E14.63646
G1 X75.513 Y66.235 E14.73188
G1 X76.158 Y65.815 E14.77028
G1 X76.842 Y65.465 E14.80861
G1 X77.56 Y65.187 E14.84702
G1 X78.302 Y64.985 E14.88539
G1 X79.061 Y64.861 E14.92376
G1 X79.838 Y64.817 E14.96258
G1 X80.367 Y64.815 E14.98898
G1 X80.471 Y64.759 E14.99487
G1 X81.183 Y64.468 E15.03324
G1 X81.921 Y64.252 E15.07161
G1 X82.442 Y64.148 E15.09811
G1 X82.703 Y64.106 E15.1113
G1 X83.172 Y63.865 E15.13761
G1 X83.89 Y63.588 E15.176
G1 X84.632 Y63.386 E15.21437
G1 X85.316 Y63.275 E15.24894
G1 X85.529 Y63.193 E15.26033
G1 X86.271 Y62.992 E15.29868
G1 X87.031 Y62.869 E15.33709
G1 X87.833 Y62.825 E15.37716
G1 X89.193 Y62.825 E15.44501
G1 X89.961 Y62.865 E15.48338
G1 X90.721 Y62.984 E15.52176
G1 X91.464 Y63.182 E15.56012
G1 X92.183 Y63.456 E15.59851
G1 X92.869 Y63.803 E15.63686
G1 X93.544 Y64.239 E15.67695
G1 X94.646 Y65.04 E15.74492
G1 X95.244 Y65.524 E15.7833
G1 X95.788 Y66.068 E15.82168
G1 X96.273 Y66.664 E15.86002
G1 X96.693 Y67.309 E15.89842
G1 X97.045 Y67.993 E15.9368
G1 X97.333 Y68.74 E15.97674
G1 X97.488 Y69.217 E16.00176
G1 X112.677 Y69.217 E16.75955
G1 X112.833 Y68.738 E16.78468
G1 X113.108 Y68.02 E16.82304
G1 X113.457 Y67.334 E16.86144
G1 X113.874 Y66.688 E16.8998
G1 X114.357 Y66.089 E16.93819
G1 X114.899 Y65.543 E16.97657
G1 X115.52 Y65.038 E17.0165
G1 X116.622 Y64.237 E17.08447
G1 X117.267 Y63.818 E17.12284
G1 X117.952 Y63.468 E17.16122
G1 X118.669 Y63.191 E17.19957
G1 X119.412 Y62.99 E17.23797
G1 X120.171 Y62.867 E17.27633
G1 X120.973 Y62.823 E17.3164
G1 X122.333 Y62.823 E17.38425
G1 X123.101 Y62.863 E17.42262
G1 X123.861 Y62.982 E17.461
G1 X124.604 Y63.18 E17.49936
G1 X124.731 Y63.228 E17.50613
G1 X125.38 Y63.33 E17.53891
G1 X126.123 Y63.528 E17.57727
G1 X126.842 Y63.802 E17.61566
G1 X127.257 Y63.978 E17.63815
G1 X128.011 Y64.128 E17.6765
G1 X128.746 Y64.356 E17.7149
G1 X129.287 Y64.429 E17.74213
G1 X130.055 Y64.469 E17.7805
G1 X130.815 Y64.588 E17.81888
G1 X131.558 Y64.786 E17.85724
G1 X132.277 Y65.06 E17.89563
G1 X132.963 Y65.407 E17.93398
G1 X133.644 Y65.847 E17.97443
G1 X135.19 Y66.973 E18.06985
G1 X135.787 Y67.458 E18.10822
G1 X136.331 Y68.002 E18.14661
G1 X136.815 Y68.599 E18.18495
G1 X137.235 Y69.244 E18.22335
G1 X137.586 Y69.928 E18.26171
G1 X137.87 Y70.666 E18.30116
G1 X138.46 Y72.48 E18.39632
G1 X138.66 Y73.223 E18.43471
G1 X138.781 Y73.983 E18.47311
G1 X138.823 Y74.751 E18.51148
G1 X138.785 Y75.519 E18.54984
G1 X138.667 Y76.279 E18.58821
G1 X138.46 Y77.058 E18.62843
G1 X137.87 Y78.872 E18.72359
G1 X137.595 Y79.59 E18.76195
G1 X137.246 Y80.276 E18.80035
G1 X136.828 Y80.921 E18.8387
G1 X136.345 Y81.52 E18.87709
G1 X135.803 Y82.066 E18.91547
G1 X135.19 Y82.565 E18.9549
G1 X133.644 Y83.691 E19.05032
G1 X132.999 Y84.111 E19.08872
G1 X132.315 Y84.461 E19.12705
G1 X131.597 Y84.739 E19.16547
G1 X130.855 Y84.941 E19.20383
G1 X130.386 Y85.018 E19.22754
G1 X130.386 Y142.429 E22.09179
G1 X130.346 Y143.197 E22.13016
G1 X130.227 Y143.957 E22.16854
G1 X130.029 Y144.7 E22.2069
G1 X129.755 Y145.419 E22.24529
G1 X129.408 Y146.105 E22.28364
G1 X128.992 Y146.752 E22.32202
G1 X128.511 Y147.352 E22.36038
G1 X128.102 Y147.779 E22.38988
G1 X127.53 Y148.293 E22.42825
G1 X126.908 Y148.746 E22.46664
G1 X126.243 Y149.132 E22.505
G1 X125.541 Y149.447 E22.54338
G1 X124.81 Y149.687 E22.58177
G1 X124.059 Y149.85 E22.62011
G1 X123.294 Y149.934 E22.6585
G1 X122.869 Y149.946 E22.67972
G1 X87.131 Y149.946 E24.46269
G1 X86.363 Y149.906 E24.50106
G1 X85.603 Y149.787 E24.53944
G1 X84.86 Y149.589 E24.5778
G1 X84.141 Y149.315 E24.61619
G1 X83.455 Y148.968 E24.65454
G1 X82.808 Y148.552 E24.69292
G1 X82.208 Y148.071 E24.73128
G1 X81.781 Y147.662 E24.76078
G1 X81.267 Y147.09 E24.79915
G1 X80.814 Y146.468 E24.83754
G1 X80.428 Y145.803 E24.8759
G1 X80.113 Y145.101 E24.91429
G1 X79.873 Y144.37 E24.95267
G1 X79.71 Y143.619 E24.99101
G1 X79.626 Y142.854 E25.02941
G1 X79.614 Y142.429 E25.05062
G1 X79.614 Y85.484 E27.89162
G1 X79.102 Y85.457 E27.91719
G1 X78.342 Y85.338 E27.95557
G1 X77.599 Y85.14 E27.99394
G1 X76.88 Y84.866 E28.03232
G1 X76.194 Y84.519 E28.07068
G1 X75.513 Y84.079 E28.11113
G1 X73.967 Y82.953 E28.20655
G1 X73.37 Y82.468 E28.24492
G1 X72.826 Y81.924 E28.2833
G1 X72.342 Y81.327 E28.32165
G1 X71.922 Y80.682 E28.36005
G1 X71.571 Y79.998 E28.3984
G1 X71.287 Y79.26 E28.43785
G1 X70.697 Y77.446 E28.53302
G1 X70.497 Y76.703 E28.57141
G1 X70.376 Y75.943 E28.6098
G1 X70.334 Y75.175 E28.64818
G1 X70.372 Y74.407 E28.68654
G1 X70.49 Y73.647 E28.72491
G1 X70.697 Y72.868 E28.76512
G1 X71.287 Y71.054 E28.86029
G1 X71.562 Y70.336 E28.89865
G1 X71.911 Y69.65 E28.93705
G1 X72.329 Y69.005 E28.97539
G1 X72.812 Y68.406 E29.01378
M205 X10 Y10
G0 F6000 X73.165 Y68.612
M205 X8 Y8
G1 F1200 X73.699 Y68.088 E29.05111
G1 X74.203 Y67.685 E29.0833
G1 X75.749 Y66.559 E29.17872
G1 X76.376 Y66.151 E29.21604
G1 X77.043 Y65.813 E29.25335
G1 X77.743 Y65.548 E29.29069
G1 X78.467 Y65.359 E29.32802
G1 X79.207 Y65.248 E29.36535
G1 X79.839 Y65.217 E29.39692
G1 X80.469 Y65.214 E29.42835
G1 X80.66 Y65.112 E29.43915
G1 X81.354 Y64.832 E29.47649
G1 X82.073 Y64.627 E29.51379
G1 X82.826 Y64.491 E29.55197
G1 X83.373 Y64.214 E29.58256
G1 X84.073 Y63.949 E29.6199
G1 X84.797 Y63.76 E29.65723
G1 X85.406 Y63.67 E29.68794
G1 X85.712 Y63.554 E29.70427
G1 X86.436 Y63.366 E29.74159
G1 X87.176 Y63.256 E29.77891
G1 X87.833 Y63.225 E29.81173
G1 X89.193 Y63.225 E29.87958
G1 X89.94 Y63.265 E29.9169
G1 X90.678 Y63.384 E29.95419
G1 X91.4 Y63.582 E29.99154
G1 X92.096 Y63.855 E30.02884
G1 X92.759 Y64.202 E30.06618
G1 X93.309 Y64.563 E30.099
G1 X94.411 Y65.364 E30.16697
G1 X94.991 Y65.835 E30.20424
G1 X95.519 Y66.366 E30.2416
G1 X95.986 Y66.95 E30.27891
G1 X96.388 Y67.581 E30.31623
G1 X96.721 Y68.251 E30.35356
G1 X96.953 Y68.863 E30.38621
G1 X97.198 Y69.617 E30.42577
G1 X112.967 Y69.617 E31.21249
G1 X113.213 Y68.861 E31.25215
G1 X113.482 Y68.163 E31.28947
G1 X113.824 Y67.498 E31.32678
G1 X114.235 Y66.873 E31.3641
G1 X114.71 Y66.295 E31.40142
G1 X115.244 Y65.771 E31.43875
G1 X115.755 Y65.362 E31.4714
G1 X116.857 Y64.561 E31.53937
G1 X117.485 Y64.154 E31.5767
G1 X118.153 Y63.816 E31.61405
G1 X118.852 Y63.552 E31.65133
G1 X119.576 Y63.364 E31.68865
G1 X120.316 Y63.254 E31.72597
G1 X120.973 Y63.223 E31.75879
G1 X122.333 Y63.223 E31.82664
G1 X123.08 Y63.263 E31.86396
G1 X123.818 Y63.382 E31.90126
G1 X124.54 Y63.58 E31.93861
G1 X124.633 Y63.616 E31.94358
G1 X125.337 Y63.73 E31.97916
G1 X126.059 Y63.928 E32.01651
G1 X126.755 Y64.201 E32.05381
G1 X127.199 Y64.374 E32.07758
G1 X127.933 Y64.521 E32.11493
G1 X128.646 Y64.745 E32.15222
G1 X128.851 Y64.829 E32.16327
G1 X129.287 Y64.829 E32.18502
G1 X130.034 Y64.869 E32.22234
G1 X130.772 Y64.988 E32.25964
G1 X131.494 Y65.186 E32.29699
G1 X132.19 Y65.459 E32.33429
G1 X132.853 Y65.806 E32.37162
G1 X133.408 Y66.171 E32.40476
G1 X134.954 Y67.297 E32.50018
G1 X135.534 Y67.769 E32.53749
G1 X136.061 Y68.3 E32.57481
G1 X136.528 Y68.885 E32.61216
G1 X136.93 Y69.516 E32.64948
G1 X137.262 Y70.186 E32.68679
G1 X137.49 Y70.79 E32.719
G1 X138.08 Y72.604 E32.81417
G1 X138.273 Y73.327 E32.8515
G1 X138.388 Y74.066 E32.88881
G1 X138.423 Y74.813 E32.92612
G1 X138.378 Y75.56 E32.96346
G1 X138.254 Y76.297 E33.00074
G1 X138.08 Y76.934 E33.03369
G1 X137.49 Y78.748 E33.12885
G1 X137.221 Y79.446 E33.16617
G1 X136.879 Y80.111 E33.20348
G1 X136.468 Y80.736 E33.2408
G1 X135.992 Y81.314 E33.27816
G1 X135.458 Y81.838 E33.31548
G1 X134.954 Y82.241 E33.34768
G1 X133.408 Y83.367 E33.4431
G1 X132.781 Y83.775 E33.48042
G1 X132.114 Y84.113 E33.51772
G1 X131.414 Y84.378 E33.55506
G1 X130.69 Y84.567 E33.5924
G1 X129.986 Y84.673 E33.62791
G1 X129.986 Y142.429 E36.50937
G1 X129.946 Y143.176 E36.54669
G1 X129.827 Y143.914 E36.58399
G1 X129.629 Y144.636 E36.62134
G1 X129.356 Y145.332 E36.65864
G1 X129.009 Y145.995 E36.69597
G1 X128.594 Y146.618 E36.73332
G1 X127.936 Y147.379 E36.78351
G1 X127.819 Y147.496 E36.79176
G1 X127.262 Y147.996 E36.82911
G1 X126.656 Y148.433 E36.86638
G1 X126.006 Y148.804 E36.90372
G1 X125.32 Y149.103 E36.94105
G1 X124.606 Y149.327 E36.97839
G1 X123.873 Y149.474 E37.01569
G1 X122.869 Y149.546 E37.0659
G1 X87.131 Y149.546 E38.84888
G1 X86.384 Y149.506 E38.8862
G1 X85.646 Y149.387 E38.9235
G1 X84.924 Y149.189 E38.96085
G1 X84.228 Y148.916 E38.99815
G1 X83.565 Y148.569 E39.03548
G1 X82.942 Y148.154 E39.07283
G1 X82.181 Y147.496 E39.12302
G1 X82.064 Y147.379 E39.13127
G1 X81.564 Y146.822 E39.16861
G1 X81.127 Y146.216 E39.20589
G1 X80.756 Y145.566 E39.24323
G1 X80.457 Y144.88 E39.28056
G1 X80.233 Y144.166 E39.3179
G1 X80.086 Y143.433 E39.35519
G1 X80.014 Y142.429 E39.40541
G1 X80.014 Y85.097 E42.26572
G1 X79.87 Y85.097 E42.2729
G1 X79.123 Y85.057 E42.31022
G1 X78.385 Y84.938 E42.34752
G1 X77.663 Y84.74 E42.38487
G1 X76.967 Y84.467 E42.42217
G1 X76.304 Y84.12 E42.4595
G1 X75.749 Y83.755 E42.49264
G1 X74.203 Y82.629 E42.58806
G1 X73.623 Y82.157 E42.62537
G1 X73.096 Y81.626 E42.66269
G1 X72.629 Y81.041 E42.70004
G1 X72.227 Y80.41 E42.73736
G1 X71.895 Y79.74 E42.77467
G1 X71.667 Y79.136 E42.80688
G1 X71.077 Y77.322 E42.90205
G1 X70.884 Y76.599 E42.93938
G1 X70.769 Y75.86 E42.97669
G1 X70.734 Y75.113 E43.014
G1 X70.779 Y74.366 E43.05134
G1 X70.903 Y73.629 E43.08862
G1 X71.077 Y72.992 E43.12157
G1 X71.667 Y71.178 E43.21673
G1 X71.936 Y70.48 E43.25405
G1 X72.278 Y69.815 E43.29136
G1 X72.689 Y69.19 E43.32868
