;FLAVOR:Marlin
;TIME:5225
;Filament used: 3.88091m
;Layer height: 0.2
;MINX:53.238
;MINY:88.775
;MINZ:0.3
;MAXX:157.079
;MAXY:121.225
;MAXZ:12.175
;Generated with Cura_SteamEngine 4.13.1
M82 ;absolute extrusion mode
G21                                        ; metric values 
G90                                        ; absolute positioning 
M82                                        ; set extruder to absolute mode 
M107                                       ; start with the fan off 
M140 S60           ; Start heating the bed 
G4 S60                                     ; wait 1 minute 
M104 S210         ; start heating the hot end 
M190 S60           ; wait for bed 
M109 S210         ; wait for hotend 
M300 S1000 P500                            ; BEEP heating done 
G28 X0 Y10 Z0                              ; move X/Y to min endstops 
M420 S1                                    ; Enable leveling 
M420 Z2.0                                  ; Set leveling fading height to 2 mm 
G0 Z0.15                                   ; lift nozzle a bit 
G92 E0                                     ; zero the extruded length 
G1 X50 E25 F500                            ; Extrude 25mm of filament in a 5cm line. 
G92 E0                                     ; zero the extruded length again 
G1 E-2 F500                                ; Retract a little 
G1 X120 F4000                              ; Quickly wipe away from the filament line`
G92 E0
G92 E0
G1 F1500 E-6
;LAYER_COUNT:60
;LAYER:0
M106 S76.5
M205 X10 Y10
G1 F600 Z0.375
G0 F6000 X61.605 Y90.063 Z0.375
M205 X8 Y8
;TYPE:SKIRT
G1 F600 Z0.3
G1 F1500 E0
G1 F1200 X62.285 Y89.662 E0.03938
G1 X63.003 Y89.332 E0.07881
G1 X63.75 Y89.077 E0.11819
G1 X64.519 Y88.898 E0.15758
G1 X65.303 Y88.798 E0.19701
G1 X65.898 Y88.775 E0.22672
G1 X144.104 Y88.775 E4.12843
G1 X144.893 Y88.815 E4.16784
G1 X145.673 Y88.934 E4.20721
G1 X146.438 Y89.132 E4.24663
G1 X147.178 Y89.406 E4.286
G1 X147.887 Y89.754 E4.3254
G1 X148.558 Y90.172 E4.36484
G1 X149.182 Y90.655 E4.40421
G1 X149.619 Y91.06 E4.43394
G1 X149.736 Y91.177 E4.44219
G1 X150.266 Y91.763 E4.48161
G1 X150.733 Y92.399 E4.52098
G1 X151.134 Y93.079 E4.56036
G1 X151.464 Y93.797 E4.59979
G1 X151.719 Y94.544 E4.63917
G1 X151.898 Y95.313 E4.67856
G1 X151.998 Y96.097 E4.71799
G1 X152.01 Y96.413 E4.73376
G1 X152.319 Y96.638 E4.75283
G1 X152.933 Y97.135 E4.79224
G1 X153.493 Y97.692 E4.83165
G1 X153.994 Y98.302 E4.87103
G1 X154.285 Y98.645 E4.89347
G1 X154.845 Y99.201 E4.93284
G1 X155.346 Y99.811 E4.97222
G1 X155.783 Y100.469 E5.01163
G1 X156.151 Y101.168 E5.05104
G1 X156.496 Y102.045 E5.09806
G1 X156.699 Y102.671 E5.13089
G1 X156.904 Y103.433 E5.17026
G1 X157.031 Y104.213 E5.20969
G1 X157.079 Y105.001 E5.24907
G1 X157.046 Y105.79 E5.28847
G1 X156.934 Y106.572 E5.32788
G1 X156.744 Y107.338 E5.36726
G1 X156.507 Y108.008 E5.40271
G1 X156.076 Y109.071 E5.45994
G1 X155.743 Y109.787 E5.49934
G1 X155.595 Y110.036 E5.51379
G1 X155.426 Y110.528 E5.53974
G1 X155.095 Y111.245 E5.57914
G1 X154.694 Y111.926 E5.61857
G1 X154.226 Y112.562 E5.65796
G1 X153.696 Y113.147 E5.69735
G1 X152.948 Y113.804 E5.74702
G1 X152.298 Y114.305 E5.78796
G1 X151.908 Y114.575 E5.81162
G1 X151.862 Y114.877 E5.82686
G1 X151.664 Y115.642 E5.86629
G1 X151.39 Y116.382 E5.90566
G1 X151.042 Y117.091 E5.94506
G1 X150.624 Y117.762 E5.9845
G1 X150.141 Y118.386 E6.02387
G1 X149.736 Y118.823 E6.05359
G1 X149.619 Y118.94 E6.06185
G1 X149.033 Y119.47 E6.10127
G1 X148.397 Y119.937 E6.14063
G1 X147.717 Y120.338 E6.18002
G1 X146.999 Y120.668 E6.21944
G1 X146.252 Y120.923 E6.25882
G1 X145.483 Y121.102 E6.29821
G1 X144.699 Y121.202 E6.33764
G1 X144.104 Y121.225 E6.36735
G1 X115.062 Y121.225 E7.81626
G1 X114.273 Y121.185 E7.85567
G1 X113.493 Y121.066 E7.89504
G1 X112.728 Y120.868 E7.93446
G1 X111.988 Y120.594 E7.97383
G1 X111.279 Y120.246 E8.01323
G1 X110.608 Y119.828 E8.05268
G1 X109.984 Y119.345 E8.09204
G1 X109.547 Y118.94 E8.12177
G1 X109.43 Y118.823 E8.13002
G1 X108.9 Y118.237 E8.16944
G1 X108.433 Y117.601 E8.20881
G1 X108.032 Y116.921 E8.24819
G1 X107.702 Y116.203 E8.28762
G1 X107.447 Y115.456 E8.327
G1 X107.268 Y114.687 E8.36639
G1 X107.2 Y114.156 E8.3931
G1 X106.74 Y113.638 E8.42766
G1 X106.026 Y113.312 E8.46682
G1 X105.234 Y113.312 E8.50633
G1 X104.523 Y113.637 E8.54533
G1 X104.068 Y114.145 E8.57936
G1 X103.956 Y114.877 E8.6163
G1 X103.758 Y115.642 E8.65572
G1 X103.484 Y116.382 E8.69509
G1 X103.136 Y117.091 E8.7345
G1 X102.718 Y117.762 E8.77394
G1 X102.235 Y118.386 E8.8133
G1 X101.83 Y118.823 E8.84303
G1 X101.713 Y118.94 E8.85128
G1 X101.127 Y119.47 E8.8907
G1 X100.491 Y119.937 E8.93007
G1 X99.811 Y120.338 E8.96945
G1 X99.093 Y120.668 E9.00888
G1 X98.346 Y120.923 E9.04826
G1 X97.577 Y121.102 E9.08765
G1 X96.793 Y121.202 E9.12708
G1 X96.198 Y121.225 E9.15679
G1 X65.898 Y121.225 E10.66846
G1 X65.109 Y121.185 E10.70787
G1 X64.329 Y121.066 E10.74724
G1 X63.564 Y120.868 E10.78666
G1 X62.824 Y120.594 E10.82603
G1 X62.115 Y120.246 E10.86543
G1 X61.444 Y119.828 E10.90487
G1 X60.82 Y119.345 E10.94424
G1 X60.383 Y118.94 E10.97397
G1 X60.266 Y118.823 E10.98222
G1 X59.736 Y118.237 E11.02164
G1 X59.269 Y117.601 E11.06101
G1 X58.868 Y116.921 E11.10039
G1 X58.538 Y116.203 E11.13981
G1 X58.283 Y115.456 E11.17919
G1 X58.104 Y114.687 E11.21859
G1 X58.047 Y114.24 E11.24107
G1 X57.358 Y113.723 E11.28404
G1 X56.556 Y113.031 E11.33689
G1 X55.985 Y112.485 E11.37631
G1 X55.473 Y111.885 E11.41566
G1 X55.023 Y111.235 E11.4551
G1 X54.641 Y110.544 E11.49449
G1 X54.332 Y109.818 E11.53385
G1 X54.045 Y108.847 E11.58437
G1 X53.745 Y107.522 E11.65215
G1 X53.609 Y106.744 E11.69155
G1 X53.554 Y105.957 E11.73091
G1 X53.562 Y105.805 E11.7385
G1 X53.415 Y105.262 E11.76657
G1 X53.287 Y104.483 E11.80595
G1 X53.238 Y103.694 E11.84539
G1 X53.27 Y102.905 E11.88479
G1 X53.381 Y102.124 E11.92415
G1 X53.621 Y101.198 E11.97187
G1 X53.825 Y100.571 E12.00477
G1 X54.107 Y99.833 E12.04418
G1 X54.462 Y99.128 E12.08356
G1 X54.887 Y98.462 E12.12298
G1 X55.376 Y97.843 E12.16233
G1 X55.926 Y97.276 E12.20174
G1 X56.531 Y96.768 E12.24115
G1 X56.871 Y96.524 E12.26203
G1 X57.777 Y95.911 E12.31661
G1 X58.044 Y95.749 E12.33219
G1 X58.14 Y95.123 E12.36379
G1 X58.338 Y94.358 E12.40321
G1 X58.612 Y93.618 E12.44258
G1 X58.96 Y92.909 E12.48198
G1 X59.378 Y92.238 E12.52142
G1 X59.861 Y91.614 E12.56079
G1 X60.266 Y91.177 E12.59051
G1 X60.383 Y91.06 E12.59877
G1 X60.969 Y90.53 E12.63819
G1 X61.605 Y90.063 E12.67755
M205 X10 Y10
G0 F6000 X61.859 Y90.375
M205 X8 Y8
G1 F1200 X62.524 Y89.989 E12.71592
G1 X63.226 Y89.674 E12.7543
G1 X63.957 Y89.434 E12.79269
G1 X64.708 Y89.271 E12.83103
G1 X65.473 Y89.187 E12.86942
G1 X65.898 Y89.175 E12.89063
G1 X144.104 Y89.175 E16.79235
G1 X144.872 Y89.215 E16.83072
G1 X145.632 Y89.334 E16.86909
G1 X146.375 Y89.532 E16.90746
G1 X147.094 Y89.806 E16.94584
G1 X147.78 Y90.153 E16.9842
G1 X148.427 Y90.569 E17.02257
G1 X149.027 Y91.05 E17.06094
G1 X149.454 Y91.459 E17.09044
G1 X149.968 Y92.031 E17.1288
G1 X150.421 Y92.653 E17.16719
G1 X150.807 Y93.318 E17.20555
G1 X151.122 Y94.02 E17.24394
G1 X151.362 Y94.751 E17.28233
G1 X151.525 Y95.502 E17.32067
G1 X151.609 Y96.267 E17.35906
G1 X151.619 Y96.623 E17.37683
G1 X152.083 Y96.961 E17.40547
G1 X152.681 Y97.446 E17.44388
G1 X153.224 Y97.99 E17.48223
G1 X153.708 Y98.588 E17.52061
G1 X154.032 Y98.956 E17.54507
G1 X154.576 Y99.5 E17.58345
G1 X155.06 Y100.098 E17.62184
G1 X155.48 Y100.742 E17.66019
G1 X155.83 Y101.427 E17.69857
G1 X156.115 Y102.168 E17.73818
G1 X156.318 Y102.794 E17.77101
G1 X156.517 Y103.537 E17.80939
G1 X156.638 Y104.297 E17.84778
G1 X156.679 Y105.065 E17.88615
G1 X156.64 Y105.833 E17.92452
G1 X156.522 Y106.593 E17.96289
G1 X156.326 Y107.337 E18.00127
G1 X156.137 Y107.858 E18.02892
G1 X155.706 Y108.921 E18.08615
G1 X155.38 Y109.617 E18.12449
G1 X155.234 Y109.861 E18.13868
G1 X155.032 Y110.435 E18.16904
G1 X154.704 Y111.13 E18.20738
G1 X154.305 Y111.788 E18.24577
G1 X153.84 Y112.401 E18.28416
G1 X153.313 Y112.962 E18.32256
G1 X152.704 Y113.487 E18.36267
G1 X152.054 Y113.988 E18.40362
G1 X151.539 Y114.343 E18.43482
G1 X151.462 Y114.836 E18.45972
G1 X151.264 Y115.579 E18.49808
G1 X150.99 Y116.298 E18.53647
G1 X150.643 Y116.984 E18.57482
G1 X150.227 Y117.631 E18.6132
G1 X149.746 Y118.231 E18.65156
G1 X149.337 Y118.658 E18.68106
G1 X148.765 Y119.172 E18.71943
G1 X148.143 Y119.625 E18.75782
G1 X147.478 Y120.011 E18.79618
G1 X146.776 Y120.326 E18.83456
G1 X146.045 Y120.566 E18.87295
G1 X145.294 Y120.729 E18.91129
G1 X144.529 Y120.813 E18.94968
G1 X144.104 Y120.825 E18.9709
G1 X115.062 Y120.825 E20.41981
G1 X114.294 Y120.785 E20.45817
G1 X113.534 Y120.666 E20.49655
G1 X112.791 Y120.468 E20.53492
G1 X112.072 Y120.194 E20.5733
G1 X111.386 Y119.847 E20.61166
G1 X110.739 Y119.431 E20.65003
G1 X110.139 Y118.95 E20.6884
G1 X109.712 Y118.541 E20.7179
G1 X109.198 Y117.969 E20.75626
G1 X108.745 Y117.347 E20.79465
G1 X108.359 Y116.682 E20.83301
G1 X108.044 Y115.98 E20.8714
G1 X107.804 Y115.249 E20.90979
G1 X107.641 Y114.498 E20.94813
G1 X107.588 Y114.014 E20.97242
G1 X106.982 Y113.316 E21.01853
G1 X106.573 Y113.073 E21.04227
G1 X106.113 Y112.92 E21.06645
G1 X105.63 Y112.868 E21.09069
G1 X105.147 Y112.92 E21.11493
G1 X104.688 Y113.073 E21.13906
G1 X104.281 Y113.316 E21.16271
G1 X103.679 Y114.003 E21.20829
G1 X103.675 Y114.076 E21.21193
G1 X103.556 Y114.836 E21.25031
G1 X103.358 Y115.579 E21.28867
G1 X103.084 Y116.298 E21.32706
G1 X102.737 Y116.984 E21.36541
G1 X102.321 Y117.631 E21.40379
G1 X101.84 Y118.231 E21.44216
G1 X101.431 Y118.658 E21.47165
G1 X100.859 Y119.172 E21.51002
G1 X100.237 Y119.625 E21.54841
G1 X99.572 Y120.011 E21.58677
G1 X98.87 Y120.326 E21.62516
G1 X98.139 Y120.566 E21.66354
G1 X97.388 Y120.729 E21.70188
G1 X96.623 Y120.813 E21.74028
G1 X96.198 Y120.825 E21.76149
G1 X65.898 Y120.825 E23.27316
G1 X65.13 Y120.785 E23.31153
G1 X64.37 Y120.666 E23.34991
G1 X63.627 Y120.468 E23.38827
G1 X62.908 Y120.194 E23.42666
G1 X62.222 Y119.847 E23.46501
G1 X61.575 Y119.431 E23.50339
G1 X60.975 Y118.95 E23.54175
G1 X60.548 Y118.541 E23.57125
G1 X60.034 Y117.969 E23.60962
G1 X59.581 Y117.347 E23.64801
G1 X59.195 Y116.682 E23.68637
G1 X58.88 Y115.98 E23.72476
G1 X58.64 Y115.249 E23.76314
G1 X58.477 Y114.498 E23.80148
G1 X58.424 Y114.02 E23.82548
G1 X57.62 Y113.42 E23.87553
G1 X56.818 Y112.728 E23.92837
G1 X56.262 Y112.196 E23.96676
G1 X55.765 Y111.609 E24.00514
G1 X55.331 Y110.974 E24.04351
G1 X54.966 Y110.297 E24.08188
G1 X54.673 Y109.586 E24.12025
G1 X54.435 Y108.759 E24.16318
G1 X54.135 Y107.434 E24.23096
G1 X54.004 Y106.676 E24.26934
G1 X53.953 Y105.909 E24.30769
G1 X53.961 Y105.754 E24.31543
G1 X53.801 Y105.158 E24.34622
G1 X53.68 Y104.398 E24.38461
G1 X53.638 Y103.63 E24.42298
G1 X53.676 Y102.862 E24.46135
G1 X53.794 Y102.102 E24.49972
G1 X54.001 Y101.321 E24.54003
G1 X54.205 Y100.694 E24.57292
G1 X54.481 Y99.976 E24.6113
G1 X54.829 Y99.291 E24.64963
G1 X55.247 Y98.645 E24.68802
G1 X55.73 Y98.046 E24.72641
G1 X56.272 Y97.501 E24.76476
G1 X57.095 Y96.855 E24.81695
G1 X58.001 Y96.242 E24.87153
G1 X58.418 Y95.991 E24.89581
G1 X58.421 Y95.924 E24.89916
G1 X58.54 Y95.164 E24.93753
G1 X58.738 Y94.421 E24.9759
G1 X59.012 Y93.702 E25.01428
G1 X59.359 Y93.016 E25.05264
G1 X59.775 Y92.369 E25.09101
G1 X60.256 Y91.769 E25.12938
G1 X60.665 Y91.342 E25.15888
G1 X61.237 Y90.828 E25.19724
G1 X61.859 Y90.375 E25.23563
M205 X10 Y10
G0 F6000 X62.111 Y90.688
M205 X8 Y8
G1 F1200 X62.761 Y90.317 E25.27297
G1 X63.447 Y90.018 E25.31031
G1 X64.161 Y89.794 E25.34764
G1 X64.894 Y89.647 E25.38494
G1 X65.898 Y89.575 E25.43516
G1 X144.104 Y89.575 E29.33687
G1 X144.851 Y89.615 E29.37419
G1 X145.589 Y89.734 E29.41149
G1 X146.311 Y89.932 E29.44884
G1 X147.007 Y90.205 E29.48614
G1 X147.67 Y90.552 E29.52347
G1 X148.293 Y90.967 E29.56082
G1 X149.054 Y91.625 E29.61101
G1 X149.171 Y91.742 E29.61926
G1 X149.671 Y92.299 E29.6566
G1 X150.108 Y92.905 E29.69388
G1 X150.479 Y93.555 E29.73122
G1 X150.778 Y94.241 E29.76855
G1 X151.002 Y94.955 E29.80589
G1 X151.149 Y95.688 E29.84318
G1 X151.221 Y96.692 E29.8934
G1 X151.287 Y96.876 E29.90315
G1 X151.848 Y97.285 E29.93779
G1 X152.428 Y97.757 E29.9751
G1 X152.954 Y98.289 E30.01242
G1 X153.421 Y98.873 E30.04973
G1 X153.78 Y99.267 E30.07632
G1 X154.306 Y99.798 E30.11361
G1 X154.773 Y100.383 E30.15095
G1 X155.174 Y101.014 E30.18825
G1 X155.506 Y101.684 E30.22556
G1 X155.735 Y102.292 E30.25797
G1 X155.938 Y102.918 E30.29081
G1 X156.13 Y103.641 E30.32813
G1 X156.244 Y104.38 E30.36543
G1 X156.279 Y105.127 E30.40274
G1 X156.233 Y105.874 E30.44008
G1 X156.109 Y106.611 E30.47736
G1 X155.906 Y107.332 E30.51473
G1 X155.766 Y107.707 E30.5347
G1 X155.335 Y108.77 E30.59193
G1 X155.017 Y109.447 E30.62925
G1 X154.874 Y109.682 E30.64297
G1 X154.638 Y110.34 E30.67785
G1 X154.312 Y111.013 E30.71515
G1 X153.916 Y111.647 E30.75245
G1 X153.454 Y112.236 E30.78979
G1 X152.932 Y112.772 E30.82712
G1 X152.459 Y113.17 E30.85796
G1 X151.809 Y113.671 E30.89891
G1 X151.193 Y114.096 E30.93624
G1 X151.173 Y114.107 E30.93738
G1 X151.062 Y114.793 E30.97205
G1 X150.864 Y115.515 E31.0094
G1 X150.591 Y116.211 E31.0467
G1 X150.244 Y116.874 E31.08403
G1 X149.829 Y117.497 E31.12138
G1 X149.171 Y118.258 E31.17157
G1 X149.054 Y118.375 E31.17983
G1 X148.497 Y118.875 E31.21717
G1 X147.891 Y119.312 E31.25444
G1 X147.241 Y119.683 E31.29178
G1 X146.555 Y119.982 E31.32912
G1 X145.841 Y120.206 E31.36645
G1 X145.108 Y120.353 E31.40375
G1 X144.104 Y120.425 E31.45397
G1 X115.062 Y120.425 E32.90288
G1 X114.315 Y120.385 E32.9402
G1 X113.577 Y120.266 E32.97749
G1 X112.855 Y120.068 E33.01484
G1 X112.159 Y119.795 E33.05214
G1 X111.496 Y119.448 E33.08948
G1 X110.873 Y119.033 E33.12682
G1 X110.112 Y118.375 E33.17701
G1 X109.995 Y118.258 E33.18527
G1 X109.495 Y117.701 E33.22261
G1 X109.058 Y117.095 E33.25989
G1 X108.687 Y116.445 E33.29723
G1 X108.388 Y115.759 E33.33456
G1 X108.164 Y115.045 E33.37189
G1 X108.017 Y114.312 E33.40919
G1 X107.971 Y113.865 E33.43161
G1 X107.638 Y113.383 E33.46084
G1 X107.226 Y112.997 E33.489
G1 X106.735 Y112.705 E33.51751
G1 X106.2 Y112.526 E33.54565
G1 X105.63 Y112.465 E33.57425
G1 X105.06 Y112.526 E33.60285
G1 X104.526 Y112.705 E33.63095
G1 X104.037 Y112.996 E33.65934
G1 X103.618 Y113.388 E33.68796
G1 X103.291 Y113.861 E33.71665
G1 X103.275 Y114.055 E33.72636
G1 X103.156 Y114.793 E33.76366
G1 X102.958 Y115.515 E33.80101
G1 X102.685 Y116.211 E33.83831
G1 X102.338 Y116.874 E33.87564
G1 X101.923 Y117.497 E33.91299
G1 X101.265 Y118.258 E33.96318
G1 X101.148 Y118.375 E33.97143
G1 X100.591 Y118.875 E34.00878
G1 X99.985 Y119.312 E34.04605
G1 X99.335 Y119.683 E34.08339
G1 X98.649 Y119.982 E34.12072
G1 X97.935 Y120.206 E34.15806
G1 X97.202 Y120.353 E34.19536
G1 X96.198 Y120.425 E34.24557
G1 X65.898 Y120.425 E35.75725
G1 X65.151 Y120.385 E35.79457
G1 X64.413 Y120.266 E35.83186
G1 X63.691 Y120.068 E35.86921
G1 X62.995 Y119.795 E35.90651
G1 X62.332 Y119.448 E35.94385
G1 X61.709 Y119.033 E35.98119
G1 X60.948 Y118.375 E36.03138
G1 X60.831 Y118.258 E36.03964
G1 X60.331 Y117.701 E36.07698
G1 X59.894 Y117.095 E36.11426
G1 X59.523 Y116.445 E36.1516
G1 X59.224 Y115.759 E36.18893
G1 X59 Y115.045 E36.22626
G1 X58.853 Y114.312 E36.26356
G1 X58.815 Y113.786 E36.28987
G1 X58.555 Y113.631 E36.30497
G1 X57.881 Y113.117 E36.34726
G1 X57.079 Y112.425 E36.40011
G1 X56.54 Y111.907 E36.4374
G1 X56.059 Y111.334 E36.47473
G1 X55.641 Y110.713 E36.51208
G1 X55.293 Y110.051 E36.54939
G1 X55.017 Y109.356 E36.5867
G1 X54.825 Y108.671 E36.62219
G1 X54.525 Y107.346 E36.68997
G1 X54.399 Y106.608 E36.72732
G1 X54.352 Y105.862 E36.76461
G1 X54.361 Y105.702 E36.7726
G1 X54.188 Y105.054 E36.80606
G1 X54.073 Y104.315 E36.84338
