;FLAVOR:Marlin
;TIME:201
;Filament used: 0.159714m
;Layer height: 0.2
;MINX:90.234
;MINY:90.234
;MINZ:0.3
;MAXX:119.766
;MAXY:119.766
;MAXZ:1.575
;Generated with Cura_SteamEngine 4.13.1
M82 ;absolute extrusion mode
G21                                        ; metric values 
G90                                        ; absolute positioning 
M82                                        ; set extruder to absolute mode 
M107                                       ; start with the fan off 
M140 S60           ; Start heating the bed 
G4 S60                                     ; wait 1 minute 
M104 S210         ; start heating the hot end 
M190 S60           ; wait for bed 
M109 S210         ; wait for hotend 
M300 S1000 P500                            ; BEEP heating done 
G28 X0 Y10 Z0                              ; move X/Y to min endstops 
M420 S1                                    ; Enable leveling 
M420 Z2.0                                  ; Set leveling fading height to 2 mm 
G0 Z0.15                                   ; lift nozzle a bit 
G92 E0                                     ; zero the extruded length 
G1 X50 E25 F500                            ; Extrude 25mm of filament in a 5cm line. 
G92 E0                                     ; zero the extruded length again 
G1 E-2 F500                                ; Retract a little 
G1 X120 F4000                              ; Quickly wipe away from the filament line`
G92 E0
G92 E0
G1 F1500 E-6
;LAYER_COUNT:7
;LAYER:0
M106 S76.5
M205 X10 Y10
G1 F600 Z0.375
G0 F6000 X94.693 Y94.425 Z0.375
M205 X8 Y8
;TYPE:SKIRT
G1 F600 Z0.3
G1 F1500 E0
G1 F1200 X95.016 Y94.134 E0.02169
G1 X95.833 Y93.437 E0.07527
G1 X96.459 Y92.956 E0.11465
G1 X96.808 Y92.727 E0.13548
G1 X97.746 Y92.15 E0.19042
G1 X98.439 Y91.771 E0.22983
G1 X98.839 Y91.591 E0.25171
G1 X99.847 Y91.172 E0.30617
G1 X100.591 Y90.907 E0.34557
G1 X101.021 Y90.79 E0.36781
G1 X102.096 Y90.532 E0.42296
G1 X102.872 Y90.387 E0.46235
G1 X103.31 Y90.341 E0.48432
G1 X104.401 Y90.256 E0.53891
G1 X105.191 Y90.234 E0.57834
G1 X105.622 Y90.256 E0.59987
G1 X106.697 Y90.341 E0.65367
G1 X107.065 Y90.379 E0.67213
G1 X107.927 Y90.537 E0.71585
G1 X108.988 Y90.793 E0.7703
G1 X109.746 Y91.016 E0.80972
G1 X110.153 Y91.172 E0.83147
G1 X111.161 Y91.591 E0.88593
G1 X111.874 Y91.931 E0.92534
G1 X112.252 Y92.149 E0.94711
G1 X113.189 Y92.725 E1.00198
G1 X113.84 Y93.172 E1.04138
G1 X114.173 Y93.442 E1.06277
G1 X115.001 Y94.15 E1.11712
G1 X115.575 Y94.693 E1.15654
G1 X115.87 Y95.021 E1.17855
G1 X116.576 Y95.85 E1.23288
G1 X117.057 Y96.476 E1.27226
G1 X117.287 Y96.829 E1.29328
G1 X117.855 Y97.755 E1.34748
G1 X118.233 Y98.448 E1.38686
G1 X118.409 Y98.839 E1.40825
G1 X118.828 Y99.847 E1.46271
G1 X119.093 Y100.591 E1.50212
G1 X119.209 Y101.018 E1.52419
G1 X119.464 Y102.079 E1.57863
G1 X119.51 Y102.282 E1.58902
G1 X119.659 Y103.31 E1.64084
G1 X119.744 Y104.401 E1.69543
G1 X119.766 Y105.191 E1.73486
G1 X119.744 Y105.622 E1.75639
G1 X119.659 Y106.697 E1.81019
G1 X119.621 Y107.065 E1.82865
G1 X119.464 Y107.924 E1.87222
G1 X119.209 Y108.983 E1.92656
G1 X118.986 Y109.74 E1.96593
G1 X118.83 Y110.148 E1.98772
G1 X118.411 Y111.157 E2.04223
G1 X118.071 Y111.87 E2.08164
G1 X117.851 Y112.253 E2.10368
G1 X117.274 Y113.191 E2.15862
G1 X116.826 Y113.842 E2.19804
G1 X116.558 Y114.173 E2.21929
G1 X115.85 Y115.001 E2.27364
G1 X115.307 Y115.575 E2.31306
G1 X114.984 Y115.866 E2.33475
G1 X114.167 Y116.563 E2.38833
G1 X113.541 Y117.044 E2.42772
G1 X113.192 Y117.273 E2.44854
G1 X112.254 Y117.85 E2.50349
G1 X111.561 Y118.229 E2.54289
G1 X111.161 Y118.409 E2.56478
G1 X110.153 Y118.828 E2.61924
G1 X109.409 Y119.093 E2.65864
G1 X108.979 Y119.21 E2.68087
G1 X107.904 Y119.468 E2.73603
G1 X107.128 Y119.613 E2.77541
G1 X106.69 Y119.659 E2.79738
G1 X105.599 Y119.744 E2.85198
G1 X104.809 Y119.766 E2.89141
G1 X104.378 Y119.744 E2.91294
G1 X103.303 Y119.659 E2.96674
G1 X102.935 Y119.621 E2.98519
G1 X102.073 Y119.463 E3.02892
G1 X101.012 Y119.207 E3.08337
G1 X100.254 Y118.984 E3.12279
G1 X99.847 Y118.828 E3.14453
G1 X98.839 Y118.409 E3.19899
G1 X98.126 Y118.069 E3.2384
G1 X97.746 Y117.85 E3.26029
G1 X96.808 Y117.273 E3.31523
G1 X96.157 Y116.825 E3.35465
G1 X95.826 Y116.557 E3.3759
G1 X94.998 Y115.849 E3.43025
G1 X94.424 Y115.306 E3.46967
G1 X94.133 Y114.983 E3.49136
G1 X93.436 Y114.166 E3.54494
G1 X92.955 Y113.54 E3.58433
G1 X92.726 Y113.191 E3.60515
G1 X92.149 Y112.253 E3.66009
G1 X91.77 Y111.56 E3.6995
G1 X91.589 Y111.157 E3.72154
G1 X91.17 Y110.148 E3.77605
G1 X90.905 Y109.405 E3.8154
G1 X90.789 Y108.974 E3.83767
G1 X90.532 Y107.901 E3.89272
G1 X90.387 Y107.125 E3.9321
G1 X90.341 Y106.69 E3.95393
G1 X90.256 Y105.599 E4.00852
G1 X90.234 Y104.809 E4.04795
G1 X90.256 Y104.378 E4.06948
G1 X90.341 Y103.303 E4.12328
G1 X90.379 Y102.935 E4.14174
G1 X90.536 Y102.076 E4.1853
G1 X90.791 Y101.017 E4.23965
G1 X91.014 Y100.26 E4.27902
G1 X91.172 Y99.848 E4.30103
G1 X91.592 Y98.838 E4.35561
G1 X91.932 Y98.125 E4.39501
G1 X92.149 Y97.748 E4.41672
G1 X92.725 Y96.811 E4.47159
G1 X93.172 Y96.16 E4.51099
G1 X93.442 Y95.827 E4.53238
G1 X94.15 Y94.999 E4.58673
G1 X94.693 Y94.425 E4.62615
M205 X10 Y10
G0 F6000 X94.983 Y94.701
M205 X8 Y8
G1 F1200 X95.275 Y94.438 E4.64575
G1 X96.092 Y93.741 E4.69933
G1 X97.018 Y93.068 E4.75644
G1 X97.956 Y92.491 E4.81138
G1 X98.631 Y92.123 E4.84974
G1 X98.993 Y91.961 E4.86953
G1 X100.001 Y91.542 E4.92399
G1 X100.725 Y91.284 E4.96233
G1 X101.114 Y91.179 E4.98243
G1 X102.189 Y90.921 E5.03759
G1 X102.945 Y90.781 E5.07595
G1 X103.341 Y90.739 E5.09581
G1 X104.432 Y90.654 E5.15041
G1 X105.201 Y90.635 E5.18879
G1 X105.59 Y90.655 E5.20822
G1 X106.665 Y90.74 E5.26202
G1 X107.016 Y90.776 E5.27962
G1 X107.834 Y90.925 E5.3211
G1 X108.895 Y91.181 E5.37556
G1 X109.632 Y91.4 E5.41391
G1 X109.999 Y91.542 E5.43355
G1 X111.007 Y91.961 E5.48801
G1 X111.701 Y92.293 E5.52639
G1 X112.042 Y92.49 E5.54604
G1 X112.979 Y93.066 E5.60091
G1 X113.613 Y93.502 E5.6393
G1 X113.913 Y93.746 E5.65859
G1 X114.741 Y94.454 E5.71294
G1 X115.299 Y94.983 E5.7513
G1 X115.566 Y95.28 E5.77123
G1 X116.272 Y96.109 E5.82555
G1 X116.946 Y97.038 E5.88281
G1 X117.514 Y97.964 E5.93701
G1 X117.881 Y98.639 E5.97534
G1 X118.039 Y98.993 E5.99468
G1 X118.458 Y100.001 E6.04914
G1 X118.716 Y100.725 E6.08749
G1 X118.82 Y101.112 E6.10748
G1 X119.075 Y102.173 E6.16192
G1 X119.119 Y102.365 E6.17175
G1 X119.261 Y103.341 E6.22096
G1 X119.346 Y104.432 E6.27555
G1 X119.365 Y105.201 E6.31393
G1 X119.345 Y105.59 E6.33336
G1 X119.26 Y106.665 E6.38716
G1 X119.224 Y107.016 E6.40476
G1 X119.075 Y107.83 E6.44605
G1 X118.82 Y108.889 E6.50039
G1 X118.602 Y109.627 E6.53878
G1 X118.46 Y109.995 E6.55846
G1 X118.041 Y111.004 E6.61297
G1 X117.71 Y111.698 E6.65133
G1 X117.51 Y112.043 E6.67123
G1 X116.933 Y112.981 E6.72617
G1 X116.254 Y113.913 E6.7837
G1 X115.546 Y114.741 E6.83805
G1 X115.017 Y115.299 E6.87641
G1 X114.725 Y115.562 E6.89602
G1 X113.908 Y116.259 E6.94959
G1 X112.982 Y116.932 E7.0067
G1 X112.044 Y117.509 E7.06165
G1 X111.369 Y117.877 E7.1
G1 X111.007 Y118.039 E7.11979
G1 X109.999 Y118.458 E7.17425
G1 X109.275 Y118.716 E7.21259
G1 X108.886 Y118.821 E7.2327
G1 X107.811 Y119.079 E7.28785
G1 X107.055 Y119.219 E7.32621
G1 X106.659 Y119.261 E7.34608
G1 X105.568 Y119.346 E7.40067
G1 X104.799 Y119.365 E7.43905
G1 X104.41 Y119.345 E7.45848
G1 X103.335 Y119.26 E7.51228
G1 X102.984 Y119.224 E7.52988
G1 X102.166 Y119.075 E7.57137
G1 X101.105 Y118.819 E7.62582
G1 X100.368 Y118.6 E7.66418
G1 X100.001 Y118.458 E7.68381
G1 X98.993 Y118.039 E7.73827
G1 X98.299 Y117.707 E7.77665
G1 X97.956 Y117.509 E7.79641
G1 X97.018 Y116.932 E7.85135
G1 X96.086 Y116.253 E7.90888
G1 X95.258 Y115.545 E7.96323
G1 X94.7 Y115.016 E8.00159
G1 X94.437 Y114.724 E8.0212
G1 X93.74 Y113.907 E8.07478
G1 X93.067 Y112.981 E8.13189
G1 X92.49 Y112.043 E8.18683
G1 X92.122 Y111.368 E8.22519
G1 X91.959 Y111.004 E8.24508
G1 X91.54 Y109.995 E8.29959
G1 X91.282 Y109.27 E8.33798
G1 X91.178 Y108.881 E8.35807
G1 X90.921 Y107.808 E8.41312
G1 X90.781 Y107.051 E8.45153
G1 X90.739 Y106.659 E8.47119
G1 X90.654 Y105.568 E8.52579
G1 X90.635 Y104.799 E8.56417
G1 X90.655 Y104.41 E8.5836
G1 X90.74 Y103.335 E8.6374
G1 X90.776 Y102.984 E8.655
G1 X90.925 Y102.17 E8.69629
G1 X91.18 Y101.111 E8.75063
G1 X91.398 Y100.373 E8.78902
G1 X91.541 Y100.002 E8.80886
G1 X91.961 Y98.992 E8.86343
G1 X92.293 Y98.298 E8.90181
G1 X92.49 Y97.958 E8.92142
G1 X93.066 Y97.021 E8.97629
G1 X93.502 Y96.387 E9.01468
G1 X93.746 Y96.087 E9.03397
G1 X94.454 Y95.259 E9.08832
G1 X94.983 Y94.701 E9.12668
M205 X10 Y10
G0 F6000 X95.535 Y94.743
M205 X8 Y8
G1 F1200 X96.352 Y94.046 E9.18026
G1 X97.227 Y93.409 E9.23426
G1 X98.165 Y92.832 E9.2892
G1 X99.146 Y92.33 E9.34418
G1 X100.154 Y91.911 E9.39864
G1 X101.207 Y91.568 E9.45389
G1 X102.282 Y91.31 E9.50905
G1 X103.372 Y91.138 E9.5641
G1 X104.463 Y91.053 E9.61869
G1 X105.559 Y91.054 E9.67337
G1 X106.634 Y91.139 E9.72717
G1 X106.966 Y91.173 E9.74382
G1 X107.74 Y91.314 E9.78307
G1 X108.801 Y91.57 E9.83753
G1 X109.846 Y91.911 E9.89237
G1 X110.854 Y92.33 E9.94683
G1 X111.833 Y92.831 E10.0017
G1 X112.77 Y93.407 E10.05657
G1 X113.653 Y94.05 E10.11106
G1 X114.481 Y94.758 E10.16542
G1 X115.261 Y95.539 E10.22048
G1 X115.967 Y96.368 E10.27481
G1 X116.605 Y97.247 E10.329
G1 X117.173 Y98.173 E10.38319
G1 X117.67 Y99.146 E10.4377
G1 X118.089 Y100.154 E10.49216
G1 X118.431 Y101.205 E10.5473
G1 X118.725 Y102.435 E10.6104
G1 X118.862 Y103.372 E10.65764
G1 X118.947 Y104.463 E10.71224
G1 X118.946 Y105.559 E10.76692
G1 X118.861 Y106.634 E10.82072
G1 X118.827 Y106.966 E10.83737
G1 X118.686 Y107.737 E10.87647
G1 X118.431 Y108.796 E10.93081
G1 X118.091 Y109.842 E10.98569
G1 X117.672 Y110.851 E11.04019
G1 X117.169 Y111.834 E11.09528
G1 X116.592 Y112.772 E11.15023
G1 X115.95 Y113.653 E11.20461
G1 X115.242 Y114.481 E11.25896
G1 X114.465 Y115.257 E11.31375
G1 X113.648 Y115.954 E11.36733
G1 X112.773 Y116.591 E11.42132
G1 X111.835 Y117.168 E11.47627
G1 X110.854 Y117.67 E11.53124
G1 X109.846 Y118.089 E11.5857
G1 X108.793 Y118.432 E11.64096
G1 X107.718 Y118.69 E11.69611
G1 X106.628 Y118.862 E11.75116
G1 X105.537 Y118.947 E11.80576
G1 X104.441 Y118.946 E11.86044
G1 X103.366 Y118.861 E11.91424
G1 X103.034 Y118.827 E11.93089
G1 X102.26 Y118.686 E11.97014
G1 X101.199 Y118.43 E12.02459
G1 X100.154 Y118.089 E12.07943
G1 X99.146 Y117.67 E12.13389
G1 X98.165 Y117.168 E12.18887
G1 X97.227 Y116.591 E12.24381
G1 X96.346 Y115.949 E12.2982
G1 X95.518 Y115.241 E12.35255
G1 X94.742 Y114.464 E12.40734
G1 X94.045 Y113.647 E12.46091
G1 X93.408 Y112.772 E12.51491
G1 X92.831 Y111.834 E12.56985
G1 X92.328 Y110.851 E12.62494
G1 X91.909 Y109.842 E12.67945
G1 X91.567 Y108.787 E12.73478
G1 X91.31 Y107.714 E12.78983
G1 X91.138 Y106.628 E12.84468
G1 X91.053 Y105.537 E12.89928
G1 X91.054 Y104.441 E12.95396
G1 X91.139 Y103.366 E13.00776
G1 X91.173 Y103.034 E13.02441
G1 X91.314 Y102.263 E13.06351
G1 X91.569 Y101.204 E13.11785
G1 X91.911 Y100.155 E13.1729
G1 X92.331 Y99.145 E13.22747
G1 X92.831 Y98.167 E13.28227
G1 X93.407 Y97.23 E13.33715
G1 X94.05 Y96.347 E13.39164
G1 X94.758 Y95.519 E13.44599
G1 X95.535 Y94.743 E13.50078
M205 X10 Y10
G0 F6000 X95.794 Y95.047
M205 X8 Y8
G1 F1200 X96.611 Y94.35 E13.55436
G1 X97.437 Y93.749 E13.60532
G1 X98.375 Y93.172 E13.66026
G1 X99.3 Y92.7 E13.71207
G1 X100.308 Y92.281 E13.76653
G1 X101.301 Y91.957 E13.81864
G1 X102.376 Y91.699 E13.8738
G1 X103.403 Y91.537 E13.92567
G1 X104.494 Y91.452 E13.98026
G1 X105.527 Y91.453 E14.0318
G1 X106.602 Y91.538 E14.0856
G1 X106.917 Y91.57 E14.1014
G1 X107.646 Y91.703 E14.13837
G1 X108.707 Y91.959 E14.19282
G1 X109.692 Y92.281 E14.24452
G1 X110.7 Y92.7 E14.29898
G1 X111.623 Y93.171 E14.35068
G1 X112.56 Y93.747 E14.40555
G1 X113.393 Y94.354 E14.45697
G1 X114.221 Y95.062 E14.51133
G1 X114.957 Y95.799 E14.56329
G1 X115.663 Y96.628 E14.61761
G1 X116.264 Y97.456 E14.66866
G1 X116.832 Y98.382 E14.72286
G1 X117.3 Y99.3 E14.77426
G1 X117.719 Y100.308 E14.82872
G1 X118.042 Y101.299 E14.88073
G1 X118.297 Y102.36 E14.93517
G1 X118.336 Y102.533 E14.94401
G1 X118.463 Y103.403 E14.98788
G1 X118.548 Y104.494 E15.04247
G1 X118.547 Y105.527 E15.09401
G1 X118.462 Y106.602 E15.14781
G1 X118.43 Y106.917 E15.16361
G1 X118.298 Y107.643 E15.20042
G1 X118.043 Y108.702 E15.25476
G1 X117.721 Y109.688 E15.30651
G1 X117.302 Y110.697 E15.36102
G1 X116.829 Y111.624 E15.41294
G1 X116.252 Y112.562 E15.46788
G1 X115.646 Y113.393 E15.51919
G1 X114.938 Y114.221 E15.57355
G1 X114.206 Y114.953 E15.62519
G1 X113.389 Y115.65 E15.67877
G1 X112.563 Y116.251 E15.72973
G1 X111.625 Y116.828 E15.78467
G1 X110.7 Y117.3 E15.83648
G1 X109.692 Y117.719 E15.89094
G1 X108.699 Y118.043 E15.94306
G1 X107.624 Y118.301 E15.99821
G1 X106.597 Y118.463 E16.05008
G1 X105.506 Y118.548 E16.10468
G1 X104.473 Y118.547 E16.15621
G1 X103.398 Y118.462 E16.21001
G1 X103.083 Y118.43 E16.22581
G1 X102.354 Y118.297 E16.26278
G1 X101.293 Y118.041 E16.31723
G1 X100.308 Y117.719 E16.36893
G1 X99.3 Y117.3 E16.42339
G1 X98.375 Y116.828 E16.4752
G1 X97.437 Y116.251 E16.53015
G1 X96.606 Y115.645 E16.58146
G1 X95.778 Y114.937 E16.63581
G1 X95.046 Y114.205 E16.68746
G1 X94.349 Y113.388 E16.74103
G1 X93.748 Y112.562 E16.792
G1 X93.171 Y111.624 E16.84694
G1 X92.698 Y110.697 E16.89886
G1 X92.279 Y109.688 E16.95337
G1 X91.956 Y108.694 E17.00551
G1 X91.699 Y107.621 E17.06056
G1 X91.537 Y106.597 E17.11228
G1 X91.452 Y105.506 E17.16687
G1 X91.453 Y104.473 E17.21841
G1 X91.538 Y103.398 E17.27221
G1 X91.57 Y103.083 E17.28801
G1 X91.702 Y102.357 E17.32482
G1 X91.957 Y101.298 E17.37916
G1 X92.28 Y100.309 E17.43107
G1 X92.7 Y99.299 E17.48564
G1 X93.171 Y98.377 E17.5373
G1 X93.747 Y97.44 E17.59217
G1 X94.354 Y96.607 E17.64359
G1 X95.062 Y95.779 E17.69794
G1 X95.794 Y95.047 E17.74959
M205 X10 Y10
G0 F6000 X96.054 Y95.351
M205 X8 Y8
G1 F1200 X96.871 Y94.654 E17.80317
G1 X97.647 Y94.09 E17.85103
G1 X98.585 Y93.513 E17.90597
G1 X99.453 Y93.069 E17.95461
G1 X100.461 Y92.65 E18.00907
G1 X101.394 Y92.346 E18.05803
G1 X102.469 Y92.088 E18.11318
G1 X103.434 Y91.936 E18.16192
G1 X104.525 Y91.851 E18.21652
G1 X105.496 Y91.851 E18.26496
G1 X106.571 Y91.936 E18.31876
G1 X106.867 Y91.967 E18.33361
G1 X107.552 Y92.092 E18.36835
G1 X108.613 Y92.348 E18.4228
G1 X109.539 Y92.65 E18.47139
G1 X110.547 Y93.069 E18.52585
G1 X111.414 Y93.512 E18.57443
G1 X112.351 Y94.088 E18.6293
G1 X113.133 Y94.658 E18.67758
G1 X113.961 Y95.366 E18.73193
G1 X114.652 Y96.058 E18.78072
G1 X115.358 Y96.887 E18.83504
G1 X115.923 Y97.665 E18.88301
G1 X116.491 Y98.591 E18.93721
G1 X116.931 Y99.453 E18.98549
G1 X117.35 Y100.461 E19.03996
G1 X117.653 Y101.392 E19.0888
G1 X117.908 Y102.453 E19.14324
G1 X117.945 Y102.617 E19.15163
G1 X118.064 Y103.434 E19.19282
G1 X118.149 Y104.525 E19.24742
G1 X118.149 Y105.496 E19.29586
G1 X118.064 Y106.571 E19.34966
G1 X118.033 Y106.867 E19.36451
G1 X117.909 Y107.549 E19.39909
G1 X117.654 Y108.608 E19.45343
G1 X117.352 Y109.535 E19.50207
G1 X116.933 Y110.544 E19.55658
G1 X116.488 Y111.414 E19.60533
G1 X115.911 Y112.352 E19.66028
G1 X115.342 Y113.133 E19.70848
G1 X114.634 Y113.961 E19.76284
G1 X113.946 Y114.649 E19.81138
G1 X113.129 Y115.346 E19.86496
G1 X112.353 Y115.91 E19.91282
G1 X111.415 Y116.487 E19.96776
G1 X110.547 Y116.931 E20.0164
G1 X109.539 Y117.35 E20.07086
G1 X108.606 Y117.654 E20.11982
G1 X107.531 Y117.912 E20.17497
G1 X106.566 Y118.064 E20.22371
G1 X105.475 Y118.149 E20.2783
G1 X104.504 Y118.149 E20.32675
G1 X103.429 Y118.064 E20.38055
G1 X103.133 Y118.033 E20.3954
G1 X102.448 Y117.908 E20.43013
G1 X101.387 Y117.652 E20.48459
G1 X100.461 Y117.35 E20.53318
G1 X99.453 Y116.931 E20.58764
G1 X98.585 Y116.487 E20.63628
G1 X97.647 Y115.91 E20.69122
