;FLAVOR:Marlin
;TIME:3006
;Filament used: 2.22055m
;Layer height: 0.2
;MINX:75.186
;MINY:75.129
;MINZ:0.3
;MAXX:134.814
;MAXY:134.871
;MAXZ:9.175
;Generated with Cura_SteamEngine 4.13.1
M82 ;absolute extrusion mode
G21                                        ; metric values 
G90                                        ; absolute positioning 
M82                                        ; set extruder to absolute mode 
M107                                       ; start with the fan off 
M140 S60           ; Start heating the bed 
G4 S60                                     ; wait 1 minute 
M104 S210         ; start heating the hot end 
M190 S60           ; wait for bed 
M109 S210         ; wait for hotend 
M300 S1000 P500                            ; BEEP heating done 
G28 X0 Y10 Z0                              ; move X/Y to min endstops 
M420 S1                                    ; Enable leveling 
M420 Z2.0                                  ; Set leveling fading height to 2 mm 
G0 Z0.15                                   ; lift nozzle a bit 
G92 E0                                     ; zero the extruded length 
G1 X50 E25 F500                            ; Extrude 25mm of filament in a 5cm line. 
G92 E0                                     ; zero the extruded length again 
G1 E-2 F500                                ; Retract a little 
G1 X120 F4000                              ; Quickly wipe away from the filament line`
G92 E0
G92 E0
G1 F1500 E-6
;LAYER_COUNT:45
;LAYER:0
M106 S76.5
M205 X10 Y10
G1 F600 Z0.375
G0 F6000 X83.892 Y83.542 Z0.375
M205 X8 Y8
;TYPE:SKIRT
G1 F600 Z0.3
G1 F1500 E0
G1 F1200 X84.681 Y82.884 E0.05126
G1 X90.303 Y78.792 E0.39817
G1 X91.222 Y78.216 E0.45228
G1 X91.252 Y78.2 E0.45397
G1 X91.967 Y77.864 E0.49339
G1 X92.509 Y77.665 E0.52219
G1 X99.107 Y75.518 E0.86836
G1 X100.165 Y75.254 E0.92276
G1 X100.199 Y75.248 E0.92448
G1 X100.983 Y75.15 E0.9639
G1 X101.557 Y75.129 E0.99256
G1 X108.497 Y75.131 E1.3388
G1 X109.286 Y75.171 E1.37821
G1 X109.885 Y75.256 E1.40839
G1 X110.948 Y75.521 E1.46305
G1 X117.54 Y77.671 E1.80898
G1 X118.277 Y77.954 E1.84836
G1 X118.822 Y78.221 E1.87864
G1 X119.746 Y78.8 E1.93304
G1 X125.361 Y82.893 E2.2797
G1 X125.974 Y83.39 E2.31907
G1 X126.301 Y83.701 E2.34159
G1 X126.831 Y84.287 E2.38101
G1 X127.107 Y84.646 E2.4036
G1 X131.178 Y90.277 E2.75026
G1 X131.739 Y91.176 E2.80313
G1 X131.755 Y91.206 E2.80482
G1 X132.091 Y91.921 E2.84424
G1 X132.296 Y92.48 E2.87394
G1 X134.432 Y99.094 E3.2207
G1 X134.636 Y99.857 E3.2601
G1 X134.72 Y100.319 E3.28353
G1 X134.803 Y101.104 E3.32291
G1 X134.814 Y101.531 E3.34422
G1 X134.807 Y108.493 E3.69155
G1 X134.766 Y109.281 E3.73092
G1 X134.702 Y109.758 E3.75493
G1 X134.537 Y110.53 E3.79432
G1 X134.42 Y110.927 E3.81497
G1 X132.269 Y117.544 E4.16209
G1 X131.987 Y118.282 E4.20151
G1 X131.761 Y118.75 E4.22744
G1 X131.149 Y119.742 E4.28559
G1 X127.062 Y125.372 E4.63268
G1 X126.566 Y125.987 E4.6721
G1 X126.108 Y126.458 E4.70487
G1 X125.319 Y127.116 E4.75613
G1 X119.697 Y131.208 E5.10304
G1 X118.778 Y131.784 E5.15715
G1 X118.748 Y131.8 E5.15885
G1 X118.033 Y132.136 E5.19826
G1 X117.491 Y132.335 E5.22707
G1 X110.893 Y134.482 E5.57323
G1 X109.835 Y134.746 E5.62763
G1 X109.801 Y134.752 E5.62936
G1 X109.017 Y134.85 E5.66877
G1 X108.443 Y134.871 E5.69743
G1 X101.503 Y134.869 E6.04367
G1 X100.714 Y134.829 E6.08308
G1 X100.115 Y134.744 E6.11327
G1 X99.052 Y134.479 E6.16792
G1 X92.46 Y132.329 E6.51385
G1 X91.723 Y132.046 E6.55323
G1 X91.178 Y131.779 E6.58351
G1 X90.254 Y131.2 E6.63791
G1 X84.64 Y127.107 E6.98453
G1 X84.026 Y126.61 E7.02394
G1 X83.7 Y126.299 E7.04642
G1 X83.17 Y125.713 E7.08584
G1 X82.894 Y125.355 E7.10839
G1 X78.82 Y119.721 E7.45526
G1 X78.217 Y118.74 E7.51271
G1 X78.203 Y118.713 E7.51423
G1 X77.875 Y117.995 E7.55361
G1 X77.704 Y117.52 E7.5788
G1 X75.568 Y110.906 E7.92555
G1 X75.364 Y110.143 E7.96496
G1 X75.28 Y109.681 E7.98838
G1 X75.197 Y108.896 E8.02776
G1 X75.186 Y108.469 E8.04908
G1 X75.193 Y101.507 E8.39641
G1 X75.234 Y100.719 E8.43578
G1 X75.298 Y100.242 E8.45979
G1 X75.463 Y99.47 E8.49917
G1 X75.58 Y99.073 E8.51982
G1 X77.731 Y92.456 E8.86695
G1 X78.013 Y91.718 E8.90637
G1 X78.239 Y91.25 E8.93229
G1 X78.851 Y90.258 E8.99045
G1 X82.938 Y84.628 E9.33753
G1 X83.434 Y84.013 E9.37695
G1 X83.892 Y83.542 E9.40973
M205 X10 Y10
G0 F6000 X84.168 Y83.831
M205 X8 Y8
G1 F1200 X84.916 Y83.207 E9.45833
G1 X90.538 Y79.115 E9.80524
G1 X91.411 Y78.569 E9.85661
G1 X91.441 Y78.553 E9.85831
G1 X92.137 Y78.226 E9.89667
G1 X92.633 Y78.045 E9.92301
G1 X99.231 Y75.898 E10.26918
G1 X100.235 Y75.648 E10.3208
G1 X100.269 Y75.642 E10.32252
G1 X101.032 Y75.547 E10.36088
G1 X101.557 Y75.529 E10.38709
G1 X108.497 Y75.531 E10.73332
G1 X109.265 Y75.571 E10.77169
G1 X109.815 Y75.65 E10.79941
G1 X110.824 Y75.902 E10.8513
G1 X117.416 Y78.052 E11.19723
G1 X118.133 Y78.328 E11.23556
G1 X118.633 Y78.574 E11.26336
G1 X119.51 Y79.123 E11.31498
G1 X125.125 Y83.216 E11.66164
G1 X125.999 Y83.963 E11.719
G1 X126.019 Y83.983 E11.72041
G1 X126.533 Y84.555 E11.75877
G1 X126.783 Y84.88 E11.77923
G1 X130.854 Y90.511 E12.12589
G1 X131.386 Y91.365 E12.17609
G1 X131.402 Y91.395 E12.17778
G1 X131.729 Y92.091 E12.21615
G1 X131.915 Y92.603 E12.24333
G1 X134.051 Y99.217 E12.59008
G1 X134.249 Y99.96 E12.62844
G1 X134.325 Y100.381 E12.64979
G1 X134.404 Y101.146 E12.68815
G1 X134.414 Y101.53 E12.70732
G1 X134.407 Y108.492 E13.05465
G1 X134.366 Y109.261 E13.09307
G1 X134.308 Y109.694 E13.11487
G1 X134.04 Y110.804 E13.17184
G1 X131.889 Y117.421 E13.51897
G1 X131.613 Y118.139 E13.55734
G1 X131.406 Y118.566 E13.58102
G1 X130.825 Y119.507 E13.63619
G1 X126.738 Y125.137 E13.98328
G1 X126.255 Y125.735 E14.02163
G1 X125.832 Y126.169 E14.05187
G1 X125.084 Y126.793 E14.10046
G1 X119.462 Y130.885 E14.44738
G1 X118.589 Y131.431 E14.49875
G1 X118.559 Y131.447 E14.50044
G1 X117.863 Y131.774 E14.53881
G1 X117.367 Y131.955 E14.56515
G1 X110.769 Y134.102 E14.91132
G1 X109.765 Y134.352 E14.96294
G1 X109.731 Y134.358 E14.96466
G1 X108.968 Y134.453 E15.00302
G1 X108.443 Y134.471 E15.02923
G1 X101.503 Y134.469 E15.37546
G1 X100.735 Y134.429 E15.41383
G1 X100.185 Y134.35 E15.44155
G1 X99.176 Y134.098 E15.49344
G1 X92.584 Y131.948 E15.83936
G1 X91.867 Y131.672 E15.87769
G1 X91.367 Y131.426 E15.9055
G1 X90.49 Y130.877 E15.95711
G1 X84.876 Y126.784 E16.30373
G1 X84.002 Y126.037 E16.36109
G1 X83.982 Y126.017 E16.36251
G1 X83.468 Y125.445 E16.40087
G1 X83.219 Y125.12 E16.4213
G1 X79.145 Y119.486 E16.76817
G1 X78.572 Y118.556 E16.82266
G1 X78.558 Y118.529 E16.82418
G1 X78.24 Y117.829 E16.86254
G1 X78.085 Y117.397 E16.88544
G1 X75.949 Y110.783 E17.23219
G1 X75.751 Y110.04 E17.27055
G1 X75.675 Y109.619 E17.2919
G1 X75.596 Y108.854 E17.33027
G1 X75.586 Y108.47 E17.34943
G1 X75.593 Y101.508 E17.69677
G1 X75.634 Y100.739 E17.73519
G1 X75.692 Y100.306 E17.75698
G1 X75.96 Y99.196 E17.81395
G1 X78.111 Y92.579 E18.16108
G1 X78.387 Y91.861 E18.19946
G1 X78.594 Y91.434 E18.22313
G1 X79.175 Y90.493 E18.2783
G1 X83.262 Y84.863 E18.62539
G1 X83.745 Y84.265 E18.66374
G1 X84.168 Y83.831 E18.69398
M205 X10 Y10
G0 F6000 X84.443 Y84.121
M205 X8 Y8
G1 F1200 X85.152 Y83.53 E18.74003
G1 X90.774 Y79.438 E19.08694
G1 X91.599 Y78.922 E19.13549
G1 X91.629 Y78.906 E19.13718
G1 X92.307 Y78.589 E19.17452
G1 X92.757 Y78.426 E19.1984
G1 X99.355 Y76.279 E19.54457
G1 X100.305 Y76.042 E19.59342
G1 X100.339 Y76.036 E19.59514
G1 X101.081 Y75.945 E19.63243
G1 X101.557 Y75.929 E19.65619
G1 X108.497 Y75.931 E20.00243
G1 X109.244 Y75.971 E20.03975
G1 X109.745 Y76.044 E20.06501
G1 X110.7 Y76.282 E20.11412
G1 X117.292 Y78.432 E20.46004
G1 X117.989 Y78.702 E20.49733
G1 X118.445 Y78.927 E20.5227
G1 X119.274 Y79.446 E20.5715
G1 X124.889 Y83.539 E20.91816
G1 X125.716 Y84.246 E20.97244
G1 X125.736 Y84.266 E20.97385
G1 X126.459 Y85.115 E21.02948
G1 X130.53 Y90.746 E21.37614
G1 X131.033 Y91.553 E21.42359
G1 X131.049 Y91.583 E21.42528
G1 X131.366 Y92.261 E21.46262
G1 X131.534 Y92.726 E21.48729
G1 X133.67 Y99.34 E21.83404
G1 X133.925 Y100.41 E21.88892
G1 X133.93 Y100.442 E21.89054
G1 X134.014 Y101.53 E21.94498
G1 X134.007 Y108.492 E22.29231
G1 X133.918 Y109.6 E22.34777
G1 X133.913 Y109.631 E22.34934
G1 X133.659 Y110.68 E22.40319
G1 X131.508 Y117.297 E22.75031
G1 X131.239 Y117.995 E22.78763
G1 X131.051 Y118.382 E22.8091
G1 X130.502 Y119.272 E22.86127
G1 X126.415 Y124.902 E23.20836
G1 X125.944 Y125.483 E23.24567
G1 X125.557 Y125.879 E23.2733
G1 X124.848 Y126.47 E23.31935
G1 X119.226 Y130.562 E23.66626
G1 X118.401 Y131.078 E23.7148
G1 X118.371 Y131.094 E23.7165
G1 X117.693 Y131.411 E23.75384
G1 X117.243 Y131.574 E23.77772
G1 X110.645 Y133.721 E24.12388
G1 X109.695 Y133.958 E24.17273
G1 X109.661 Y133.964 E24.17445
G1 X108.919 Y134.055 E24.21175
G1 X108.443 Y134.071 E24.23551
G1 X101.503 Y134.069 E24.58175
G1 X100.756 Y134.029 E24.61907
G1 X100.255 Y133.956 E24.64433
G1 X99.3 Y133.718 E24.69343
G1 X92.708 Y131.568 E25.03936
G1 X92.011 Y131.298 E25.07665
G1 X91.555 Y131.073 E25.10202
G1 X90.725 Y130.553 E25.15088
G1 X85.111 Y126.46 E25.4975
G1 X84.285 Y125.754 E25.55171
G1 X84.265 Y125.734 E25.55312
G1 X83.543 Y124.886 E25.60869
G1 X79.469 Y119.252 E25.95556
G1 X78.927 Y118.372 E26.00712
G1 X78.913 Y118.345 E26.00864
G1 X78.604 Y117.664 E26.04595
G1 X78.466 Y117.274 E26.06659
G1 X76.33 Y110.66 E26.41334
G1 X76.075 Y109.59 E26.46822
G1 X76.07 Y109.558 E26.46983
G1 X75.986 Y108.47 E26.52428
G1 X75.993 Y101.508 E26.87161
G1 X76.082 Y100.4 E26.92707
G1 X76.087 Y100.369 E26.92863
G1 X76.341 Y99.32 E26.98248
G1 X78.492 Y92.703 E27.32961
G1 X78.761 Y92.005 E27.36693
G1 X78.949 Y91.618 E27.38839
G1 X79.498 Y90.728 E27.44057
G1 X83.585 Y85.098 E27.78765
G1 X84.056 Y84.517 E27.82497
G1 X84.443 Y84.121 E27.85259
M205 X10 Y10
G0 F6000 X84.719 Y84.411
M205 X8 Y8
G1 F1200 X85.387 Y83.854 E27.89598
G1 X91.009 Y79.762 E28.2429
G1 X91.787 Y79.274 E28.28872
G1 X91.817 Y79.258 E28.29041
G1 X92.476 Y78.952 E28.32666
G1 X92.881 Y78.806 E28.34814
G1 X99.479 Y76.659 E28.6943
G1 X100.374 Y76.435 E28.74033
G1 X100.408 Y76.429 E28.74206
G1 X101.129 Y76.343 E28.77828
G1 X101.557 Y76.329 E28.79965
G1 X108.497 Y76.331 E29.14588
G1 X109.222 Y76.371 E29.18211
G1 X109.676 Y76.437 E29.205
G1 X110.576 Y76.662 E29.25128
G1 X117.168 Y78.812 E29.59721
G1 X117.845 Y79.075 E29.63344
G1 X118.257 Y79.279 E29.65638
G1 X119.039 Y79.77 E29.70244
G1 X124.654 Y83.863 E30.0491
G1 X125.433 Y84.529 E30.10024
G1 X125.453 Y84.549 E30.10165
G1 X126.135 Y85.349 E30.15409
G1 X130.206 Y90.98 E30.50075
G1 X130.681 Y91.741 E30.54551
G1 X130.697 Y91.771 E30.54721
G1 X131.003 Y92.43 E30.58346
G1 X131.154 Y92.849 E30.60568
G1 X133.29 Y99.463 E30.95243
G1 X133.53 Y100.472 E31.00417
G1 X133.535 Y100.504 E31.00579
G1 X133.614 Y101.53 E31.05713
G1 X133.607 Y108.492 E31.40446
G1 X133.523 Y109.536 E31.45672
G1 X133.518 Y109.567 E31.45828
G1 X133.279 Y110.556 E31.50905
G1 X131.128 Y117.173 E31.85617
G1 X130.71 Y118.171 E31.91016
G1 X130.696 Y118.198 E31.91167
G1 X130.178 Y119.037 E31.96087
G1 X126.091 Y124.667 E32.30795
G1 X125.633 Y125.231 E32.3442
G1 X125.281 Y125.589 E32.36925
G1 X124.613 Y126.146 E32.41264
G1 X118.991 Y130.238 E32.75955
G1 X118.213 Y130.726 E32.80537
G1 X118.183 Y130.742 E32.80707
G1 X117.524 Y131.048 E32.84332
G1 X117.119 Y131.194 E32.8648
G1 X110.521 Y133.341 E33.21096
G1 X109.626 Y133.565 E33.25699
G1 X109.592 Y133.571 E33.25871
G1 X108.871 Y133.657 E33.29494
G1 X108.443 Y133.671 E33.3163
G1 X101.503 Y133.669 E33.66254
G1 X100.778 Y133.629 E33.69877
G1 X100.324 Y133.563 E33.72165
G1 X99.424 Y133.338 E33.76794
G1 X92.832 Y131.188 E34.11386
G1 X92.155 Y130.925 E34.1501
G1 X91.743 Y130.721 E34.17303
G1 X90.961 Y130.23 E34.2191
G1 X85.347 Y126.137 E34.56572
G1 X84.568 Y125.471 E34.61685
G1 X84.548 Y125.451 E34.61826
G1 X83.867 Y124.651 E34.67068
G1 X79.793 Y119.017 E35.01755
G1 X79.282 Y118.188 E35.06613
G1 X79.268 Y118.161 E35.06765
G1 X78.969 Y117.499 E35.10389
G1 X78.846 Y117.151 E35.1223
G1 X76.71 Y110.537 E35.46906
G1 X76.47 Y109.528 E35.5208
G1 X76.465 Y109.496 E35.52242
G1 X76.386 Y108.47 E35.57376
G1 X76.393 Y101.508 E35.92109
G1 X76.477 Y100.464 E35.97335
G1 X76.482 Y100.433 E35.97491
G1 X76.721 Y99.444 E36.02568
G1 X78.872 Y92.827 E36.3728
G1 X79.29 Y91.829 E36.42678
G1 X79.304 Y91.802 E36.4283
G1 X79.822 Y90.963 E36.47749
G1 X83.909 Y85.333 E36.82458
G1 X84.367 Y84.769 E36.86083
G1 X84.719 Y84.411 E36.88588
M205 X10 Y10
G0 F6000 X84.995 Y84.7
M205 X8 Y8
G1 F1200 X85.622 Y84.177 E36.92661
G1 X91.244 Y80.085 E37.27353
G1 X91.975 Y79.627 E37.31656
G1 X92.005 Y79.611 E37.31826
G1 X92.644 Y79.316 E37.35337
G1 X93.005 Y79.186 E37.37251
G1 X99.603 Y77.039 E37.71868
G1 X100.444 Y76.829 E37.76192
G1 X100.478 Y76.823 E37.76365
G1 X101.177 Y76.741 E37.79876
G1 X101.557 Y76.729 E37.81773
G1 X108.497 Y76.731 E38.16397
G1 X109.2 Y76.771 E38.1991
G1 X109.606 Y76.831 E38.21957
G1 X110.451 Y77.043 E38.26303
G1 X117.043 Y79.193 E38.60896
G1 X117.699 Y79.449 E38.64409
G1 X118.069 Y79.632 E38.66469
G1 X118.803 Y80.093 E38.70793
G1 X124.418 Y84.186 E39.05459
G1 X125.15 Y84.812 E39.10264
G1 X125.17 Y84.832 E39.10405
G1 X125.81 Y85.584 E39.15332
G1 X129.881 Y91.215 E39.49998
G1 X130.328 Y91.929 E39.542
G1 X130.344 Y91.959 E39.5437
G1 X130.639 Y92.598 E39.57881
G1 X130.773 Y92.972 E39.59863
G1 X132.909 Y99.586 E39.94539
G1 X133.135 Y100.534 E39.99401
G1 X133.14 Y100.566 E39.99563
G1 X133.214 Y101.529 E40.04381
G1 X133.207 Y108.491 E40.39115
G1 X133.128 Y109.472 E40.44025
G1 X133.123 Y109.503 E40.44182
G1 X132.898 Y110.433 E40.48955
G1 X130.747 Y117.05 E40.83668
G1 X130.355 Y117.987 E40.88735
G1 X130.341 Y118.014 E40.88887
G1 X129.854 Y118.802 E40.93509
G1 X125.767 Y124.432 E41.28217
G1 X125.322 Y124.978 E41.31732
G1 X125.005 Y125.3 E41.33986
G1 X124.378 Y125.823 E41.38059
G1 X118.756 Y129.915 E41.72751
G1 X118.025 Y130.373 E41.77054
G1 X117.995 Y130.389 E41.77224
G1 X117.356 Y130.684 E41.80735
G1 X116.995 Y130.814 E41.82649
G1 X110.397 Y132.961 E42.17266
G1 X109.556 Y133.171 E42.21591
G1 X109.522 Y133.177 E42.21763
G1 X108.823 Y133.259 E42.25274
G1 X108.443 Y133.271 E42.27171
G1 X101.503 Y133.269 E42.61795
G1 X100.8 Y133.229 E42.65308
G1 X100.394 Y133.169 E42.67355
G1 X99.549 Y132.957 E42.71701
G1 X92.957 Y130.807 E43.06294
G1 X92.301 Y130.551 E43.09807
G1 X91.931 Y130.368 E43.11867
G1 X91.196 Y129.907 E43.16195
G1 X85.582 Y125.814 E43.50857
G1 X84.851 Y125.188 E43.55659
G1 X84.831 Y125.168 E43.558
G1 X84.191 Y124.417 E43.60722
G1 X80.117 Y118.783 E43.95409
G1 X79.637 Y118.004 E43.99974
G1 X79.623 Y117.977 E44.00126
G1 X79.227 Y117.028 E44.05256
G1 X77.091 Y110.414 E44.39932
G1 X76.865 Y109.466 E44.44794
G1 X76.86 Y109.434 E44.44956
G1 X76.786 Y108.471 E44.49774
G1 X76.793 Y101.509 E44.84508
G1 X76.872 Y100.528 E44.89418
G1 X76.877 Y100.497 E44.89574
G1 X77.102 Y99.567 E44.94348
G1 X79.253 Y92.95 E45.29061
G1 X79.645 Y92.013 E45.34128
G1 X79.659 Y91.986 E45.3428
G1 X80.146 Y91.198 E45.38901
G1 X84.233 Y85.568 E45.7361
G1 X84.678 Y85.022 E45.77124
G1 X84.995 Y84.7 E45.79379
M205 X10 Y10
G0 F6000 X85.271 Y84.99
M205 X8 Y8
G1 F1200 X85.858 Y84.501 E45.8319
G1 X91.48 Y80.409 E46.17882
G1 X92.164 Y79.98 E46.2191
G1 X92.194 Y79.964 E46.22079
G1 X93.128 Y79.567 E46.27143
G1 X99.726 Y77.42 E46.61759
G1 X100.513 Y77.223 E46.65806
G1 X100.547 Y77.217 E46.65979
G1 X101.557 Y77.129 E46.71037
G1 X108.497 Y77.131 E47.05661
G1 X109.503 Y77.219 E47.10699
G1 X109.537 Y77.225 E47.10871
G1 X110.327 Y77.423 E47.14934
G1 X116.919 Y79.573 E47.49527
G1 X117.85 Y79.969 E47.54574
G1 X117.88 Y79.985 E47.54744
G1 X118.568 Y80.416 E47.58794
G1 X124.183 Y84.509 E47.9346
G1 X124.867 Y85.095 E47.97954
G1 X124.887 Y85.115 E47.98095
