;FLAVOR:Marlin
;TIME:5450
;Filament used: 4.04927m
;Layer height: 0.2
;MINX:53.644
;MINY:89.311
;MINZ:0.3
;MAXX:156.316
;MAXY:120.564
;MAXZ:12.175
;Generated with Cura_SteamEngine 4.13.1
M82 ;absolute extrusion mode
G21                                        ; metric values 
G90                                        ; absolute positioning 
M82                                        ; set extruder to absolute mode 
M107                                       ; start with the fan off 
M140 S60           ; Start heating the bed 
G4 S60                                     ; wait 1 minute 
M104 S210         ; start heating the hot end 
M190 S60           ; wait for bed 
M109 S210         ; wait for hotend 
M300 S1000 P500                            ; BEEP heating done 
G28 X0 Y10 Z0                              ; move X/Y to min endstops 
M420 S1                                    ; Enable leveling 
M420 Z2.0                                  ; Set leveling fading height to 2 mm 
G0 Z0.15                                   ; lift nozzle a bit 
G92 E0                                     ; zero the extruded length 
G1 X50 E25 F500                            ; Extrude 25mm of filament in a 5cm line. 
G92 E0                                     ; zero the extruded length again 
G1 E-2 F500                                ; Retract a little 
G1 X120 F4000                              ; Quickly wipe away from the filament line`
G92 E0
G92 E0
G1 F1500 E-6
;LAYER_COUNT:60
;LAYER:0
M106 S76.5
M205 X10 Y10
G1 F600 Z0.375
G0 F6000 X61.989 Y90.817 Z0.375
M205 X8 Y8
;TYPE:SKIRT
G1 F600 Z0.3
G1 F1500 E0
G1 F1200 X62.663 Y90.447 E0.03836
G1 X63.372 Y90.149 E0.07673
G1 X64.108 Y89.927 E0.11508
G1 X64.863 Y89.781 E0.15345
G1 X65.881 Y89.711 E0.20436
G1 X144.089 Y89.711 E4.10617
G1 X144.857 Y89.751 E4.14454
G1 X145.617 Y89.87 E4.18291
G1 X146.36 Y90.068 E4.22128
G1 X147.079 Y90.342 E4.25966
G1 X147.765 Y90.689 E4.29802
G1 X148.679 Y91.307 E4.35306
G1 X148.789 Y91.394 E4.36006
G1 X149.367 Y91.902 E4.39845
G1 X149.889 Y92.467 E4.43683
G1 X150.184 Y92.616 E4.45332
G1 X150.87 Y92.963 E4.49167
G1 X151.548 Y93.401 E4.53194
G1 X152.205 Y93.879 E4.57248
G1 X152.802 Y94.363 E4.61082
G1 X153.346 Y94.907 E4.6492
G1 X153.831 Y95.504 E4.68757
G1 X154.251 Y96.148 E4.72593
G1 X154.602 Y96.833 E4.76433
G1 X154.888 Y97.572 E4.80387
G1 X155.139 Y98.343 E4.84432
G1 X155.338 Y99.086 E4.88269
G1 X155.46 Y99.845 E4.92105
G1 X155.502 Y100.614 E4.95947
G1 X155.495 Y100.758 E4.96666
G1 X155.657 Y101.252 E4.9926
G1 X155.82 Y102.003 E5.03094
G1 X155.904 Y102.768 E5.06933
G1 X155.916 Y103.193 E5.09055
G1 X155.916 Y107.355 E5.29819
G1 X155.876 Y108.123 E5.33656
G1 X155.757 Y108.883 E5.37494
G1 X155.559 Y109.626 E5.4133
G1 X155.499 Y109.952 E5.42984
G1 X155.461 Y110.72 E5.4682
G1 X155.344 Y111.48 E5.50656
G1 X155.136 Y112.263 E5.54698
G1 X154.885 Y113.034 E5.58743
G1 X154.609 Y113.752 E5.62581
G1 X154.26 Y114.437 E5.66416
G1 X153.842 Y115.083 E5.70255
G1 X153.359 Y115.682 E5.74094
G1 X152.817 Y116.227 E5.77929
G1 X152.202 Y116.727 E5.81883
G1 X151.545 Y117.205 E5.85937
G1 X150.9 Y117.624 E5.89774
G1 X150.215 Y117.975 E5.93614
G1 X149.498 Y118.252 E5.97449
G1 X148.86 Y118.426 E6.00748
G1 X148.438 Y118.759 E6.0343
G1 X147.792 Y119.176 E6.07266
G1 X147.107 Y119.525 E6.11101
G1 X146.389 Y119.801 E6.14939
G1 X145.646 Y120.001 E6.18778
G1 X144.886 Y120.122 E6.22617
G1 X144.099 Y120.164 E6.26549
G1 X65.869 Y120.164 E10.1684
G1 X65.101 Y120.124 E10.20677
G1 X64.341 Y120.005 E10.24515
G1 X63.598 Y119.807 E10.28351
G1 X62.879 Y119.533 E10.3219
G1 X62.193 Y119.186 E10.36025
G1 X61.53 Y118.759 E10.3996
G1 X61.425 Y118.683 E10.40606
G1 X60.841 Y118.212 E10.44349
G1 X60.503 Y118.122 E10.46094
G1 X59.784 Y117.848 E10.49933
G1 X59.098 Y117.501 E10.53768
G1 X58.42 Y117.063 E10.57795
G1 X57.763 Y116.585 E10.61849
G1 X57.166 Y116.101 E10.65683
G1 X56.622 Y115.557 E10.69521
G1 X56.137 Y114.96 E10.73359
G1 X55.717 Y114.316 E10.77195
G1 X55.366 Y113.631 E10.81035
G1 X55.08 Y112.892 E10.84988
G1 X54.829 Y112.121 E10.89033
G1 X54.63 Y111.378 E10.92871
G1 X54.508 Y110.619 E10.96706
G1 X54.466 Y109.85 E11.00548
G1 X54.469 Y109.789 E11.00853
G1 X54.303 Y109.283 E11.0351
G1 X54.14 Y108.532 E11.07344
G1 X54.056 Y107.767 E11.11183
G1 X54.044 Y107.342 E11.13305
G1 X54.044 Y103.182 E11.34059
G1 X54.084 Y102.414 E11.37896
G1 X54.203 Y101.654 E11.41734
G1 X54.401 Y100.911 E11.4557
G1 X54.485 Y100.59 E11.47225
G1 X54.522 Y99.821 E11.51066
G1 X54.639 Y99.061 E11.54903
G1 X54.85 Y98.268 E11.58996
G1 X55.098 Y97.508 E11.62985
G1 X55.374 Y96.791 E11.66818
G1 X55.724 Y96.105 E11.7066
G1 X56.142 Y95.46 E11.74495
G1 X56.625 Y94.862 E11.7833
G1 X57.168 Y94.317 E11.82168
G1 X57.776 Y93.823 E11.86076
G1 X58.424 Y93.351 E11.90076
G1 X59.069 Y92.931 E11.93916
G1 X59.753 Y92.58 E11.97751
G1 X60.115 Y92.44 E11.99688
G1 X60.405 Y92.1 E12.01917
G1 X61.246 Y91.34 E12.07572
G1 X61.356 Y91.255 E12.08266
G1 X61.989 Y90.817 E12.12106
M205 X10 Y10
G0 F6000 X62.216 Y91.147
M205 X8 Y8
G1 F1200 X62.874 Y90.79 E12.15841
G1 X63.565 Y90.505 E12.1957
G1 X64.284 Y90.296 E12.23306
G1 X65.02 Y90.164 E12.27036
G1 X65.881 Y90.111 E12.3134
G1 X144.089 Y90.111 E16.21521
G1 X144.836 Y90.151 E16.25253
G1 X145.574 Y90.27 E16.28983
G1 X146.296 Y90.468 E16.32718
G1 X146.992 Y90.741 E16.36448
G1 X147.655 Y91.088 E16.40181
G1 X148.431 Y91.621 E16.44878
G1 X148.541 Y91.708 E16.45578
G1 X149.102 Y92.202 E16.49307
G1 X149.608 Y92.754 E16.53043
G1 X149.679 Y92.851 E16.53643
G1 X150.097 Y93.015 E16.55883
G1 X150.76 Y93.362 E16.59616
G1 X151.312 Y93.725 E16.62912
G1 X151.969 Y94.203 E16.66966
G1 X152.55 Y94.674 E16.70697
G1 X153.077 Y95.205 E16.7443
G1 X153.544 Y95.79 E16.78164
G1 X153.946 Y96.42 E16.81893
G1 X154.279 Y97.091 E16.8563
G1 X154.507 Y97.696 E16.88855
G1 X154.758 Y98.467 E16.92901
G1 X154.951 Y99.19 E16.96634
G1 X155.066 Y99.929 E17.00365
G1 X155.102 Y100.676 E17.04096
G1 X155.094 Y100.809 E17.04761
G1 X155.297 Y101.456 E17.08144
G1 X155.444 Y102.189 E17.11874
G1 X155.516 Y103.193 E17.16896
G1 X155.516 Y107.355 E17.3766
G1 X155.476 Y108.102 E17.41392
G1 X155.357 Y108.84 E17.45122
G1 X155.159 Y109.562 E17.48857
G1 X155.099 Y110.014 E17.51132
G1 X155.054 Y110.761 E17.54865
G1 X154.931 Y111.499 E17.58598
G1 X154.755 Y112.139 E17.61909
G1 X154.504 Y112.91 E17.65954
G1 X154.235 Y113.608 E17.69686
G1 X153.893 Y114.273 E17.73417
G1 X153.481 Y114.898 E17.77152
G1 X153.006 Y115.475 E17.80881
G1 X152.471 Y115.999 E17.84617
G1 X151.966 Y116.403 E17.87843
G1 X151.309 Y116.881 E17.91897
G1 X150.682 Y117.289 E17.95629
G1 X150.014 Y117.626 E17.99361
G1 X149.315 Y117.891 E18.03091
G1 X148.689 Y118.054 E18.06318
G1 X148.203 Y118.434 E18.09396
G1 X147.575 Y118.84 E18.13127
G1 X146.907 Y119.176 E18.16857
G1 X146.206 Y119.439 E18.20593
G1 X145.482 Y119.626 E18.24323
G1 X144.742 Y119.734 E18.28054
G1 X144.099 Y119.764 E18.31266
G1 X65.869 Y119.764 E22.21557
G1 X65.122 Y119.724 E22.25289
G1 X64.384 Y119.605 E22.29018
G1 X63.662 Y119.407 E22.32753
G1 X62.966 Y119.134 E22.36483
G1 X62.303 Y118.787 E22.40217
G1 X61.765 Y118.434 E22.43427
G1 X61.66 Y118.358 E22.44074
G1 X61.078 Y117.888 E22.47806
G1 X60.567 Y117.722 E22.50486
G1 X59.871 Y117.449 E22.54216
G1 X59.208 Y117.102 E22.5795
G1 X58.656 Y116.739 E22.61246
G1 X57.999 Y116.261 E22.65299
G1 X57.418 Y115.79 E22.69031
G1 X56.891 Y115.259 E22.72763
G1 X56.424 Y114.674 E22.76498
G1 X56.022 Y114.044 E22.80226
G1 X55.689 Y113.373 E22.83963
G1 X55.461 Y112.768 E22.87189
G1 X55.21 Y111.997 E22.91234
G1 X55.017 Y111.274 E22.94967
G1 X54.902 Y110.535 E22.98699
G1 X54.866 Y109.788 E23.0243
G1 X54.869 Y109.736 E23.0269
G1 X54.663 Y109.079 E23.06125
G1 X54.516 Y108.346 E23.09855
G1 X54.444 Y107.342 E23.14876
G1 X54.444 Y103.182 E23.35631
G1 X54.484 Y102.435 E23.39363
G1 X54.603 Y101.697 E23.43092
G1 X54.801 Y100.975 E23.46827
G1 X54.885 Y100.527 E23.49101
G1 X54.929 Y99.78 E23.52835
G1 X55.052 Y99.042 E23.56567
G1 X55.23 Y98.392 E23.5993
G1 X55.478 Y97.632 E23.63918
G1 X55.748 Y96.935 E23.67647
G1 X56.091 Y96.27 E23.7138
G1 X56.502 Y95.645 E23.75112
G1 X56.978 Y95.068 E23.78844
G1 X57.513 Y94.545 E23.82577
G1 X58.012 Y94.146 E23.85764
G1 X58.66 Y93.674 E23.89764
G1 X59.287 Y93.266 E23.93496
G1 X59.954 Y92.928 E23.97226
G1 X60.348 Y92.779 E23.99328
G1 X60.766 Y92.302 E24.02492
G1 X61.491 Y91.657 E24.07333
G1 X61.601 Y91.572 E24.08027
G1 X62.216 Y91.147 E24.11757
M205 X10 Y10
G0 F6000 X62.444 Y91.477
M205 X8 Y8
G1 F1200 X63.084 Y91.133 E24.15381
G1 X63.758 Y90.862 E24.19006
G1 X64.457 Y90.666 E24.22628
G1 X65.174 Y90.549 E24.26252
G1 X65.881 Y90.511 E24.29784
G1 X144.089 Y90.511 E28.19966
G1 X144.814 Y90.551 E28.23588
G1 X145.531 Y90.67 E28.27214
G1 X146.23 Y90.868 E28.30839
G1 X146.903 Y91.141 E28.34462
G1 X147.542 Y91.486 E28.38085
G1 X148.183 Y91.934 E28.41987
G1 X148.293 Y92.021 E28.42686
G1 X148.837 Y92.503 E28.46312
G1 X149.325 Y93.041 E28.49936
G1 X149.424 Y93.178 E28.50779
G1 X150.008 Y93.415 E28.53924
G1 X150.647 Y93.76 E28.57547
G1 X151.077 Y94.048 E28.60129
G1 X151.734 Y94.526 E28.64182
G1 X152.297 Y94.985 E28.67806
G1 X152.806 Y95.503 E28.71429
G1 X153.255 Y96.074 E28.75053
G1 X153.639 Y96.691 E28.78679
G1 X153.952 Y97.346 E28.82301
G1 X154.127 Y97.82 E28.84822
G1 X154.378 Y98.591 E28.88867
G1 X154.564 Y99.293 E28.9249
G1 X154.673 Y100.011 E28.96113
G1 X154.701 Y100.737 E28.99738
G1 X154.727 Y100.961 E29.00863
G1 X154.935 Y101.657 E29.04487
G1 X155.065 Y102.372 E29.08113
G1 X155.116 Y103.193 E29.12217
G1 X155.116 Y107.355 E29.32981
G1 X155.076 Y108.08 E29.36603
G1 X154.957 Y108.797 E29.4023
G1 X154.759 Y109.496 E29.43854
G1 X154.683 Y109.684 E29.44866
G1 X154.698 Y110.075 E29.46818
G1 X154.647 Y110.8 E29.50444
G1 X154.516 Y111.514 E29.54065
G1 X154.375 Y112.015 E29.56662
G1 X154.124 Y112.786 E29.60707
G1 X153.861 Y113.463 E29.64331
G1 X153.526 Y114.108 E29.67957
G1 X153.122 Y114.711 E29.71578
G1 X152.654 Y115.267 E29.75204
G1 X152.128 Y115.767 E29.78824
G1 X151.731 Y116.08 E29.81347
G1 X151.074 Y116.558 E29.854
G1 X150.464 Y116.952 E29.89023
G1 X149.814 Y117.277 E29.92649
G1 X149.133 Y117.529 E29.96271
G1 X148.514 Y117.683 E29.99454
G1 X148.479 Y117.716 E29.99694
G1 X148.074 Y118.034 E30.02263
G1 X147.969 Y118.11 E30.02909
G1 X147.358 Y118.503 E30.06534
G1 X146.707 Y118.827 E30.10162
G1 X146.025 Y119.077 E30.13786
G1 X145.32 Y119.25 E30.17407
G1 X144.6 Y119.345 E30.2103
G1 X144.099 Y119.364 E30.23532
G1 X65.869 Y119.364 E34.13823
G1 X65.144 Y119.324 E34.17445
G1 X64.427 Y119.205 E34.21071
G1 X63.728 Y119.007 E34.24696
G1 X63.055 Y118.734 E34.28319
G1 X62.416 Y118.389 E34.31942
G1 X61.999 Y118.11 E34.34445
G1 X61.894 Y118.034 E34.35092
G1 X61.33 Y117.577 E34.38714
G1 X61.251 Y117.497 E34.39274
G1 X60.633 Y117.322 E34.42479
G1 X59.96 Y117.049 E34.46102
G1 X59.321 Y116.704 E34.49725
G1 X58.891 Y116.416 E34.52307
G1 X58.234 Y115.938 E34.56361
G1 X57.671 Y115.479 E34.59985
G1 X57.162 Y114.961 E34.63608
G1 X56.713 Y114.39 E34.67232
G1 X56.329 Y113.773 E34.70858
G1 X56.016 Y113.118 E34.74479
G1 X55.841 Y112.644 E34.77
G1 X55.59 Y111.873 E34.81045
G1 X55.404 Y111.171 E34.84668
G1 X55.295 Y110.453 E34.88292
G1 X55.267 Y109.727 E34.91916
G1 X55.233 Y109.574 E34.92698
G1 X55.025 Y108.878 E34.96322
G1 X54.895 Y108.163 E34.99948
G1 X54.844 Y107.342 E35.04052
G1 X54.844 Y103.182 E35.24806
G1 X54.884 Y102.457 E35.28429
G1 X55.003 Y101.74 E35.32055
G1 X55.201 Y101.041 E35.35679
G1 X55.299 Y100.799 E35.36982
G1 X55.286 Y100.466 E35.38645
G1 X55.337 Y99.741 E35.42271
G1 X55.467 Y99.026 E35.45896
G1 X55.611 Y98.517 E35.48535
G1 X55.859 Y97.757 E35.52524
G1 X56.122 Y97.079 E35.56152
G1 X56.457 Y96.435 E35.59773
G1 X56.862 Y95.832 E35.63397
G1 X57.33 Y95.277 E35.67019
G1 X57.857 Y94.777 E35.70644
G1 X58.247 Y94.469 E35.73123
G1 X58.895 Y93.997 E35.77123
G1 X59.505 Y93.602 E35.80748
G1 X60.154 Y93.277 E35.84369
G1 X60.64 Y93.045 E35.87056
G1 X61.127 Y92.507 E35.90677
G1 X61.735 Y91.974 E35.9471
G1 X61.845 Y91.889 E35.95404
G1 X62.444 Y91.477 E35.99031
M205 X10 Y10
G0 F6000 X62.671 Y91.807
M205 X8 Y8
G1 F1200 X63.293 Y91.477 E36.02544
G1 X63.948 Y91.22 E36.06054
G1 X64.628 Y91.039 E36.09565
G1 X65.325 Y90.936 E36.1308
G1 X65.881 Y90.911 E36.15857
G1 X144.089 Y90.911 E40.06038
G1 X144.792 Y90.951 E40.09551
G1 X145.486 Y91.07 E40.13064
G1 X146.161 Y91.268 E40.16573
G1 X146.81 Y91.54 E40.20084
G1 X147.424 Y91.885 E40.23598
G1 X147.935 Y92.248 E40.26725
G1 X148.045 Y92.335 E40.27425
G1 X148.572 Y92.802 E40.30938
G1 X149.042 Y93.327 E40.34453
G1 X149.266 Y93.542 E40.36002
G1 X149.915 Y93.814 E40.39513
G1 X150.529 Y94.159 E40.43027
G1 X150.842 Y94.371 E40.44913
G1 X151.499 Y94.849 E40.48966
G1 X152.043 Y95.295 E40.52476
G1 X152.534 Y95.8 E40.5599
G1 X152.965 Y96.357 E40.59503
G1 X153.329 Y96.959 E40.63013
G1 X153.623 Y97.599 E40.66527
G1 X153.746 Y97.944 E40.68354
G1 X153.997 Y98.715 E40.72399
G1 X154.177 Y99.395 E40.75909
G1 X154.278 Y100.092 E40.79422
G1 X154.3 Y100.796 E40.82936
G1 X154.38 Y101.178 E40.84884
G1 X154.57 Y101.856 E40.88396
G1 X154.683 Y102.551 E40.91909
G1 X154.716 Y103.193 E40.95117
G1 X154.716 Y107.355 E41.15881
G1 X154.676 Y108.058 E41.19394
G1 X154.557 Y108.752 E41.22907
G1 X154.359 Y109.427 E41.26416
G1 X154.281 Y109.614 E41.27427
G1 X154.297 Y110.134 E41.30023
G1 X154.239 Y110.835 E41.33532
G1 X154.101 Y111.526 E41.37047
G1 X153.994 Y111.891 E41.38945
G1 X153.743 Y112.662 E41.4299
G1 X153.488 Y113.318 E41.46502
G1 X153.16 Y113.941 E41.50014
G1 X152.763 Y114.523 E41.53529
G1 X152.303 Y115.055 E41.57038
G1 X151.785 Y115.532 E41.60551
G1 X151.496 Y115.757 E41.62378
G1 X150.839 Y116.235 E41.66432
G1 X150.247 Y116.616 E41.69944
G1 X149.615 Y116.927 E41.73458
G1 X148.953 Y117.165 E41.76968
G1 X148.317 Y117.315 E41.80228
G1 X147.839 Y117.71 E41.83321
G1 X147.734 Y117.786 E41.83968
G1 X147.141 Y118.166 E41.87482
G1 X146.509 Y118.476 E41.90994
G1 X145.846 Y118.713 E41.94507
G1 X145.161 Y118.872 E41.98015
G1 X144.461 Y118.953 E42.01531
G1 X144.099 Y118.964 E42.03337
G1 X65.869 Y118.964 E45.93628
G1 X65.166 Y118.924 E45.97141
G1 X64.472 Y118.805 E46.00654
G1 X63.797 Y118.607 E46.04164
G1 X63.148 Y118.335 E46.07675
G1 X62.534 Y117.99 E46.11188
G1 X62.129 Y117.71 E46.13645
G1 X61.583 Y117.266 E46.17156
G1 X61.377 Y117.12 E46.18415
G1 X60.702 Y116.922 E46.21925
G1 X60.053 Y116.65 E46.25436
G1 X59.439 Y116.305 E46.28949
G1 X59.126 Y116.093 E46.30835
G1 X58.469 Y115.615 E46.34889
G1 X57.925 Y115.169 E46.38398
G1 X57.434 Y114.664 E46.41912
G1 X57.003 Y114.107 E46.45426
G1 X56.639 Y113.505 E46.48936
G1 X56.345 Y112.865 E46.5245
G1 X56.222 Y112.52 E46.54277
G1 X55.971 Y111.749 E46.58322
G1 X55.791 Y111.069 E46.61831
G1 X55.69 Y110.372 E46.65345
G1 X55.668 Y109.668 E46.68859
G1 X55.58 Y109.357 E46.70472
G1 X55.39 Y108.679 E46.73984
G1 X55.277 Y107.984 E46.77497
G1 X55.244 Y107.342 E46.80705
G1 X55.244 Y103.182 E47.01459
G1 X55.284 Y102.479 E47.04972
G1 X55.403 Y101.785 E47.08485
G1 X55.601 Y101.11 E47.11994
G1 X55.701 Y100.87 E47.13291
G1 X55.687 Y100.407 E47.15602
G1 X55.745 Y99.705 E47.19117
G1 X55.882 Y99.014 E47.22631
G1 X55.991 Y98.641 E47.2457
G1 X56.239 Y97.881 E47.28558
G1 X56.495 Y97.225 E47.32071
G1 X56.824 Y96.602 E47.35586
G1 X57.221 Y96.021 E47.39097
G1 X57.681 Y95.489 E47.42606
G1 X58.199 Y95.012 E47.46119
G1 X58.483 Y94.793 E47.47908
G1 X59.131 Y94.321 E47.51908
G1 X59.722 Y93.939 E47.55419
G1 X60.353 Y93.627 E47.5893
G1 X60.842 Y93.451 E47.61523
G1 X61.006 Y93.23 E47.62896
G1 X61.486 Y92.715 E47.66409
G1 X61.98 Y92.29 E47.6966
G1 X62.09 Y92.205 E47.70353
G1 X62.671 Y91.807 E47.73867
M205 X10 Y10
G0 F6000 X62.897 Y92.138
M205 X8 Y8
G1 F1200 X63.5 Y91.822 E47.77263
G1 X64.137 Y91.58 E47.80663
