;FLAVOR:Marlin
;TIME:10325
;Filament used: 8.0881m
;Layer height: 0.2
;MINX:64.7
;MINY:59.659
;MINZ:0.3
;MAXX:145.3
;MAXY:150.341
;MAXZ:33.375
;Generated with Cura_SteamEngine 4.13.1
M82 ;absolute extrusion mode
G21                                        ; metric values 
G90                                        ; absolute positioning 
M82                                        ; set extruder to absolute mode 
M107                                       ; start with the fan off 
M140 S60           ; Start heating the bed 
G4 S60                                     ; wait 1 minute 
M104 S210         ; start heating the hot end 
M190 S60           ; wait for bed 
M109 S210         ; wait for hotend 
M300 S1000 P500                            ; BEEP heating done 
G28 X0 Y10 Z0                              ; move X/Y to min endstops 
M420 S1                                    ; Enable leveling 
M420 Z2.0                                  ; Set leveling fading height to 2 mm 
G0 Z0.15                                   ; lift nozzle a bit 
G92 E0                                     ; zero the extruded length 
G1 X50 E25 F500                            ; Extrude 25mm of filament in a 5cm line. 
G92 E0                                     ; zero the extruded length again 
G1 E-2 F500                                ; Retract a little 
G1 X120 F4000                              ; Quickly wipe away from the filament line`
G92 E0
G92 E0
G1 F1500 E-6
;LAYER_COUNT:166
;LAYER:0
M106 S76.5
M205 X10 Y10
G1 F600 Z0.375
G0 F6000 X67.102 Y72.055 Z0.375
M205 X8 Y8
;TYPE:SKIRT
G1 F600 Z0.3
G1 F1500 E0
G1 F1200 X67.688 Y71.525 E0.03942
G1 X68.324 Y71.058 E0.07878
G1 X69.004 Y70.657 E0.11817
G1 X69.722 Y70.327 E0.15759
G1 X70.469 Y70.072 E0.19697
G1 X71.238 Y69.893 E0.23636
G1 X72.022 Y69.793 E0.27579
G1 X72.617 Y69.77 E0.3055
G1 X74.811 Y69.77 E0.41496
G1 X74.811 Y67.576 E0.52442
G1 X74.851 Y66.787 E0.56383
G1 X74.97 Y66.007 E0.6032
G1 X75.168 Y65.242 E0.64262
G1 X75.442 Y64.502 E0.68199
G1 X75.79 Y63.793 E0.72139
G1 X76.208 Y63.122 E0.76083
G1 X76.691 Y62.498 E0.8002
G1 X77.096 Y62.061 E0.82993
G1 X77.213 Y61.944 E0.83818
G1 X77.799 Y61.414 E0.8776
G1 X78.435 Y60.947 E0.91697
G1 X79.115 Y60.546 E0.95635
G1 X79.833 Y60.216 E0.99578
G1 X80.58 Y59.961 E1.03516
G1 X81.349 Y59.782 E1.07455
G1 X82.133 Y59.682 E1.11398
G1 X82.728 Y59.659 E1.14368
G1 X118.079 Y59.659 E2.90735
G1 X118.868 Y59.699 E2.94677
G1 X119.648 Y59.818 E2.98613
G1 X120.413 Y60.016 E3.02555
G1 X121.153 Y60.29 E3.06492
G1 X121.862 Y60.638 E3.10433
G1 X122.533 Y61.056 E3.14377
G1 X123.157 Y61.539 E3.18313
G1 X123.594 Y61.944 E3.21286
G1 X123.711 Y62.061 E3.22112
G1 X124.241 Y62.647 E3.26053
G1 X124.708 Y63.283 E3.2999
G1 X125.109 Y63.963 E3.33928
G1 X125.439 Y64.681 E3.37871
G1 X125.694 Y65.428 E3.41809
G1 X125.873 Y66.197 E3.45748
G1 X125.973 Y66.981 E3.49691
G1 X125.996 Y67.576 E3.52662
G1 X125.996 Y69.77 E3.63608
G1 X137.383 Y69.77 E4.20418
G1 X138.172 Y69.81 E4.24359
G1 X138.952 Y69.929 E4.28295
G1 X139.717 Y70.127 E4.32238
G1 X140.457 Y70.401 E4.36175
G1 X141.166 Y70.749 E4.40115
G1 X141.837 Y71.167 E4.44059
G1 X142.461 Y71.65 E4.47996
G1 X142.898 Y72.055 E4.50968
G1 X143.015 Y72.172 E4.51794
G1 X143.545 Y72.758 E4.55736
G1 X144.012 Y73.394 E4.59672
G1 X144.413 Y74.074 E4.63611
G1 X144.743 Y74.792 E4.67553
G1 X144.998 Y75.539 E4.71491
G1 X145.177 Y76.308 E4.7543
G1 X145.277 Y77.092 E4.79373
G1 X145.3 Y77.687 E4.82344
G1 X145.3 Y81.442 E5.01078
G1 X145.26 Y82.231 E5.05019
G1 X145.141 Y83.011 E5.08956
G1 X144.943 Y83.776 E5.12898
G1 X144.669 Y84.516 E5.16835
G1 X144.321 Y85.225 E5.20775
G1 X143.903 Y85.896 E5.24719
G1 X143.42 Y86.52 E5.28656
G1 X143.015 Y86.957 E5.31629
G1 X142.898 Y87.074 E5.32454
G1 X142.312 Y87.604 E5.36396
G1 X141.676 Y88.071 E5.40332
G1 X140.996 Y88.472 E5.44271
G1 X140.278 Y88.802 E5.48213
G1 X139.531 Y89.057 E5.52151
G1 X139.057 Y89.167 E5.54579
G1 X139.025 Y89.291 E5.55218
G1 X138.735 Y90.184 E5.59902
G1 X138.453 Y90.922 E5.63844
G1 X138.098 Y91.627 E5.67782
G1 X137.674 Y92.293 E5.71721
G1 X137.184 Y92.913 E5.75663
G1 X136.635 Y93.48 E5.79601
G1 X135.908 Y94.08 E5.84303
G1 X135.146 Y94.635 E5.89006
G1 X134.485 Y95.067 E5.92946
G1 X133.784 Y95.43 E5.96884
G1 X133.049 Y95.72 E6.00826
G1 X132.289 Y95.935 E6.04767
G1 X131.512 Y96.071 E6.08702
G1 X130.554 Y96.13 E6.13491
G1 X129.614 Y96.13 E6.18181
G1 X128.825 Y96.09 E6.22122
G1 X128.045 Y95.971 E6.26058
G1 X127.28 Y95.773 E6.30001
G1 X126.54 Y95.499 E6.33938
G1 X125.831 Y95.151 E6.37878
G1 X125.022 Y94.635 E6.42665
G1 X124.26 Y94.08 E6.47368
G1 X123.646 Y93.583 E6.51309
G1 X123.085 Y93.027 E6.5525
G1 X122.692 Y92.548 E6.58341
G1 X122.692 Y118.769 E7.89158
G1 X123.16 Y118.177 E7.92923
G1 X123.709 Y117.61 E7.9686
G1 X124.436 Y117.01 E8.01563
G1 X125.198 Y116.455 E8.06266
G1 X125.859 Y116.023 E8.10206
G1 X126.56 Y115.66 E8.14144
G1 X127.295 Y115.37 E8.18086
G1 X128.055 Y115.155 E8.22027
G1 X128.832 Y115.019 E8.25962
G1 X129.79 Y114.96 E8.30751
G1 X130.73 Y114.96 E8.3544
G1 X131.519 Y115 E8.39382
G1 X132.299 Y115.119 E8.43318
G1 X133.064 Y115.317 E8.47261
G1 X133.804 Y115.591 E8.51197
G1 X134.513 Y115.939 E8.55138
G1 X135.322 Y116.455 E8.59925
G1 X136.084 Y117.01 E8.64628
G1 X136.698 Y117.507 E8.68569
G1 X137.259 Y118.063 E8.7251
G1 X137.76 Y118.673 E8.76448
G1 X138.073 Y119.143 E8.79265
G1 X138.172 Y119.148 E8.7976
G1 X138.952 Y119.267 E8.83696
G1 X139.717 Y119.465 E8.87638
G1 X140.457 Y119.739 E8.91575
G1 X141.166 Y120.087 E8.95516
G1 X141.837 Y120.505 E8.9946
G1 X142.461 Y120.988 E9.03396
G1 X142.898 Y121.393 E9.06369
G1 X143.015 Y121.51 E9.07195
G1 X143.545 Y122.096 E9.11136
G1 X144.012 Y122.732 E9.15073
G1 X144.413 Y123.412 E9.19011
G1 X144.743 Y124.13 E9.22954
G1 X144.998 Y124.877 E9.26892
G1 X145.177 Y125.646 E9.30831
G1 X145.277 Y126.43 E9.34774
G1 X145.3 Y127.025 E9.37745
G1 X145.3 Y130.793 E9.56543
G1 X145.26 Y131.582 E9.60485
G1 X145.141 Y132.362 E9.64421
G1 X144.943 Y133.127 E9.68364
G1 X144.669 Y133.867 E9.723
G1 X144.321 Y134.576 E9.76241
G1 X143.903 Y135.247 E9.80185
G1 X143.42 Y135.871 E9.84122
G1 X143.015 Y136.308 E9.87094
G1 X142.898 Y136.425 E9.8792
G1 X142.312 Y136.955 E9.91861
G1 X141.676 Y137.422 E9.95798
G1 X140.996 Y137.823 E9.99737
G1 X140.278 Y138.153 E10.03679
G1 X139.531 Y138.408 E10.07617
G1 X138.762 Y138.587 E10.11556
G1 X137.978 Y138.687 E10.15499
G1 X137.383 Y138.71 E10.1847
G1 X133.461 Y138.71 E10.38037
G1 X133.04 Y140.003 E10.44821
G1 X132.758 Y140.74 E10.48758
G1 X132.402 Y141.446 E10.52702
G1 X131.978 Y142.111 E10.56637
G1 X131.488 Y142.731 E10.6058
G1 X130.938 Y143.297 E10.64517
G1 X130.215 Y143.893 E10.69192
G1 X128.53 Y145.12 E10.79591
G1 X127.868 Y145.552 E10.83535
G1 X127.167 Y145.915 E10.87473
G1 X126.433 Y146.205 E10.9141
G1 X125.673 Y146.42 E10.95351
G1 X124.994 Y146.539 E10.9879
G1 X124.783 Y146.878 E11.00782
G1 X124.3 Y147.502 E11.04719
G1 X123.895 Y147.939 E11.07691
G1 X123.778 Y148.056 E11.08517
G1 X123.192 Y148.586 E11.12459
G1 X122.556 Y149.053 E11.16395
G1 X121.876 Y149.454 E11.20334
G1 X121.158 Y149.784 E11.24276
G1 X120.411 Y150.039 E11.28214
G1 X119.642 Y150.218 E11.32153
G1 X118.858 Y150.318 E11.36096
G1 X118.263 Y150.341 E11.39067
G1 X110.135 Y150.341 E11.79618
G1 X109.346 Y150.301 E11.83559
G1 X108.566 Y150.182 E11.87496
G1 X107.801 Y149.984 E11.91438
G1 X107.061 Y149.71 E11.95375
G1 X106.352 Y149.362 E11.99315
G1 X105.681 Y148.944 E12.03259
G1 X105.057 Y148.461 E12.07196
G1 X104.62 Y148.056 E12.10169
G1 X104.503 Y147.939 E12.10994
G1 X103.973 Y147.353 E12.14936
G1 X103.506 Y146.717 E12.18873
G1 X103.105 Y146.037 E12.22811
G1 X102.775 Y145.319 E12.26753
G1 X102.52 Y144.572 E12.30691
G1 X102.341 Y143.803 E12.34631
G1 X102.241 Y143.019 E12.38574
G1 X102.229 Y142.714 E12.40096
G1 X101.655 Y142.356 E12.43471
G1 X101.193 Y142.009 E12.46354
G1 X98.708 Y139.992 E12.62322
G1 X98.121 Y139.464 E12.66261
G1 X97.59 Y138.879 E12.70202
G1 X97.203 Y138.354 E12.73456
G1 X97.046 Y138.408 E12.74285
G1 X96.277 Y138.587 E12.78224
G1 X95.493 Y138.687 E12.82167
G1 X94.898 Y138.71 E12.85137
G1 X72.617 Y138.71 E13.96298
G1 X71.828 Y138.67 E14.00239
G1 X71.048 Y138.551 E14.04176
G1 X70.283 Y138.353 E14.08118
G1 X69.543 Y138.079 E14.12055
G1 X68.834 Y137.731 E14.15995
G1 X68.163 Y137.313 E14.19939
G1 X67.539 Y136.83 E14.23876
G1 X67.102 Y136.425 E14.26849
G1 X66.985 Y136.308 E14.27674
G1 X66.455 Y135.722 E14.31616
G1 X65.988 Y135.086 E14.35553
G1 X65.587 Y134.406 E14.39491
G1 X65.257 Y133.688 E14.43433
G1 X65.002 Y132.941 E14.47371
G1 X64.823 Y132.172 E14.5131
G1 X64.723 Y131.388 E14.55254
G1 X64.7 Y130.793 E14.58224
G1 X64.7 Y127.025 E14.77023
G1 X64.74 Y126.236 E14.80964
G1 X64.859 Y125.456 E14.84901
G1 X65.057 Y124.691 E14.88843
G1 X65.331 Y123.951 E14.9278
G1 X65.679 Y123.242 E14.9672
G1 X66.097 Y122.571 E15.00664
G1 X66.58 Y121.947 E15.04601
G1 X66.985 Y121.51 E15.07574
G1 X67.102 Y121.393 E15.08399
G1 X67.688 Y120.863 E15.12341
G1 X68.324 Y120.396 E15.16278
G1 X69.004 Y119.995 E15.20216
G1 X69.722 Y119.665 E15.24158
G1 X70.469 Y119.41 E15.28096
G1 X71.238 Y119.231 E15.32036
G1 X72.022 Y119.131 E15.35979
G1 X72.617 Y119.108 E15.38949
G1 X85.468 Y119.108 E16.03063
G1 X87.226 Y115.265 E16.24147
G1 X87.234 Y89.359 E17.53392
G1 X72.617 Y89.359 E18.26317
G1 X71.828 Y89.319 E18.30258
G1 X71.048 Y89.2 E18.34195
G1 X70.283 Y89.002 E18.38137
G1 X69.543 Y88.728 E18.42074
G1 X68.834 Y88.38 E18.46014
G1 X68.163 Y87.962 E18.49958
G1 X67.539 Y87.479 E18.53895
G1 X67.102 Y87.074 E18.56868
G1 X66.985 Y86.957 E18.57693
G1 X66.455 Y86.371 E18.61635
G1 X65.988 Y85.735 E18.65572
G1 X65.587 Y85.055 E18.6951
G1 X65.257 Y84.337 E18.73452
G1 X65.002 Y83.59 E18.7739
G1 X64.823 Y82.821 E18.8133
G1 X64.723 Y82.037 E18.85273
G1 X64.7 Y81.442 E18.88243
G1 X64.7 Y77.687 E19.06977
G1 X64.74 Y76.898 E19.10919
G1 X64.859 Y76.118 E19.14855
G1 X65.057 Y75.353 E19.18797
G1 X65.331 Y74.613 E19.22734
G1 X65.679 Y73.904 E19.26674
G1 X66.097 Y73.233 E19.30619
G1 X66.58 Y72.609 E19.34555
G1 X66.985 Y72.172 E19.37528
G1 X67.102 Y72.055 E19.38353
M205 X10 Y10
G0 F6000 X67.384 Y72.337
M205 X8 Y8
G1 F1200 X67.956 Y71.823 E19.4219
G1 X68.578 Y71.37 E19.46029
G1 X69.243 Y70.984 E19.49865
G1 X69.945 Y70.669 E19.53704
G1 X70.676 Y70.429 E19.57542
G1 X71.427 Y70.266 E19.61376
G1 X72.192 Y70.182 E19.65216
G1 X72.617 Y70.17 E19.67337
G1 X75.211 Y70.17 E19.80278
G1 X75.211 Y67.576 E19.9322
G1 X75.251 Y66.808 E19.97057
G1 X75.37 Y66.048 E20.00895
G1 X75.568 Y65.305 E20.04731
G1 X75.842 Y64.586 E20.0857
G1 X76.189 Y63.9 E20.12405
G1 X76.605 Y63.253 E20.16242
G1 X77.086 Y62.653 E20.20079
G1 X77.495 Y62.226 E20.23029
G1 X78.067 Y61.712 E20.26866
G1 X78.689 Y61.259 E20.30705
G1 X79.354 Y60.873 E20.34541
G1 X80.056 Y60.558 E20.38379
G1 X80.787 Y60.318 E20.42218
G1 X81.538 Y60.155 E20.46052
G1 X82.303 Y60.071 E20.49891
G1 X82.728 Y60.059 E20.52013
G1 X118.079 Y60.059 E22.28379
G1 X118.847 Y60.099 E22.32216
G1 X119.607 Y60.218 E22.36054
G1 X120.35 Y60.416 E22.3989
G1 X121.069 Y60.69 E22.43729
G1 X121.755 Y61.037 E22.47564
G1 X122.402 Y61.453 E22.51402
G1 X123.002 Y61.934 E22.55238
G1 X123.429 Y62.343 E22.58188
G1 X123.943 Y62.915 E22.62025
G1 X124.396 Y63.537 E22.65864
G1 X124.782 Y64.202 E22.697
G1 X125.097 Y64.904 E22.73539
G1 X125.337 Y65.635 E22.77377
G1 X125.5 Y66.386 E22.81211
G1 X125.584 Y67.151 E22.85051
G1 X125.596 Y67.576 E22.87172
G1 X125.596 Y70.17 E23.00113
G1 X137.383 Y70.17 E23.58919
G1 X138.151 Y70.21 E23.62756
G1 X138.911 Y70.329 E23.66594
G1 X139.654 Y70.527 E23.7043
G1 X140.373 Y70.801 E23.74269
G1 X141.059 Y71.148 E23.78104
G1 X141.706 Y71.564 E23.81942
G1 X142.306 Y72.045 E23.85778
G1 X142.733 Y72.454 E23.88728
G1 X143.247 Y73.026 E23.92565
G1 X143.7 Y73.648 E23.96404
G1 X144.086 Y74.313 E24.0024
G1 X144.401 Y75.015 E24.04078
G1 X144.641 Y75.746 E24.07917
G1 X144.804 Y76.497 E24.11751
G1 X144.888 Y77.262 E24.1559
G1 X144.9 Y77.687 E24.17712
G1 X144.9 Y81.442 E24.36445
G1 X144.86 Y82.21 E24.40282
G1 X144.741 Y82.97 E24.4412
G1 X144.543 Y83.713 E24.47956
G1 X144.269 Y84.432 E24.51795
G1 X143.922 Y85.118 E24.5563
G1 X143.506 Y85.765 E24.59468
G1 X143.025 Y86.365 E24.63304
G1 X142.616 Y86.792 E24.66254
G1 X142.044 Y87.306 E24.70091
G1 X141.422 Y87.759 E24.7393
G1 X140.757 Y88.145 E24.77766
G1 X140.055 Y88.46 E24.81605
G1 X139.324 Y88.7 E24.85443
G1 X138.735 Y88.828 E24.8845
G1 X138.644 Y89.168 E24.90206
G1 X138.354 Y90.061 E24.94891
G1 X138.079 Y90.779 E24.98726
G1 X137.731 Y91.465 E25.02564
G1 X137.313 Y92.111 E25.06403
G1 X136.831 Y92.71 E25.10239
G1 X136.289 Y93.255 E25.14073
G1 X135.673 Y93.757 E25.18038
G1 X134.911 Y94.312 E25.22741
G1 X134.266 Y94.731 E25.26578
G1 X133.582 Y95.082 E25.30414
G1 X132.864 Y95.36 E25.34255
G1 X132.122 Y95.562 E25.38092
G1 X131.363 Y95.686 E25.41928
G1 X130.554 Y95.73 E25.45971
G1 X129.614 Y95.73 E25.5066
G1 X128.846 Y95.69 E25.54497
G1 X128.086 Y95.571 E25.58335
G1 X127.343 Y95.373 E25.62171
G1 X126.624 Y95.099 E25.6601
G1 X125.938 Y94.752 E25.69845
G1 X125.257 Y94.312 E25.7389
G1 X124.495 Y93.757 E25.78593
G1 X123.898 Y93.272 E25.82431
G1 X123.354 Y92.728 E25.86269
G1 X122.87 Y92.131 E25.90103
G1 X122.45 Y91.486 E25.93943
G1 X122.292 Y91.178 E25.9567
G1 X122.292 Y119.222 E27.35582
G1 X122.689 Y119.508 E27.38023
G1 X123.031 Y118.979 E27.41166
G1 X123.513 Y118.38 E27.45002
G1 X124.055 Y117.835 E27.48837
G1 X124.671 Y117.333 E27.52801
G1 X125.433 Y116.778 E27.57504
G1 X126.078 Y116.359 E27.61342
G1 X126.762 Y116.008 E27.65177
G1 X127.48 Y115.73 E27.69018
G1 X128.222 Y115.528 E27.72855
G1 X128.981 Y115.404 E27.76692
G1 X129.79 Y115.36 E27.80734
G1 X130.73 Y115.36 E27.85424
G1 X131.498 Y115.4 E27.8926
G1 X132.258 Y115.519 E27.93098
G1 X133.001 Y115.717 E27.96934
G1 X133.72 Y115.991 E28.00773
G1 X134.406 Y116.338 E28.04609
G1 X135.087 Y116.778 E28.08654
G1 X135.849 Y117.333 E28.13357
G1 X136.446 Y117.818 E28.17194
G1 X136.99 Y118.362 E28.21032
G1 X137.474 Y118.959 E28.24867
G1 X137.847 Y119.532 E28.28278
G1 X138.151 Y119.548 E28.29796
G1 X138.911 Y119.667 E28.33634
G1 X139.654 Y119.865 E28.3747
G1 X140.373 Y120.139 E28.41309
G1 X141.059 Y120.486 E28.45145
G1 X141.706 Y120.902 E28.48982
G1 X142.306 Y121.383 E28.52819
G1 X142.733 Y121.792 E28.55769
G1 X143.247 Y122.364 E28.59605
G1 X143.7 Y122.986 E28.63444
G1 X144.086 Y123.651 E28.6728
G1 X144.401 Y124.353 E28.71119
G1 X144.641 Y125.084 E28.74957
G1 X144.804 Y125.835 E28.78791
G1 X144.888 Y126.6 E28.82631
G1 X144.9 Y127.025 E28.84752
G1 X144.9 Y130.793 E29.03551
G1 X144.86 Y131.561 E29.07388
G1 X144.741 Y132.321 E29.11225
G1 X144.543 Y133.064 E29.15062
G1 X144.269 Y133.783 E29.189
G1 X143.922 Y134.469 E29.22736
G1 X143.506 Y135.116 E29.26573
G1 X143.025 Y135.716 E29.3041
G1 X142.616 Y136.143 E29.3336
G1 X142.044 Y136.657 E29.37196
G1 X141.422 Y137.11 E29.41035
G1 X140.757 Y137.496 E29.44871
G1 X140.055 Y137.811 E29.4871
G1 X139.324 Y138.051 E29.52549
G1 X138.573 Y138.214 E29.56383
G1 X137.808 Y138.298 E29.60222
G1 X137.383 Y138.31 E29.62343
G1 X133.17 Y138.31 E29.83362
G1 X132.659 Y139.879 E29.91595
G1 X132.384 Y140.597 E29.9543
G1 X132.035 Y141.282 E29.99266
G1 X131.617 Y141.928 E30.03105
G1 X131.134 Y142.527 E30.06944
G1 X130.591 Y143.072 E30.10782
G1 X129.979 Y143.57 E30.14718
G1 X128.294 Y144.797 E30.25117
G1 X127.65 Y145.217 E30.28953
G1 X126.965 Y145.568 E30.32793
G1 X126.248 Y145.845 E30.36628
G1 X125.506 Y146.047 E30.40465
G1 X124.758 Y146.169 E30.44246
G1 X124.386 Y146.747 E30.47675
G1 X123.905 Y147.347 E30.51512
G1 X123.496 Y147.774 E30.54461
G1 X122.924 Y148.288 E30.58298
G1 X122.302 Y148.741 E30.62137
G1 X121.637 Y149.127 E30.65973
G1 X120.935 Y149.442 E30.69812
G1 X120.204 Y149.682 E30.7365
