;FLAVOR:Marlin
;TIME:2624
;Filament used: 1.50394m
;Layer height: 0.2
;MINX:87.371
;MINY:87.201
;MINZ:0.3
;MAXX:127.851
;MAXY:123.803
;MAXZ:37.575
;Generated with Cura_SteamEngine 4.13.1
M82 ;absolute extrusion mode
G21                                        ; metric values 
G90                                        ; absolute positioning 
M82                                        ; set extruder to absolute mode 
M107                                       ; start with the fan off 
M140 S60           ; Start heating the bed 
G4 S60                                     ; wait 1 minute 
M104 S210         ; start heating the hot end 
M190 S60           ; wait for bed 
M109 S210         ; wait for hotend 
M300 S1000 P500                            ; BEEP heating done 
G28 X0 Y10 Z0                              ; move X/Y to min endstops 
M420 S1                                    ; Enable leveling 
M420 Z2.0                                  ; Set leveling fading height to 2 mm 
G0 Z0.15                                   ; lift nozzle a bit 
G92 E0                                     ; zero the extruded length 
G1 X50 E25 F500                            ; Extrude 25mm of filament in a 5cm line. 
G92 E0                                     ; zero the extruded length again 
G1 E-2 F500                                ; Retract a little 
G1 X120 F4000                              ; Quickly wipe away from the filament line`
G92 E0
G92 E0
G1 F1500 E-6
;LAYER_COUNT:187
;LAYER:0
M106 S76.5
M205 X10 Y10
G1 F600 Z0.375
G0 F6000 X92.576 Y92.425 Z0.375
M205 X8 Y8
;TYPE:SKIRT
G1 F600 Z0.3
G1 F1500 E0
G1 F1200 X92.595 Y92.406 E0.00134
G1 X93.361 Y91.733 E0.05221
G1 X95.412 Y90.159 E0.1812
G1 X96.168 Y89.647 E0.22675
G1 X97.193 Y89.13 E0.28402
G1 X99.585 Y88.138 E0.41321
G1 X100.681 Y87.776 E0.4708
G1 X101.583 Y87.603 E0.51662
G1 X104.145 Y87.267 E0.64553
G1 X105.181 Y87.201 E0.69733
G1 X106.194 Y87.267 E0.74797
G1 X108.758 Y87.603 E0.87698
G1 X109.661 Y87.776 E0.92285
G1 X110.759 Y88.139 E0.98055
G1 X113.147 Y89.13 E1.10954
G1 X114.125 Y89.619 E1.16409
G1 X114.147 Y89.632 E1.16537
G1 X114.925 Y90.157 E1.21219
G1 X116.978 Y91.731 E1.34125
G1 X117.747 Y92.406 E1.3923
G1 X117.764 Y92.423 E1.3935
G1 X118.436 Y93.188 E1.4443
G1 X120.013 Y95.242 E1.5735
G1 X120.526 Y95.999 E1.61912
G1 X121.047 Y97.034 E1.67693
G1 X122.03 Y99.414 E1.8054
G1 X122.294 Y100.159 E1.84483
G1 X122.448 Y100.758 E1.87568
G1 X122.457 Y100.8 E1.87783
G1 X122.583 Y101.579 E1.9172
G1 X122.63 Y102.434 E1.95992
G1 X122.63 Y103.859 E2.03101
G1 X124.045 Y104.889 E2.11833
G1 X124.659 Y105.386 E2.15774
G1 X125.22 Y105.942 E2.19714
G1 X125.721 Y106.552 E2.23653
G1 X126.159 Y107.209 E2.27592
G1 X126.527 Y107.908 E2.31533
G1 X126.871 Y108.782 E2.36219
G1 X127.468 Y110.617 E2.45846
G1 X127.674 Y111.379 E2.49784
G1 X127.802 Y112.158 E2.53723
G1 X127.851 Y112.947 E2.57667
G1 X127.819 Y113.736 E2.61606
G1 X127.708 Y114.518 E2.65547
G1 X127.468 Y115.443 E2.70315
G1 X126.871 Y117.278 E2.79942
G1 X126.589 Y118.016 E2.83883
G1 X126.234 Y118.721 E2.87821
G1 X125.81 Y119.387 E2.9176
G1 X125.32 Y120.006 E2.95699
G1 X124.77 Y120.573 E2.9964
G1 X124.045 Y121.171 E3.04328
G1 X122.482 Y122.309 E3.13974
G1 X121.821 Y122.741 E3.17914
G1 X121.12 Y123.103 E3.2185
G1 X120.385 Y123.393 E3.25792
G1 X119.625 Y123.608 E3.29732
G1 X118.847 Y123.744 E3.33673
G1 X117.891 Y123.803 E3.38451
G1 X115.959 Y123.803 E3.4809
G1 X115.17 Y123.763 E3.52031
G1 X114.39 Y123.644 E3.55968
G1 X113.625 Y123.446 E3.5991
G1 X112.885 Y123.172 E3.63847
G1 X112.176 Y122.824 E3.67787
G1 X111.368 Y122.309 E3.72568
G1 X110.753 Y121.861 E3.76364
G1 X109.661 Y122.222 E3.82102
G1 X108.764 Y122.394 E3.86658
G1 X106.2 Y122.732 E3.99561
G1 X105.159 Y122.799 E4.04765
G1 X104.14 Y122.732 E4.0986
G1 X101.576 Y122.394 E4.22763
G1 X100.679 Y122.222 E4.27319
G1 X99.588 Y121.862 E4.33051
G1 X97.199 Y120.873 E4.45951
G1 X96.169 Y120.354 E4.51705
G1 X95.409 Y119.839 E4.56285
G1 X93.357 Y118.262 E4.69197
G1 X92.595 Y117.592 E4.74259
G1 X92.576 Y117.573 E4.74393
G1 X91.906 Y116.81 E4.79459
G1 X90.331 Y114.76 E4.92356
G1 X89.801 Y113.976 E4.97078
G1 X89.788 Y113.954 E4.97205
G1 X89.296 Y112.968 E5.02703
G1 X88.308 Y110.58 E5.15596
G1 X87.968 Y109.567 E5.20927
G1 X87.962 Y109.544 E5.21045
G1 X87.776 Y108.596 E5.25865
G1 X87.438 Y106.035 E5.38753
G1 X87.371 Y105.014 E5.43857
G1 X87.371 Y104.989 E5.43982
G1 X87.438 Y103.97 E5.49077
G1 X87.776 Y101.406 E5.6198
G1 X87.962 Y100.456 E5.66809
G1 X87.968 Y100.433 E5.66928
G1 X88.308 Y99.42 E5.72259
G1 X89.296 Y97.032 E5.85152
G1 X89.788 Y96.046 E5.90649
G1 X89.801 Y96.024 E5.90777
G1 X90.328 Y95.243 E5.95477
G1 X91.903 Y93.191 E6.08383
G1 X92.576 Y92.425 E6.1347
M205 X10 Y10
G0 F6000 X92.858 Y92.707
M205 X8 Y8
G1 F1200 X92.877 Y92.688 E6.13604
G1 X93.605 Y92.05 E6.18433
G1 X95.656 Y90.476 E6.31332
G1 X96.374 Y89.99 E6.35657
G1 X97.346 Y89.5 E6.41088
G1 X99.738 Y88.508 E6.54007
G1 X100.778 Y88.164 E6.59472
G1 X101.635 Y88 E6.63825
G1 X104.197 Y87.664 E6.76717
G1 X105.181 Y87.601 E6.81636
G1 X106.143 Y87.664 E6.86446
G1 X108.707 Y88 E6.99347
G1 X109.564 Y88.164 E7.037
G1 X110.605 Y88.508 E7.0917
G1 X112.993 Y89.499 E7.22069
G1 X113.922 Y89.963 E7.2725
G1 X113.944 Y89.976 E7.27377
G1 X114.681 Y90.474 E7.31815
G1 X116.734 Y92.048 E7.44721
G1 X117.465 Y92.688 E7.49568
G1 X117.482 Y92.705 E7.49688
G1 X118.119 Y93.432 E7.54511
G1 X119.696 Y95.486 E7.6743
G1 X120.183 Y96.205 E7.71762
G1 X120.678 Y97.187 E7.77249
G1 X121.661 Y99.567 E7.90096
G1 X121.917 Y100.292 E7.93932
G1 X122.057 Y100.841 E7.96758
G1 X122.066 Y100.883 E7.96972
G1 X122.188 Y101.643 E8.00813
G1 X122.23 Y102.434 E8.04765
G1 X122.23 Y104.064 E8.12897
G1 X123.81 Y105.213 E8.22643
G1 X124.407 Y105.697 E8.26478
G1 X124.951 Y106.241 E8.30316
G1 X125.436 Y106.838 E8.34153
G1 X125.855 Y107.483 E8.37991
G1 X126.206 Y108.167 E8.41826
G1 X126.491 Y108.906 E8.45778
G1 X127.088 Y110.741 E8.55405
G1 X127.288 Y111.483 E8.59239
G1 X127.409 Y112.243 E8.63078
G1 X127.451 Y113.011 E8.66915
G1 X127.413 Y113.779 E8.70752
G1 X127.295 Y114.539 E8.74589
G1 X127.088 Y115.319 E8.78615
G1 X126.491 Y117.154 E8.88242
G1 X126.215 Y117.872 E8.9208
G1 X125.867 Y118.558 E8.95917
G1 X125.449 Y119.204 E8.99756
G1 X124.966 Y119.803 E9.03595
G1 X124.424 Y120.348 E9.0743
G1 X123.81 Y120.847 E9.11377
G1 X122.247 Y121.985 E9.21023
G1 X121.602 Y122.405 E9.24863
G1 X120.918 Y122.756 E9.28698
G1 X120.2 Y123.033 E9.32538
G1 X119.458 Y123.235 E9.36374
G1 X118.699 Y123.359 E9.40211
G1 X117.891 Y123.403 E9.44248
G1 X115.959 Y123.403 E9.53887
G1 X115.191 Y123.363 E9.57724
G1 X114.431 Y123.244 E9.61562
G1 X113.688 Y123.046 E9.65398
G1 X112.969 Y122.772 E9.69237
G1 X112.283 Y122.425 E9.73072
G1 X111.603 Y121.985 E9.77113
G1 X110.808 Y121.406 E9.8202
G1 X110.601 Y121.492 E9.83138
G1 X109.564 Y121.834 E9.88586
G1 X108.712 Y121.998 E9.92914
G1 X106.148 Y122.336 E10.05817
G1 X105.159 Y122.399 E10.10761
G1 X104.192 Y122.336 E10.15596
G1 X101.628 Y121.998 E10.28498
G1 X100.776 Y121.834 E10.32827
G1 X99.741 Y121.492 E10.38265
G1 X97.352 Y120.503 E10.51165
G1 X96.375 Y120.011 E10.56622
G1 X95.653 Y119.521 E10.60976
G1 X93.601 Y117.944 E10.73887
G1 X92.877 Y117.31 E10.78688
G1 X92.858 Y117.291 E10.78822
G1 X92.223 Y116.566 E10.83631
G1 X90.648 Y114.516 E10.96528
G1 X90.145 Y113.773 E11.01004
G1 X90.132 Y113.751 E11.01132
G1 X89.665 Y112.815 E11.06351
G1 X88.677 Y110.427 E11.19244
G1 X88.355 Y109.466 E11.243
G1 X88.349 Y109.443 E11.24419
G1 X88.173 Y108.543 E11.28994
G1 X87.835 Y105.982 E11.41882
G1 X87.771 Y105.014 E11.46722
G1 X87.771 Y104.989 E11.46846
G1 X87.834 Y104.022 E11.51681
G1 X88.172 Y101.458 E11.64583
G1 X88.349 Y100.557 E11.69164
G1 X88.355 Y100.534 E11.69283
G1 X88.677 Y99.573 E11.74339
G1 X89.665 Y97.185 E11.87233
G1 X90.132 Y96.249 E11.92451
G1 X90.145 Y96.227 E11.92579
G1 X90.646 Y95.486 E11.97041
G1 X92.221 Y93.434 E12.09947
G1 X92.858 Y92.707 E12.14769
M205 X10 Y10
G0 F6000 X93.141 Y92.99
M205 X8 Y8
G1 F1200 X93.16 Y92.971 E12.14903
G1 X93.848 Y92.368 E12.19467
G1 X95.899 Y90.794 E12.32366
G1 X96.58 Y90.333 E12.36469
G1 X97.499 Y89.869 E12.41605
G1 X99.891 Y88.877 E12.54524
G1 X100.875 Y88.552 E12.59694
G1 X101.687 Y88.396 E12.63819
G1 X104.249 Y88.06 E12.76711
G1 X105.181 Y88.001 E12.8137
G1 X106.091 Y88.06 E12.85919
G1 X108.655 Y88.396 E12.9882
G1 X109.467 Y88.552 E13.02946
G1 X110.452 Y88.878 E13.08122
G1 X112.84 Y89.869 E13.21021
G1 X113.718 Y90.308 E13.25918
G1 X113.74 Y90.321 E13.26046
G1 X114.438 Y90.792 E13.30247
G1 X116.491 Y92.366 E13.43153
G1 X117.182 Y92.971 E13.47735
G1 X117.199 Y92.988 E13.47855
G1 X117.801 Y93.675 E13.52412
G1 X119.378 Y95.729 E13.65332
G1 X119.84 Y96.411 E13.69441
G1 X120.308 Y97.34 E13.74631
G1 X121.291 Y99.72 E13.87478
G1 X121.539 Y100.425 E13.91206
G1 X121.666 Y100.925 E13.9378
G1 X121.675 Y100.967 E13.93994
G1 X121.792 Y101.706 E13.97727
G1 X121.83 Y102.434 E14.01364
G1 X121.83 Y104.279 E14.10569
G1 X122.011 Y104.398 E14.1165
G1 X123.574 Y105.536 E14.21295
G1 X124.155 Y106.008 E14.2503
G1 X124.681 Y106.539 E14.28759
G1 X125.148 Y107.124 E14.32493
G1 X125.55 Y107.755 E14.36226
G1 X125.883 Y108.425 E14.39959
G1 X126.111 Y109.029 E14.4318
G1 X126.708 Y110.864 E14.52807
G1 X126.901 Y111.587 E14.5654
G1 X127.016 Y112.326 E14.60271
G1 X127.051 Y113.073 E14.64002
G1 X127.006 Y113.82 E14.67736
G1 X126.882 Y114.558 E14.71469
G1 X126.708 Y115.196 E14.74769
G1 X126.111 Y117.031 E14.84396
G1 X125.841 Y117.729 E14.8813
G1 X125.499 Y118.394 E14.9186
G1 X125.088 Y119.019 E14.95592
G1 X124.613 Y119.596 E14.99321
G1 X124.078 Y120.12 E15.03057
G1 X123.574 Y120.524 E15.06279
G1 X122.011 Y121.662 E15.15925
G1 X121.384 Y122.069 E15.19655
G1 X120.716 Y122.407 E15.2339
G1 X120.017 Y122.672 E15.27119
G1 X119.293 Y122.861 E15.30852
G1 X118.553 Y122.972 E15.34585
G1 X117.891 Y123.003 E15.37892
G1 X115.959 Y123.003 E15.47531
G1 X115.212 Y122.963 E15.51263
G1 X114.474 Y122.844 E15.54992
G1 X113.752 Y122.646 E15.58727
G1 X113.056 Y122.373 E15.62457
G1 X112.393 Y122.026 E15.6619
G1 X111.839 Y121.662 E15.69498
G1 X110.862 Y120.951 E15.75526
G1 X110.448 Y121.122 E15.77761
G1 X109.467 Y121.446 E15.82915
G1 X108.66 Y121.601 E15.87015
G1 X106.096 Y121.939 E15.99917
G1 X105.159 Y121.999 E16.04601
G1 X104.244 Y121.939 E16.09176
G1 X101.68 Y121.601 E16.22079
G1 X100.873 Y121.446 E16.26178
G1 X99.894 Y121.123 E16.31322
G1 X97.505 Y120.134 E16.44221
G1 X96.581 Y119.668 E16.49384
G1 X95.897 Y119.204 E16.53508
G1 X93.845 Y117.627 E16.66419
G1 X93.16 Y117.027 E16.70962
G1 X93.141 Y117.008 E16.71097
G1 X92.54 Y116.323 E16.75643
G1 X90.965 Y114.273 E16.8854
G1 X90.49 Y113.569 E16.92777
G1 X90.477 Y113.547 E16.92905
G1 X90.035 Y112.662 E16.9784
G1 X89.047 Y110.274 E17.10733
G1 X88.742 Y109.365 E17.15517
G1 X88.736 Y109.342 E17.15635
G1 X88.569 Y108.491 E17.19962
G1 X88.231 Y105.93 E17.3285
G1 X88.171 Y105.014 E17.3743
G1 X88.171 Y104.989 E17.37554
G1 X88.231 Y104.074 E17.42129
G1 X88.569 Y101.51 E17.55032
G1 X88.736 Y100.658 E17.59363
G1 X88.742 Y100.635 E17.59482
G1 X89.047 Y99.726 E17.64265
G1 X90.035 Y97.338 E17.77158
G1 X90.477 Y96.453 E17.82094
G1 X90.49 Y96.431 E17.82221
G1 X90.963 Y95.73 E17.8644
G1 X92.538 Y93.678 E17.99346
G1 X93.141 Y92.99 E18.0391
M205 X10 Y10
G0 F6000 X93.424 Y93.273
M205 X8 Y8
G1 F1200 X93.443 Y93.254 E18.04044
G1 X94.092 Y92.685 E18.0835
G1 X96.143 Y91.111 E18.21248
G1 X96.785 Y90.676 E18.25117
G1 X97.653 Y90.238 E18.29968
G1 X100.045 Y89.246 E18.42887
G1 X100.972 Y88.94 E18.47757
G1 X101.739 Y88.793 E18.51654
G1 X104.301 Y88.457 E18.64545
G1 X105.181 Y88.401 E18.68944
G1 X106.039 Y88.457 E18.73234
G1 X108.603 Y88.793 E18.86135
G1 X109.37 Y88.94 E18.90031
G1 X110.299 Y89.247 E18.94913
G1 X112.687 Y90.238 E19.07812
G1 X113.515 Y90.652 E19.1243
G1 X113.537 Y90.665 E19.12557
G1 X114.195 Y91.109 E19.16518
G1 X116.248 Y92.683 E19.29424
G1 X116.899 Y93.254 E19.33744
G1 X116.916 Y93.271 E19.33864
G1 X117.484 Y93.919 E19.38163
G1 X119.061 Y95.973 E19.51083
G1 X119.497 Y96.616 E19.54958
G1 X119.938 Y97.492 E19.59851
G1 X120.921 Y99.872 E19.72698
G1 X121.161 Y100.558 E19.76324
G1 X121.283 Y101.051 E19.78858
G1 X121.396 Y101.769 E19.82484
G1 X121.43 Y102.434 E19.85806
G1 X121.43 Y104.49 E19.96064
G1 X121.776 Y104.721 E19.98139
G1 X123.339 Y105.859 E20.07785
G1 X123.902 Y106.319 E20.11412
G1 X124.41 Y106.837 E20.15032
G1 X124.859 Y107.408 E20.18656
G1 X125.243 Y108.025 E20.22281
G1 X125.556 Y108.68 E20.25903
G1 X125.73 Y109.153 E20.28417
G1 X126.327 Y110.988 E20.38045
G1 X126.514 Y111.69 E20.41669
G1 X126.622 Y112.408 E20.45291
G1 X126.65 Y113.134 E20.48916
G1 X126.599 Y113.859 E20.52542
G1 X126.468 Y114.573 E20.56164
G1 X126.327 Y115.072 E20.58751
G1 X125.73 Y116.907 E20.68378
G1 X125.468 Y117.584 E20.72
G1 X125.133 Y118.229 E20.75626
G1 X124.729 Y118.832 E20.79247
G1 X124.261 Y119.388 E20.82873
G1 X123.735 Y119.889 E20.86497
G1 X123.339 Y120.201 E20.89012
G1 X121.776 Y121.339 E20.98658
G1 X121.166 Y121.733 E21.02281
G1 X120.516 Y122.058 E21.05906
G1 X119.835 Y122.31 E21.09529
G1 X119.13 Y122.486 E21.13154
G1 X118.41 Y122.583 E21.16779
G1 X117.891 Y122.603 E21.1937
G1 X115.959 Y122.603 E21.29009
G1 X115.234 Y122.563 E21.32631
G1 X114.517 Y122.444 E21.36257
G1 X113.818 Y122.246 E21.39882
G1 X113.145 Y121.973 E21.43505
G1 X112.506 Y121.628 E21.47128
G1 X112.074 Y121.339 E21.49721
G1 X110.916 Y120.496 E21.56867
G1 X110.295 Y120.753 E21.6022
G1 X109.37 Y121.058 E21.65079
G1 X108.608 Y121.204 E21.6895
G1 X106.044 Y121.542 E21.81853
G1 X105.159 Y121.599 E21.86277
G1 X104.296 Y121.542 E21.90592
G1 X101.732 Y121.204 E22.03495
G1 X100.97 Y121.058 E22.07365
G1 X100.047 Y120.753 E22.12215
G1 X97.658 Y119.764 E22.25115
G1 X96.786 Y119.325 E22.29985
G1 X96.14 Y118.887 E22.33879
G1 X94.088 Y117.31 E22.46791
G1 X93.443 Y116.744 E22.51072
G1 X93.424 Y116.725 E22.51206
G1 X92.857 Y116.079 E22.55494
G1 X91.282 Y114.029 E22.68392
G1 X90.834 Y113.366 E22.72384
G1 X90.821 Y113.344 E22.72511
G1 X90.404 Y112.509 E22.77168
G1 X89.416 Y110.121 E22.90061
G1 X89.129 Y109.264 E22.9457
G1 X89.123 Y109.241 E22.94689
G1 X88.966 Y108.439 E22.98766
G1 X88.628 Y105.878 E23.11653
G1 X88.571 Y105.014 E23.15973
G1 X88.571 Y104.989 E23.16098
G1 X88.628 Y104.126 E23.20413
G1 X88.966 Y101.562 E23.33315
G1 X89.123 Y100.759 E23.37397
G1 X89.129 Y100.736 E23.37516
G1 X89.416 Y99.879 E23.42025
G1 X90.404 Y97.491 E23.54918
G1 X90.821 Y96.656 E23.59575
G1 X90.834 Y96.634 E23.59702
G1 X91.28 Y95.973 E23.6368
G1 X92.855 Y93.921 E23.76586
G1 X93.424 Y93.273 E23.80888
M205 X10 Y10
G0 F6000 X93.707 Y93.556
M205 X8 Y8
G1 F1200 X93.726 Y93.537 E23.81022
G1 X94.335 Y93.002 E23.85066
G1 X96.386 Y91.428 E23.97965
G1 X96.991 Y91.019 E24.01608
G1 X97.806 Y90.608 E24.06162
G1 X100.198 Y89.616 E24.19081
G1 X101.069 Y89.328 E24.23658
G1 X101.791 Y89.19 E24.27325
G1 X104.353 Y88.854 E24.40217
G1 X105.181 Y88.801 E24.44356
G1 X105.987 Y88.854 E24.48386
G1 X108.551 Y89.19 E24.61287
G1 X109.273 Y89.328 E24.64954
G1 X110.145 Y89.617 E24.69537
G1 X112.533 Y90.608 E24.82436
G1 X113.311 Y90.996 E24.86774
G1 X113.333 Y91.009 E24.86901
G1 X113.951 Y91.427 E24.90623
G1 X116.004 Y93.001 E25.0353
G1 X116.616 Y93.537 E25.07589
G1 X116.633 Y93.554 E25.07708
G1 X117.167 Y94.162 E25.11746
G1 X118.744 Y96.216 E25.24665
G1 X119.154 Y96.822 E25.28315
G1 X119.568 Y97.645 E25.32912
G1 X120.551 Y100.025 E25.45758
G1 X120.783 Y100.69 E25.49272
G1 X120.892 Y101.135 E25.51558
G1 X121.001 Y101.831 E25.55073
G1 X121.03 Y102.434 E25.58084
G1 X121.03 Y104.721 E25.69494
G1 X121.54 Y105.045 E25.72509
G1 X123.103 Y106.183 E25.82154
G1 X123.648 Y106.629 E25.85668
G1 X124.139 Y107.134 E25.89182
G1 X124.569 Y107.691 E25.92693
