;FLAVOR:Marlin
;TIME:10011
;Filament used: 8.63468m
;Layer height: 0.2
;MINX:69.613
;MINY:53.694
;MINZ:0.3
;MAXX:140.388
;MAXY:156.239
;MAXZ:43.175
;Generated with Cura_SteamEngine 4.13.1
M82 ;absolute extrusion mode
G21                                        ; metric values 
G90                                        ; absolute positioning 
M82                                        ; set extruder to absolute mode 
M107                                       ; start with the fan off 
M140 S60.0           ; Start heating the bed 
G4 S60                                     ; wait 1 minute 
M104 S220.0         ; start heating the hot end 
M190 S60.0           ; wait for bed 
M109 S220.0         ; wait for hotend 
M300 S1000 P500                            ; BEEP heating done 
G28 X0 Y10 Z0                              ; move X/Y to min endstops 
M420 S1                                    ; Enable leveling 
M420 Z2.0                                  ; Set leveling fading height to 2 mm 
G0 Z0.15                                   ; lift nozzle a bit 
G92 E0                                     ; zero the extruded length 
G1 X50 E25 F500                            ; Extrude 25mm of filament in a 5cm line. 
G92 E0                                     ; zero the extruded length again 
G1 E-2 F500                                ; Retract a little 
G1 X120 F4000                              ; Quickly wipe away from the filament line`
G92 E0
G92 E0
G1 F2400 E-3
;LAYER_COUNT:215
;LAYER:0
M106 S76.5
M205 X10 Y10
G1 F600 Z0.375
G0 F6000 X80.734 Y57.157 Z0.375
M205 X8 Y8
;TYPE:SKIRT
G1 F600 Z0.3
G1 F2400 E0
G1 F1200 X81.217 Y56.533 E0.03937
G1 X81.622 Y56.096 E0.06909
G1 X81.739 Y55.979 E0.07735
G1 X82.325 Y55.449 E0.11677
G1 X82.961 Y54.982 E0.15613
G1 X83.641 Y54.581 E0.19552
G1 X84.359 Y54.251 E0.23494
G1 X85.106 Y53.996 E0.27432
G1 X85.875 Y53.817 E0.31371
G1 X86.659 Y53.717 E0.35314
G1 X87.254 Y53.694 E0.38285
G1 X122.747 Y53.695 E2.1536
G1 X123.536 Y53.735 E2.19302
G1 X124.316 Y53.855 E2.23239
G1 X125.081 Y54.052 E2.2718
G1 X125.822 Y54.327 E2.31123
G1 X126.531 Y54.674 E2.35061
G1 X127.201 Y55.092 E2.39001
G1 X127.826 Y55.575 E2.42942
G1 X128.262 Y55.98 E2.45911
G1 X128.379 Y56.097 E2.46736
G1 X128.909 Y56.683 E2.50678
G1 X129.376 Y57.319 E2.54615
G1 X129.777 Y57.999 E2.58553
G1 X130.107 Y58.717 E2.62496
G1 X130.362 Y59.464 E2.66434
G1 X130.541 Y60.233 E2.70373
G1 X130.641 Y61.017 E2.74316
G1 X130.664 Y61.612 E2.77286
G1 X130.664 Y92.221 E4.29995
G1 X131.238 Y92.309 E4.32893
G1 X132.003 Y92.507 E4.36835
G1 X132.743 Y92.781 E4.40772
G1 X133.452 Y93.129 E4.44712
G1 X134.261 Y93.645 E4.49499
G1 X136.373 Y95.183 E4.62534
G1 X136.987 Y95.679 E4.66472
G1 X137.547 Y96.235 E4.70409
G1 X138.049 Y96.845 E4.7435
G1 X138.486 Y97.503 E4.78291
G1 X138.855 Y98.201 E4.8223
G1 X139.198 Y99.074 E4.86909
G1 X140.005 Y101.553 E4.99916
G1 X140.211 Y102.315 E5.03854
G1 X140.339 Y103.094 E5.07793
G1 X140.388 Y103.882 E5.11732
G1 X140.356 Y104.671 E5.15671
G1 X140.245 Y105.453 E5.19612
G1 X140.005 Y106.381 E5.24394
G1 X139.198 Y108.86 E5.37401
G1 X138.916 Y109.598 E5.41342
G1 X138.56 Y110.303 E5.45282
G1 X138.136 Y110.969 E5.49221
G1 X137.646 Y111.588 E5.5316
G1 X137.096 Y112.155 E5.57101
G1 X136.373 Y112.751 E5.61776
G1 X134.261 Y114.289 E5.7481
G1 X133.6 Y114.721 E5.7875
G1 X132.898 Y115.084 E5.82693
G1 X132.164 Y115.374 E5.8663
G1 X131.404 Y115.589 E5.9057
G1 X130.663 Y115.718 E5.94323
G1 X130.663 Y145.121 E7.41015
G1 X130.623 Y145.91 E7.44956
G1 X130.503 Y146.69 E7.48894
G1 X130.306 Y147.455 E7.52835
G1 X130.032 Y148.195 E7.56772
G1 X129.684 Y148.904 E7.60712
G1 X129.333 Y149.477 E7.64064
G1 X129.265 Y149.578 E7.64672
G1 X128.792 Y150.21 E7.6861
G1 X128.257 Y150.791 E7.7255
G1 X127.665 Y151.315 E7.76495
G1 X127.024 Y151.776 E7.80434
G1 X126.34 Y152.17 E7.84372
G1 X125.745 Y152.442 E7.87636
G1 X121.991 Y153.976 E8.07868
G1 X121.218 Y154.246 E8.11953
G1 X121.132 Y154.271 E8.124
G1 X120.633 Y154.398 E8.14969
G1 X116.239 Y155.366 E8.37416
G1 X115.336 Y155.504 E8.41974
G1 X115.214 Y155.522 E8.42589
G1 X110.769 Y156.02 E8.64904
G1 X110.176 Y156.064 E8.6787
G1 X105.242 Y156.239 E8.92502
G1 X104.599 Y156.235 E8.9571
G1 X99.652 Y156.002 E9.20418
G1 X99.06 Y155.952 E9.23382
G1 X94.476 Y155.384 E9.46426
G1 X94.284 Y155.368 E9.47387
G1 X93.707 Y155.269 E9.50308
G1 X89.341 Y154.348 E9.7257
G1 X88.53 Y154.131 E9.76758
G1 X88.481 Y154.115 E9.77015
G1 X88.002 Y153.941 E9.79558
G1 X84.306 Y152.461 E9.99421
G1 X83.589 Y152.131 E10.03358
G1 X82.909 Y151.73 E10.07297
G1 X82.273 Y151.262 E10.11236
G1 X81.687 Y150.732 E10.15178
G1 X81.158 Y150.146 E10.19117
G1 X80.726 Y149.561 E10.22745
G1 X80.657 Y149.458 E10.23364
G1 X80.251 Y148.781 E10.27302
G1 X79.916 Y148.066 E10.31241
G1 X79.655 Y147.32 E10.35184
G1 X79.47 Y146.553 E10.39121
G1 X79.364 Y145.77 E10.43063
G1 X79.337 Y145.117 E10.46323
G1 X79.337 Y115.731 E11.92931
G1 X78.763 Y115.643 E11.95828
G1 X77.998 Y115.445 E11.9977
G1 X77.258 Y115.171 E12.03707
G1 X76.549 Y114.823 E12.07647
G1 X75.74 Y114.307 E12.12434
G1 X73.628 Y112.769 E12.25469
G1 X73.014 Y112.273 E12.29407
G1 X72.454 Y111.717 E12.33344
G1 X71.952 Y111.107 E12.37285
G1 X71.515 Y110.449 E12.41226
G1 X71.146 Y109.751 E12.45165
G1 X70.803 Y108.878 E12.49845
G1 X69.996 Y106.399 E12.62851
G1 X69.79 Y105.637 E12.66789
G1 X69.662 Y104.858 E12.70728
G1 X69.613 Y104.07 E12.74667
G1 X69.645 Y103.281 E12.78606
G1 X69.756 Y102.499 E12.82547
G1 X69.996 Y101.571 E12.87329
G1 X70.803 Y99.092 E13.00336
G1 X71.085 Y98.354 E13.04277
G1 X71.441 Y97.649 E13.08217
G1 X71.865 Y96.983 E13.12156
G1 X72.355 Y96.364 E13.16095
G1 X72.905 Y95.797 E13.20036
G1 X73.628 Y95.201 E13.24711
G1 X75.74 Y93.663 E13.37745
G1 X76.401 Y93.231 E13.41685
G1 X77.103 Y92.868 E13.45628
G1 X77.837 Y92.578 E13.49565
G1 X78.597 Y92.363 E13.53506
G1 X79.337 Y92.234 E13.57253
G1 X79.337 Y61.611 E15.10032
G1 X79.377 Y60.822 E15.13973
G1 X79.496 Y60.042 E15.1791
G1 X79.694 Y59.277 E15.21852
G1 X79.968 Y58.537 E15.25789
G1 X80.316 Y57.828 E15.29729
G1 X80.734 Y57.157 E15.33673
M205 X10 Y10
G0 F6000 X81.131 Y57.288
M205 X8 Y8
G1 F1200 X81.612 Y56.688 E15.3751
G1 X82.021 Y56.261 E15.4046
G1 X82.593 Y55.747 E15.44296
G1 X83.215 Y55.294 E15.48135
G1 X83.88 Y54.908 E15.51971
G1 X84.582 Y54.593 E15.5581
G1 X85.313 Y54.353 E15.59649
G1 X86.064 Y54.19 E15.63483
G1 X86.829 Y54.106 E15.67322
G1 X87.254 Y54.094 E15.69443
G1 X122.747 Y54.095 E17.46519
G1 X123.515 Y54.135 E17.50355
G1 X124.275 Y54.255 E17.54194
G1 X125.018 Y54.452 E17.58029
G1 X125.737 Y54.726 E17.61868
G1 X126.424 Y55.073 E17.65708
G1 X127.07 Y55.489 E17.69541
G1 X127.67 Y55.971 E17.73381
G1 X128.097 Y56.379 E17.76327
G1 X128.611 Y56.951 E17.80164
G1 X129.064 Y57.573 E17.84003
G1 X129.45 Y58.238 E17.87839
G1 X129.765 Y58.94 E17.91677
G1 X130.005 Y59.671 E17.95516
G1 X130.168 Y60.422 E17.9935
G1 X130.252 Y61.187 E18.03189
G1 X130.264 Y61.612 E18.05311
G1 X130.264 Y92.581 E19.59816
G1 X130.437 Y92.59 E19.6068
G1 X131.197 Y92.709 E19.64518
G1 X131.94 Y92.907 E19.68354
G1 X132.659 Y93.181 E19.72193
G1 X133.345 Y93.528 E19.76028
G1 X134.025 Y93.968 E19.80069
G1 X136.137 Y95.506 E19.93103
G1 X136.735 Y95.991 E19.96945
G1 X137.278 Y96.534 E20.00776
G1 X137.763 Y97.132 E20.04617
G1 X138.183 Y97.776 E20.08453
G1 X138.533 Y98.461 E20.12291
G1 X138.818 Y99.197 E20.16228
G1 X139.625 Y101.676 E20.29235
G1 X139.824 Y102.419 E20.33073
G1 X139.946 Y103.179 E20.36913
G1 X139.988 Y103.947 E20.4075
G1 X139.95 Y104.715 E20.44586
G1 X139.833 Y105.475 E20.48423
G1 X139.625 Y106.258 E20.52464
G1 X138.818 Y108.737 E20.65471
G1 X138.542 Y109.455 E20.69309
G1 X138.193 Y110.14 E20.73144
G1 X137.775 Y110.786 E20.76983
G1 X137.292 Y111.384 E20.80818
G1 X136.75 Y111.93 E20.84656
G1 X136.137 Y112.428 E20.88597
G1 X134.025 Y113.966 E21.01631
G1 X133.381 Y114.386 E21.05467
G1 X132.696 Y114.737 E21.09307
G1 X131.979 Y115.014 E21.13142
G1 X131.237 Y115.216 E21.16978
G1 X130.478 Y115.34 E21.20815
G1 X130.263 Y115.352 E21.2189
G1 X130.263 Y145.121 E22.70408
G1 X130.223 Y145.889 E22.74244
G1 X130.104 Y146.649 E22.78082
G1 X129.906 Y147.392 E22.81918
G1 X129.632 Y148.111 E22.85757
G1 X129.285 Y148.798 E22.89597
G1 X129.001 Y149.254 E22.92277
G1 X128.933 Y149.355 E22.92885
G1 X128.471 Y149.97 E22.96722
G1 X127.948 Y150.533 E23.00556
G1 X127.369 Y151.039 E23.04392
G1 X126.74 Y151.483 E23.08233
G1 X126.069 Y151.858 E23.12068
G1 X125.594 Y152.072 E23.14668
G1 X121.84 Y153.606 E23.349
G1 X121.107 Y153.862 E23.38773
G1 X120.547 Y154.008 E23.4166
G1 X116.153 Y154.976 E23.64108
G1 X115.291 Y155.107 E23.68458
G1 X110.724 Y155.623 E23.91388
G1 X110.162 Y155.664 E23.94199
G1 X105.228 Y155.839 E24.1883
G1 X104.618 Y155.836 E24.21874
G1 X99.671 Y155.603 E24.46582
G1 X99.109 Y155.555 E24.49396
G1 X94.513 Y154.985 E24.72501
G1 X94.317 Y154.969 E24.73482
G1 X93.79 Y154.878 E24.7615
G1 X89.424 Y153.957 E24.98411
G1 X88.654 Y153.75 E25.02389
G1 X88.151 Y153.57 E25.05055
G1 X84.455 Y152.09 E25.24918
G1 X83.757 Y151.767 E25.28755
G1 X83.096 Y151.374 E25.32591
G1 X82.479 Y150.914 E25.36431
G1 X81.914 Y150.392 E25.40269
G1 X81.406 Y149.815 E25.44104
G1 X81.058 Y149.339 E25.47046
G1 X80.989 Y149.236 E25.47664
G1 X80.595 Y148.575 E25.51503
G1 X80.271 Y147.877 E25.55342
G1 X80.022 Y147.15 E25.59176
G1 X79.849 Y146.4 E25.63016
G1 X79.755 Y145.637 E25.66852
G1 X79.737 Y145.117 E25.69448
G1 X79.737 Y115.371 E27.17851
G1 X79.564 Y115.362 E27.18715
G1 X78.804 Y115.243 E27.22553
G1 X78.061 Y115.045 E27.26389
G1 X77.342 Y114.771 E27.30228
G1 X76.656 Y114.424 E27.34063
G1 X75.976 Y113.984 E27.38104
G1 X73.864 Y112.446 E27.51139
G1 X73.266 Y111.961 E27.5498
G1 X72.723 Y111.418 E27.58811
G1 X72.238 Y110.82 E27.62653
G1 X71.818 Y110.176 E27.66489
G1 X71.468 Y109.491 E27.70326
G1 X71.183 Y108.755 E27.74264
G1 X70.376 Y106.276 E27.8727
G1 X70.177 Y105.533 E27.91108
G1 X70.055 Y104.773 E27.94948
G1 X70.013 Y104.005 E27.98785
G1 X70.051 Y103.237 E28.02622
G1 X70.168 Y102.477 E28.06458
G1 X70.376 Y101.694 E28.105
G1 X71.183 Y99.215 E28.23507
G1 X71.459 Y98.497 E28.27344
G1 X71.808 Y97.812 E28.3118
G1 X72.226 Y97.166 E28.35018
G1 X72.709 Y96.568 E28.38853
G1 X73.251 Y96.022 E28.42692
G1 X73.864 Y95.524 E28.46632
G1 X75.976 Y93.986 E28.59667
G1 X76.62 Y93.566 E28.63502
G1 X77.305 Y93.215 E28.67342
G1 X78.022 Y92.938 E28.71177
G1 X78.764 Y92.736 E28.75014
G1 X79.523 Y92.612 E28.78851
G1 X79.737 Y92.6 E28.7992
G1 X79.737 Y61.611 E30.34525
G1 X79.777 Y60.843 E30.38361
G1 X79.896 Y60.083 E30.42199
G1 X80.094 Y59.34 E30.46036
G1 X80.368 Y58.621 E30.49874
G1 X80.715 Y57.935 E30.5371
G1 X81.131 Y57.288 E30.57547
M205 X10 Y10
G0 F6000 X81.529 Y57.422
M205 X8 Y8
G1 F1200 X82.187 Y56.661 E30.62566
G1 X82.304 Y56.544 E30.63392
G1 X82.861 Y56.044 E30.67126
G1 X83.467 Y55.607 E30.70854
G1 X84.117 Y55.236 E30.74587
G1 X84.803 Y54.937 E30.78321
G1 X85.517 Y54.713 E30.82054
G1 X86.25 Y54.566 E30.85784
G1 X87.254 Y54.494 E30.90806
G1 X122.747 Y54.495 E32.67881
G1 X123.494 Y54.535 E32.71613
G1 X124.233 Y54.654 E32.75348
G1 X124.954 Y54.852 E32.79078
G1 X125.65 Y55.126 E32.8281
G1 X126.314 Y55.472 E32.86545
G1 X126.936 Y55.887 E32.90276
G1 X127.697 Y56.545 E32.95295
G1 X127.814 Y56.662 E32.9612
G1 X128.314 Y57.219 E32.99854
G1 X128.751 Y57.825 E33.03582
G1 X129.122 Y58.475 E33.07316
G1 X129.421 Y59.161 E33.11049
G1 X129.645 Y59.875 E33.14783
G1 X129.792 Y60.608 E33.18512
G1 X129.864 Y61.612 E33.23534
G1 X129.864 Y92.96 E34.7993
G1 X130.416 Y92.99 E34.82688
G1 X131.154 Y93.109 E34.86417
G1 X131.876 Y93.307 E34.90153
G1 X132.572 Y93.58 E34.93882
G1 X133.235 Y93.927 E34.97616
G1 X133.79 Y94.291 E35.00927
G1 X135.902 Y95.829 E35.13962
G1 X136.482 Y96.301 E35.17692
G1 X137.009 Y96.833 E35.21428
G1 X137.476 Y97.417 E35.25159
G1 X137.877 Y98.048 E35.28889
G1 X138.21 Y98.718 E35.32622
G1 X138.437 Y99.321 E35.35836
G1 X139.244 Y101.8 E35.48843
G1 X139.437 Y102.523 E35.52576
G1 X139.552 Y103.262 E35.56307
G1 X139.588 Y104.009 E35.60039
G1 X139.543 Y104.756 E35.63772
G1 X139.419 Y105.494 E35.67506
G1 X139.244 Y106.134 E35.70816
G1 X138.437 Y108.613 E35.83822
G1 X138.168 Y109.311 E35.87554
G1 X137.826 Y109.976 E35.91285
G1 X137.415 Y110.601 E35.95017
G1 X136.939 Y111.178 E35.98749
G1 X136.405 Y111.702 E36.02481
G1 X135.902 Y112.105 E36.05697
G1 X133.79 Y113.643 E36.18732
G1 X133.162 Y114.05 E36.22465
G1 X132.495 Y114.388 E36.26196
G1 X131.796 Y114.653 E36.29925
G1 X131.072 Y114.842 E36.33658
G1 X130.332 Y114.953 E36.37391
G1 X129.863 Y114.975 E36.39734
G1 X129.863 Y145.121 E37.90133
G1 X129.823 Y145.868 E37.93865
G1 X129.704 Y146.607 E37.97599
G1 X129.506 Y147.328 E38.0133
G1 X129.233 Y148.024 E38.0506
G1 X128.886 Y148.687 E38.08793
G1 X128.602 Y149.131 E38.11422
G1 X128.151 Y149.729 E38.15159
G1 X127.64 Y150.275 E38.1889
G1 X127.073 Y150.763 E38.22622
G1 X126.457 Y151.188 E38.26356
G1 X125.8 Y151.544 E38.30084
G1 X125.443 Y151.702 E38.32032
G1 X121.689 Y153.236 E38.52264
G1 X120.995 Y153.478 E38.55931
G1 X120.461 Y153.617 E38.58684
G1 X116.067 Y154.585 E38.81131
G1 X115.247 Y154.71 E38.85269
G1 X115.13 Y154.726 E38.85859
G1 X110.68 Y155.225 E39.08199
G1 X110.148 Y155.265 E39.1086
G1 X105.214 Y155.44 E39.35492
G1 X104.637 Y155.436 E39.38371
G1 X99.69 Y155.203 E39.63079
G1 X99.158 Y155.158 E39.65742
G1 X94.556 Y154.588 E39.88877
G1 X93.872 Y154.486 E39.92327
G1 X89.506 Y153.565 E40.14589
G1 X88.778 Y153.37 E40.18349
G1 X88.3 Y153.198 E40.20883
G1 X84.604 Y151.718 E40.40746
G1 X83.925 Y151.404 E40.44478
G1 X83.284 Y151.018 E40.48211
G1 X82.688 Y150.567 E40.5194
G1 X82.143 Y150.054 E40.55674
G1 X81.656 Y149.486 E40.59407
G1 X81.321 Y149.013 E40.62299
G1 X80.939 Y148.37 E40.6603
G1 X80.627 Y147.69 E40.69763
G1 X80.39 Y146.981 E40.73492
G1 X80.229 Y146.25 E40.77227
G1 X80.148 Y145.506 E40.8096
G1 X80.137 Y145.117 E40.82902
G1 X80.137 Y114.992 E42.33196
G1 X79.585 Y114.962 E42.35954
G1 X78.847 Y114.843 E42.39684
G1 X78.125 Y114.645 E42.43419
G1 X77.429 Y114.372 E42.47149
G1 X76.766 Y114.025 E42.50882
G1 X76.211 Y113.661 E42.54193
G1 X74.099 Y112.123 E42.67228
G1 X73.519 Y111.651 E42.70959
G1 X72.992 Y111.119 E42.74695
G1 X72.525 Y110.535 E42.78425
G1 X72.124 Y109.904 E42.82155
G1 X71.791 Y109.234 E42.85888
G1 X71.564 Y108.631 E42.89102
G1 X70.757 Y106.152 E43.02109
G1 X70.564 Y105.429 E43.05842
G1 X70.449 Y104.69 E43.09574
G1 X70.413 Y103.943 E43.13305
G1 X70.458 Y103.196 E43.17038
G1 X70.582 Y102.458 E43.20772
G1 X70.757 Y101.818 E43.24082
G1 X71.564 Y99.339 E43.37089
G1 X71.833 Y98.641 E43.40821
G1 X72.175 Y97.976 E43.44551
G1 X72.586 Y97.351 E43.48283
G1 X73.062 Y96.774 E43.52015
G1 X73.596 Y96.25 E43.55748
G1 X74.099 Y95.847 E43.58963
G1 X76.211 Y94.309 E43.71998
G1 X76.839 Y93.902 E43.75731
G1 X77.506 Y93.564 E43.79462
G1 X78.205 Y93.299 E43.83191
G1 X78.929 Y93.11 E43.86924
G1 X79.669 Y92.999 E43.90658
G1 X80.137 Y92.977 E43.92995
G1 X80.137 Y61.611 E45.49481
G1 X80.177 Y60.864 E45.53213
G1 X80.296 Y60.126 E45.56942
G1 X80.494 Y59.404 E45.60677
G1 X80.767 Y58.708 E45.64407
G1 X81.114 Y58.045 E45.68141
G1 X81.529 Y57.422 E45.71875
M205 X10 Y10
G0 F6000 X81.926 Y57.561
M205 X8 Y8
G1 F1200 X82.47 Y56.944 E45.75979
G1 X82.587 Y56.827 E45.76805
G1 X83.128 Y56.343 E45.80426
G1 X83.719 Y55.92 E45.84052
G1 X84.353 Y55.566 E45.87675
G1 X85.022 Y55.283 E45.91299
G1 X85.718 Y55.075 E45.94923
G1 X86.433 Y54.945 E45.98548
G1 X87.254 Y54.894 E46.02652
G1 X122.747 Y54.895 E47.79728
G1 X123.472 Y54.935 E47.8335
G1 X124.189 Y55.054 E47.86976
G1 X124.888 Y55.252 E47.90601
G1 X125.561 Y55.525 E47.94224
G1 X126.2 Y55.87 E47.97847
G1 X126.797 Y56.284 E48.01472
G1 X127.414 Y56.828 E48.05575
G1 X127.531 Y56.945 E48.06401
G1 X128.015 Y57.486 E48.10023
