;FLAVOR:Marlin
;TIME:3535
;Filament used: 2.74091m
;Layer height: 0.2
;MINX:70.298
;MINY:70.072
;MINZ:0.3
;MAXX:139.702
;MAXY:139.927
;MAXZ:4.375
;Generated with Cura_SteamEngine 4.13.1
M82 ;absolute extrusion mode
G21                                        ; metric values 
G90                                        ; absolute positioning 
M82                                        ; set extruder to absolute mode 
M107                                       ; start with the fan off 
M140 S60           ; Start heating the bed 
G4 S60                                     ; wait 1 minute 
M104 S210         ; start heating the hot end 
M190 S60           ; wait for bed 
M109 S210         ; wait for hotend 
M300 S1000 P500                            ; BEEP heating done 
G28 X0 Y10 Z0                              ; move X/Y to min endstops 
M420 S1                                    ; Enable leveling 
M420 Z2.0                                  ; Set leveling fading height to 2 mm 
G0 Z0.15                                   ; lift nozzle a bit 
G92 E0                                     ; zero the extruded length 
G1 X50 E25 F500                            ; Extrude 25mm of filament in a 5cm line. 
G92 E0                                     ; zero the extruded length again 
G1 E-2 F500                                ; Retract a little 
G1 X120 F4000                              ; Quickly wipe away from the filament line`
G92 E0
G92 E0
G1 F1500 E-6
;LAYER_COUNT:21
;LAYER:0
M106 S76.5
M205 X10 Y10
G1 F600 Z0.375
G0 F6000 X79.912 Y72.911 Z0.375
M205 X8 Y8
;TYPE:SKIRT
G1 F600 Z0.3
G1 F1500 E0
G1 F1200 X80.318 Y72.474 E0.02976
G1 X80.435 Y72.357 E0.03801
G1 X81.021 Y71.827 E0.07743
G1 X81.657 Y71.36 E0.1168
G1 X82.337 Y70.959 E0.15618
G1 X83.055 Y70.629 E0.19561
G1 X83.802 Y70.374 E0.23499
G1 X84.571 Y70.195 E0.27438
G1 X85.355 Y70.095 E0.31381
G1 X85.95 Y70.072 E0.34352
G1 X124.117 Y70.072 E2.24768
G1 X124.906 Y70.112 E2.28709
G1 X125.686 Y70.231 E2.32645
G1 X126.451 Y70.429 E2.36588
G1 X127.191 Y70.703 E2.40525
G1 X127.9 Y71.051 E2.44465
G1 X128.571 Y71.469 E2.48409
G1 X129.195 Y71.952 E2.52346
G1 X129.632 Y72.357 E2.55318
G1 X129.749 Y72.474 E2.56144
G1 X130.279 Y73.06 E2.60086
G1 X130.746 Y73.696 E2.64022
G1 X131.147 Y74.376 E2.67961
G1 X131.477 Y75.094 E2.71903
G1 X131.732 Y75.841 E2.75841
G1 X131.911 Y76.61 E2.7978
G1 X132.011 Y77.394 E2.83723
G1 X132.034 Y77.989 E2.86694
G1 X132.034 Y93.632 E3.64737
G1 X132.574 Y93.659 E3.67435
G1 X133.354 Y93.778 E3.71371
G1 X134.119 Y93.976 E3.75313
G1 X134.859 Y94.25 E3.7925
G1 X135.568 Y94.598 E3.83191
G1 X136.239 Y95.016 E3.87135
G1 X136.863 Y95.499 E3.91071
G1 X137.3 Y95.904 E3.94044
G1 X137.417 Y96.021 E3.94869
G1 X137.947 Y96.607 E3.98811
G1 X138.414 Y97.243 E4.02748
G1 X138.815 Y97.923 E4.06686
G1 X139.145 Y98.641 E4.10629
G1 X139.4 Y99.388 E4.14567
G1 X139.579 Y100.157 E4.18506
G1 X139.679 Y100.941 E4.22449
G1 X139.702 Y101.536 E4.2542
G1 X139.702 Y110.731 E4.71294
G1 X139.662 Y111.52 E4.75235
G1 X139.543 Y112.3 E4.79172
G1 X139.345 Y113.065 E4.83114
G1 X139.071 Y113.805 E4.87051
G1 X138.723 Y114.514 E4.90991
G1 X138.305 Y115.185 E4.94935
G1 X137.822 Y115.809 E4.98872
G1 X137.417 Y116.246 E5.01844
G1 X137.3 Y116.363 E5.0267
G1 X136.714 Y116.893 E5.06612
G1 X136.078 Y117.36 E5.10548
G1 X135.398 Y117.761 E5.14487
G1 X134.68 Y118.091 E5.18429
G1 X133.933 Y118.346 E5.22367
G1 X133.164 Y118.525 E5.26306
G1 X132.38 Y118.625 E5.30249
G1 X132.034 Y118.638 E5.31977
G1 X132.034 Y132.01 E5.9869
G1 X131.994 Y132.799 E6.02631
G1 X131.875 Y133.579 E6.06568
G1 X131.677 Y134.344 E6.1051
G1 X131.403 Y135.084 E6.14447
G1 X131.055 Y135.793 E6.18387
G1 X130.637 Y136.464 E6.22331
G1 X130.154 Y137.088 E6.26268
G1 X129.749 Y137.525 E6.29241
G1 X129.632 Y137.642 E6.30066
G1 X129.046 Y138.172 E6.34008
G1 X128.41 Y138.639 E6.37945
G1 X127.73 Y139.04 E6.41883
G1 X127.012 Y139.37 E6.45826
G1 X126.265 Y139.625 E6.49764
G1 X125.496 Y139.804 E6.53703
G1 X124.712 Y139.904 E6.57646
G1 X124.117 Y139.927 E6.60616
G1 X85.95 Y139.927 E8.51032
G1 X85.161 Y139.887 E8.54974
G1 X84.381 Y139.768 E8.5891
G1 X83.616 Y139.57 E8.62853
G1 X82.876 Y139.296 E8.66789
G1 X82.167 Y138.948 E8.7073
G1 X81.496 Y138.53 E8.74674
G1 X80.872 Y138.047 E8.78611
G1 X80.435 Y137.642 E8.81583
G1 X80.318 Y137.525 E8.82409
G1 X79.788 Y136.939 E8.86351
G1 X79.321 Y136.303 E8.90287
G1 X78.92 Y135.623 E8.94226
G1 X78.59 Y134.905 E8.98168
G1 X78.335 Y134.158 E9.02106
G1 X78.156 Y133.389 E9.06045
G1 X78.056 Y132.605 E9.09988
G1 X78.033 Y132.009 E9.12964
G1 X78.035 Y118.639 E9.79667
G1 X77.426 Y118.608 E9.82709
G1 X76.646 Y118.489 E9.86646
G1 X75.881 Y118.291 E9.90588
G1 X75.141 Y118.017 E9.94525
G1 X74.432 Y117.669 E9.98465
G1 X73.761 Y117.251 E10.02409
G1 X73.137 Y116.768 E10.06346
G1 X72.7 Y116.363 E10.09319
G1 X72.583 Y116.246 E10.10144
G1 X72.053 Y115.66 E10.14086
G1 X71.586 Y115.024 E10.18023
G1 X71.185 Y114.344 E10.21961
G1 X70.855 Y113.626 E10.25903
G1 X70.6 Y112.879 E10.29841
G1 X70.421 Y112.11 E10.3378
G1 X70.321 Y111.326 E10.37724
G1 X70.298 Y110.731 E10.40694
G1 X70.298 Y101.536 E10.86568
G1 X70.338 Y100.747 E10.9051
G1 X70.457 Y99.967 E10.94446
G1 X70.655 Y99.202 E10.98389
G1 X70.929 Y98.462 E11.02325
G1 X71.277 Y97.753 E11.06266
G1 X71.695 Y97.082 E11.1021
G1 X72.178 Y96.458 E11.14147
G1 X72.583 Y96.021 E11.17119
G1 X72.7 Y95.904 E11.17945
G1 X73.286 Y95.374 E11.21886
G1 X73.922 Y94.907 E11.25823
G1 X74.602 Y94.506 E11.29762
G1 X75.32 Y94.176 E11.33704
G1 X76.067 Y93.921 E11.37642
G1 X76.836 Y93.742 E11.41581
G1 X77.62 Y93.642 E11.45524
G1 X78.035 Y93.626 E11.47596
G1 X78.033 Y77.99 E12.25604
G1 X78.073 Y77.201 E12.29546
G1 X78.192 Y76.421 E12.33482
G1 X78.39 Y75.656 E12.37425
G1 X78.664 Y74.916 E12.41361
G1 X79.012 Y74.206 E12.45306
G1 X79.429 Y73.536 E12.49243
G1 X79.912 Y72.911 E12.53184
M205 X10 Y10
G0 F6000 X80.308 Y73.066
M205 X8 Y8
G1 F1200 X80.717 Y72.639 E12.56134
G1 X81.289 Y72.125 E12.59971
G1 X81.911 Y71.672 E12.6381
G1 X82.576 Y71.286 E12.67646
G1 X83.278 Y70.971 E12.71484
G1 X84.009 Y70.731 E12.75323
G1 X84.76 Y70.568 E12.79157
G1 X85.525 Y70.484 E12.82996
G1 X85.95 Y70.472 E12.85118
G1 X124.117 Y70.472 E14.75534
G1 X124.885 Y70.512 E14.7937
G1 X125.645 Y70.631 E14.83208
G1 X126.388 Y70.829 E14.87044
G1 X127.107 Y71.103 E14.90883
G1 X127.793 Y71.45 E14.94718
G1 X128.44 Y71.866 E14.98556
G1 X129.04 Y72.347 E15.02393
G1 X129.467 Y72.756 E15.05342
G1 X129.981 Y73.328 E15.09179
G1 X130.434 Y73.95 E15.13018
G1 X130.82 Y74.615 E15.16854
G1 X131.135 Y75.317 E15.20693
G1 X131.375 Y76.048 E15.24531
G1 X131.538 Y76.799 E15.28365
G1 X131.622 Y77.564 E15.32205
G1 X131.634 Y77.989 E15.34326
G1 X131.634 Y94.019 E16.143
G1 X131.785 Y94.019 E16.15053
G1 X132.553 Y94.059 E16.1889
G1 X133.313 Y94.178 E16.22728
G1 X134.056 Y94.376 E16.26564
G1 X134.775 Y94.65 E16.30403
G1 X135.461 Y94.997 E16.34238
G1 X136.108 Y95.413 E16.38076
G1 X136.708 Y95.894 E16.41912
G1 X137.135 Y96.303 E16.44862
G1 X137.649 Y96.875 E16.48699
G1 X138.102 Y97.497 E16.52538
G1 X138.488 Y98.162 E16.56374
G1 X138.803 Y98.864 E16.60213
G1 X139.043 Y99.595 E16.64051
G1 X139.206 Y100.346 E16.67885
G1 X139.29 Y101.111 E16.71725
G1 X139.302 Y101.536 E16.73846
G1 X139.302 Y110.731 E17.1972
G1 X139.262 Y111.499 E17.23557
G1 X139.143 Y112.259 E17.27395
G1 X138.945 Y113.002 E17.31231
G1 X138.671 Y113.721 E17.3507
G1 X138.324 Y114.407 E17.38905
G1 X137.908 Y115.054 E17.42743
G1 X137.427 Y115.654 E17.46579
G1 X137.018 Y116.081 E17.49529
G1 X136.446 Y116.595 E17.53366
G1 X135.824 Y117.048 E17.57205
G1 X135.159 Y117.434 E17.61041
G1 X134.457 Y117.749 E17.64879
G1 X133.726 Y117.989 E17.68718
G1 X132.975 Y118.152 E17.72552
G1 X132.21 Y118.236 E17.76391
G1 X131.634 Y118.248 E17.79266
G1 X131.634 Y132.01 E18.47925
G1 X131.594 Y132.778 E18.51761
G1 X131.475 Y133.538 E18.55599
G1 X131.277 Y134.281 E18.59435
G1 X131.003 Y135 E18.63274
G1 X130.656 Y135.686 E18.6711
G1 X130.24 Y136.333 E18.70947
G1 X129.759 Y136.933 E18.74784
G1 X129.35 Y137.36 E18.77734
G1 X128.778 Y137.874 E18.8157
G1 X128.156 Y138.327 E18.85409
G1 X127.491 Y138.713 E18.89245
G1 X126.789 Y139.028 E18.93084
G1 X126.058 Y139.268 E18.96922
G1 X125.307 Y139.431 E19.00756
G1 X124.542 Y139.515 E19.04596
G1 X124.117 Y139.527 E19.06717
G1 X85.95 Y139.527 E20.97133
G1 X85.182 Y139.487 E21.0097
G1 X84.422 Y139.368 E21.04808
G1 X83.679 Y139.17 E21.08644
G1 X82.96 Y138.896 E21.12483
G1 X82.274 Y138.549 E21.16318
G1 X81.627 Y138.133 E21.20156
G1 X81.027 Y137.652 E21.23992
G1 X80.6 Y137.243 E21.26942
G1 X80.086 Y136.671 E21.30779
G1 X79.633 Y136.049 E21.34618
G1 X79.247 Y135.384 E21.38454
G1 X78.932 Y134.682 E21.42292
G1 X78.692 Y133.951 E21.46131
G1 X78.529 Y133.2 E21.49965
G1 X78.445 Y132.435 E21.53804
G1 X78.433 Y132.009 E21.55931
G1 X78.435 Y118.248 E22.24585
G1 X78.215 Y118.248 E22.25682
G1 X77.447 Y118.208 E22.29519
G1 X76.687 Y118.089 E22.33357
G1 X75.944 Y117.891 E22.37193
G1 X75.225 Y117.617 E22.41032
G1 X74.539 Y117.27 E22.44867
G1 X73.892 Y116.854 E22.48705
G1 X73.292 Y116.373 E22.52541
G1 X72.865 Y115.964 E22.55491
G1 X72.351 Y115.392 E22.59328
G1 X71.898 Y114.77 E22.63167
G1 X71.512 Y114.105 E22.67003
G1 X71.197 Y113.403 E22.70841
G1 X70.957 Y112.672 E22.7468
G1 X70.794 Y111.921 E22.78514
G1 X70.71 Y111.156 E22.82353
G1 X70.698 Y110.731 E22.84475
G1 X70.698 Y101.536 E23.30349
G1 X70.738 Y100.768 E23.34185
G1 X70.857 Y100.008 E23.38023
G1 X71.055 Y99.265 E23.4186
G1 X71.329 Y98.546 E23.45698
G1 X71.676 Y97.86 E23.49534
G1 X72.092 Y97.213 E23.53371
G1 X72.573 Y96.613 E23.57208
G1 X72.982 Y96.186 E23.60158
G1 X73.554 Y95.672 E23.63994
G1 X74.176 Y95.219 E23.67833
G1 X74.841 Y94.833 E23.71669
G1 X75.543 Y94.518 E23.75508
G1 X76.274 Y94.278 E23.79347
G1 X77.025 Y94.115 E23.83181
G1 X77.79 Y94.031 E23.8702
G1 X78.435 Y94.019 E23.90239
G1 X78.433 Y77.99 E24.70208
G1 X78.473 Y77.222 E24.74044
G1 X78.592 Y76.462 E24.77882
G1 X78.79 Y75.719 E24.81718
G1 X79.064 Y75 E24.85557
G1 X79.41 Y74.313 E24.89395
G1 X79.827 Y73.667 E24.93231
G1 X80.308 Y73.066 E24.97071
M205 X10 Y10
G0 F6000 X80.224 Y73.801
M205 X8 Y8
G1 F1200 X80.883 Y73.039 E25.02097
G1 X81 Y72.922 E25.02923
G1 X81.557 Y72.422 E25.06657
G1 X82.163 Y71.985 E25.10385
G1 X82.813 Y71.614 E25.14118
G1 X83.499 Y71.315 E25.17852
G1 X84.213 Y71.091 E25.21585
G1 X84.946 Y70.944 E25.25315
G1 X85.95 Y70.872 E25.30337
G1 X124.117 Y70.872 E27.20753
G1 X124.864 Y70.912 E27.24485
G1 X125.602 Y71.031 E27.28214
G1 X126.324 Y71.229 E27.31949
G1 X127.02 Y71.502 E27.35679
G1 X127.683 Y71.849 E27.39413
G1 X128.306 Y72.264 E27.43147
G1 X129.067 Y72.922 E27.48166
G1 X129.184 Y73.039 E27.48992
G1 X129.684 Y73.596 E27.52726
G1 X130.121 Y74.202 E27.56454
G1 X130.492 Y74.852 E27.60188
G1 X130.791 Y75.538 E27.63921
G1 X131.015 Y76.252 E27.67654
G1 X131.162 Y76.985 E27.71384
G1 X131.234 Y77.989 E27.76406
G1 X131.234 Y94.419 E28.58376
G1 X131.785 Y94.419 E28.61125
G1 X132.532 Y94.459 E28.64857
G1 X133.27 Y94.578 E28.68586
G1 X133.992 Y94.776 E28.72321
G1 X134.688 Y95.049 E28.76051
G1 X135.351 Y95.396 E28.79784
G1 X135.974 Y95.811 E28.83519
G1 X136.735 Y96.469 E28.88538
G1 X136.852 Y96.586 E28.89364
G1 X137.352 Y97.143 E28.93098
G1 X137.789 Y97.749 E28.96825
G1 X138.16 Y98.399 E29.00559
G1 X138.459 Y99.085 E29.04293
G1 X138.683 Y99.799 E29.08026
G1 X138.83 Y100.532 E29.11756
G1 X138.902 Y101.536 E29.16778
G1 X138.902 Y110.731 E29.62652
G1 X138.862 Y111.478 E29.66384
G1 X138.743 Y112.216 E29.70113
G1 X138.545 Y112.938 E29.73848
G1 X138.272 Y113.634 E29.77578
G1 X137.925 Y114.297 E29.81312
G1 X137.51 Y114.92 E29.85046
G1 X136.852 Y115.681 E29.90065
G1 X136.735 Y115.798 E29.90891
G1 X136.178 Y116.298 E29.94625
G1 X135.572 Y116.735 E29.98353
G1 X134.922 Y117.106 E30.02086
G1 X134.236 Y117.405 E30.0582
G1 X133.522 Y117.629 E30.09553
G1 X132.789 Y117.776 E30.13283
G1 X131.785 Y117.848 E30.18305
G1 X131.234 Y117.848 E30.21054
G1 X131.234 Y132.01 E30.91708
G1 X131.194 Y132.757 E30.9544
G1 X131.075 Y133.495 E30.9917
G1 X130.877 Y134.217 E31.02905
G1 X130.604 Y134.913 E31.06635
G1 X130.257 Y135.576 E31.10368
G1 X129.842 Y136.199 E31.14103
G1 X129.184 Y136.96 E31.19122
G1 X129.067 Y137.077 E31.19947
G1 X128.51 Y137.577 E31.23682
G1 X127.904 Y138.014 E31.27409
G1 X127.254 Y138.385 E31.31143
G1 X126.568 Y138.684 E31.34877
G1 X125.854 Y138.908 E31.3861
G1 X125.121 Y139.055 E31.4234
G1 X124.117 Y139.127 E31.47361
G1 X85.95 Y139.127 E33.37777
G1 X85.203 Y139.087 E33.4151
G1 X84.465 Y138.968 E33.45239
G1 X83.743 Y138.77 E33.48974
G1 X83.047 Y138.497 E33.52704
G1 X82.384 Y138.15 E33.56437
G1 X81.761 Y137.735 E33.60172
G1 X81 Y137.077 E33.65191
G1 X80.883 Y136.96 E33.66017
G1 X80.383 Y136.403 E33.69751
G1 X79.946 Y135.797 E33.73478
G1 X79.575 Y135.147 E33.77212
G1 X79.276 Y134.461 E33.80946
G1 X79.052 Y133.747 E33.84679
G1 X78.905 Y133.014 E33.88409
G1 X78.833 Y132.009 E33.93436
G1 X78.835 Y117.848 E34.64085
G1 X78.215 Y117.848 E34.67178
G1 X77.468 Y117.808 E34.7091
G1 X76.73 Y117.689 E34.7464
G1 X76.008 Y117.491 E34.78375
G1 X75.312 Y117.218 E34.82105
G1 X74.649 Y116.871 E34.85838
G1 X74.026 Y116.456 E34.89573
G1 X73.265 Y115.798 E34.94592
G1 X73.148 Y115.681 E34.95417
G1 X72.648 Y115.124 E34.99152
G1 X72.211 Y114.518 E35.02879
G1 X71.84 Y113.868 E35.06613
G1 X71.541 Y113.182 E35.10346
G1 X71.317 Y112.468 E35.1408
G1 X71.17 Y111.735 E35.1781
G1 X71.098 Y110.731 E35.22831
G1 X71.098 Y101.536 E35.68705
G1 X71.138 Y100.789 E35.72438
G1 X71.257 Y100.051 E35.76167
G1 X71.455 Y99.329 E35.79902
G1 X71.728 Y98.633 E35.83632
G1 X72.075 Y97.97 E35.87365
G1 X72.49 Y97.347 E35.911
G1 X73.148 Y96.586 E35.96119
G1 X73.265 Y96.469 E35.96945
G1 X73.822 Y95.969 E36.00679
G1 X74.428 Y95.532 E36.04406
G1 X75.078 Y95.161 E36.0814
G1 X75.764 Y94.862 E36.11874
G1 X76.478 Y94.638 E36.15607
G1 X77.211 Y94.491 E36.19337
G1 X78.215 Y94.419 E36.24359
G1 X78.835 Y94.419 E36.27452
G1 X78.833 Y77.99 E37.09416
G1 X78.873 Y77.243 E37.13149
G1 X78.992 Y76.504 E37.16883
G1 X79.19 Y75.783 E37.20613
G1 X79.463 Y75.087 E37.24343
G1 X79.809 Y74.423 E37.28079
G1 X80.224 Y73.801 E37.31809
M205 X10 Y10
G0 F6000 X80.621 Y73.94
M205 X8 Y8
G1 F1200 X81.166 Y73.322 E37.3592
G1 X81.283 Y73.205 E37.36745
G1 X81.824 Y72.721 E37.40367
G1 X82.415 Y72.298 E37.43993
G1 X83.049 Y71.944 E37.47616
G1 X83.718 Y71.661 E37.5124
G1 X84.414 Y71.453 E37.54864
G1 X85.129 Y71.323 E37.58489
G1 X85.95 Y71.272 E37.62593
G1 X124.117 Y71.272 E39.53009
G1 X124.842 Y71.312 E39.56632
G1 X125.559 Y71.431 E39.60258
G1 X126.258 Y71.629 E39.63882
G1 X126.931 Y71.902 E39.67506
G1 X127.57 Y72.247 E39.71129
G1 X128.167 Y72.661 E39.74753
G1 X128.784 Y73.205 E39.78857
G1 X128.901 Y73.322 E39.79682
G1 X129.385 Y73.863 E39.83304
G1 X129.808 Y74.454 E39.8693
G1 X130.162 Y75.088 E39.90553
G1 X130.445 Y75.757 E39.94177
G1 X130.653 Y76.453 E39.97801
G1 X130.783 Y77.168 E40.01426
G1 X130.834 Y77.989 E40.0553
G1 X130.834 Y94.819 E40.89495
G1 X131.785 Y94.819 E40.9424
G1 X132.51 Y94.859 E40.97863
G1 X133.227 Y94.978 E41.01489
G1 X133.926 Y95.176 E41.05113
G1 X134.599 Y95.449 E41.08737
G1 X135.238 Y95.794 E41.12359
G1 X135.835 Y96.208 E41.15984
G1 X136.452 Y96.752 E41.20088
G1 X136.569 Y96.869 E41.20913
G1 X137.053 Y97.41 E41.24535
G1 X137.476 Y98.001 E41.28161
G1 X137.83 Y98.635 E41.31784
G1 X138.113 Y99.304 E41.35408
G1 X138.321 Y100 E41.39032
G1 X138.451 Y100.715 E41.42657
G1 X138.502 Y101.536 E41.46761
G1 X138.502 Y110.731 E41.92635
G1 X138.462 Y111.456 E41.96258
G1 X138.343 Y112.173 E41.99884
G1 X138.145 Y112.872 E42.03508
G1 X137.872 Y113.545 E42.07132
G1 X137.527 Y114.184 E42.10755
G1 X137.113 Y114.781 E42.14379
G1 X136.569 Y115.398 E42.18483
G1 X136.452 Y115.515 E42.19308
