;FLAVOR:Marlin
;TIME:7979
;Filament used: 6.34938m
;Layer height: 0.2
;MINX:70.443
;MINY:71.117
;MINZ:0.3
;MAXX:139.565
;MAXY:139.005
;MAXZ:25.975
;Generated with Cura_SteamEngine 4.13.1
M82 ;absolute extrusion mode
G21                                        ; metric values 
G90                                        ; absolute positioning 
M82                                        ; set extruder to absolute mode 
M107                                       ; start with the fan off 
M140 S60.0           ; Start heating the bed 
G4 S60                                     ; wait 1 minute 
M104 S220.0         ; start heating the hot end 
M190 S60.0           ; wait for bed 
M109 S220.0         ; wait for hotend 
M300 S1000 P500                            ; BEEP heating done 
G28 X0 Y10 Z0                              ; move X/Y to min endstops 
M420 S1                                    ; Enable leveling 
M420 Z2.0                                  ; Set leveling fading height to 2 mm 
G0 Z0.15                                   ; lift nozzle a bit 
G92 E0                                     ; zero the extruded length 
G1 X50 E25 F500                            ; Extrude 25mm of filament in a 5cm line. 
G92 E0                                     ; zero the extruded length again 
G1 E-2 F500                                ; Retract a little 
G1 X120 F4000                              ; Quickly wipe away from the filament line`
G92 E0
G92 E0
G1 F2400 E-3
;LAYER_COUNT:130
;LAYER:0
M106 S76.5
M205 X10 Y10
G1 F600 Z0.375
G0 F6000 X75.346 Y77.444 Z0.375
M205 X8 Y8
;TYPE:SKIRT
G1 F600 Z0.3
G1 F2400 E0
G1 F1200 X75.957 Y76.944 E0.03939
G1 X76.397 Y76.642 E0.06601
G1 X76.496 Y76.579 E0.07187
G1 X77.183 Y76.19 E0.11126
G1 X77.906 Y75.871 E0.15068
G1 X78.657 Y75.628 E0.19006
G1 X79.429 Y75.462 E0.22946
G1 X80.214 Y75.374 E0.26887
G1 X80.684 Y75.36 E0.29232
G1 X102.318 Y75.36 E1.37165
G1 X103.107 Y75.4 E1.41106
G1 X103.887 Y75.519 E1.45043
G1 X104.652 Y75.717 E1.48985
G1 X105.392 Y75.991 E1.52922
G1 X106.101 Y76.339 E1.56862
G1 X106.772 Y76.757 E1.60806
G1 X107.396 Y77.24 E1.64743
G1 X107.833 Y77.645 E1.67716
G1 X107.95 Y77.762 E1.68541
G1 X108.48 Y78.348 E1.72483
G1 X108.947 Y78.984 E1.7642
G1 X109.348 Y79.664 E1.80358
G1 X109.678 Y80.382 E1.84301
G1 X109.764 Y80.635 E1.85634
G1 X114.521 Y80.635 E2.09366
G1 X114.521 Y79.034 E2.17354
G1 X114.561 Y78.245 E2.21295
G1 X114.68 Y77.465 E2.25232
G1 X114.878 Y76.7 E2.29174
G1 X115.152 Y75.96 E2.33111
G1 X115.5 Y75.251 E2.37051
G1 X115.918 Y74.58 E2.40995
G1 X116.401 Y73.956 E2.44932
G1 X116.806 Y73.519 E2.47905
G1 X116.923 Y73.402 E2.4873
G1 X117.509 Y72.872 E2.52672
G1 X118.145 Y72.405 E2.56609
G1 X118.825 Y72.004 E2.60547
G1 X119.543 Y71.674 E2.64489
G1 X120.29 Y71.419 E2.68427
G1 X121.059 Y71.24 E2.72367
G1 X121.843 Y71.14 E2.7631
G1 X122.438 Y71.117 E2.7928
G1 X131.648 Y71.117 E3.25229
G1 X132.437 Y71.157 E3.29171
G1 X133.217 Y71.276 E3.33107
G1 X133.982 Y71.474 E3.37049
G1 X134.722 Y71.748 E3.40986
G1 X135.431 Y72.096 E3.44927
G1 X136.102 Y72.514 E3.48871
G1 X136.726 Y72.997 E3.52807
G1 X137.163 Y73.402 E3.5578
G1 X137.28 Y73.519 E3.56605
G1 X137.81 Y74.105 E3.60547
G1 X138.277 Y74.741 E3.64484
G1 X138.678 Y75.421 E3.68422
G1 X139.008 Y76.139 E3.72365
G1 X139.263 Y76.886 E3.76303
G1 X139.442 Y77.655 E3.80242
G1 X139.542 Y78.439 E3.84185
G1 X139.565 Y79.034 E3.87156
G1 X139.565 Y107.83 E5.30819
G1 X139.548 Y109.624 E5.3977
G1 X139.5 Y110.412 E5.43709
G1 X139.373 Y111.192 E5.47651
G1 X139.168 Y111.954 E5.51588
G1 X138.887 Y112.692 E5.55528
G1 X138.533 Y113.398 E5.59468
G1 X138.109 Y114.064 E5.63407
G1 X137.62 Y114.684 E5.67347
G1 X137.24 Y115.089 E5.70117
G1 X137.123 Y115.205 E5.70939
G1 X136.535 Y115.732 E5.74879
G1 X135.896 Y116.197 E5.78821
G1 X135.214 Y116.594 E5.82758
G1 X134.495 Y116.921 E5.86699
G1 X133.747 Y117.174 E5.90639
G1 X132.977 Y117.349 E5.94578
G1 X132.193 Y117.446 E5.98519
G1 X131.631 Y117.466 E6.01325
G1 X115.538 Y117.466 E6.81613
G1 X100.399 Y134.548 E7.95488
G1 X98.946 Y136.243 E8.06626
G1 X98.403 Y136.816 E8.10565
G1 X97.804 Y137.331 E8.14506
G1 X97.156 Y137.782 E8.18444
G1 X96.371 Y138.213 E8.22912
G1 X96.291 Y138.251 E8.23354
G1 X95.561 Y138.553 E8.27295
G1 X94.805 Y138.78 E8.31234
G1 X94.029 Y138.929 E8.35176
G1 X92.944 Y139.005 E8.40602
G1 X88.061 Y139.005 E8.64963
G1 X87.272 Y138.965 E8.68905
G1 X86.492 Y138.846 E8.72841
G1 X85.727 Y138.648 E8.76784
G1 X85.148 Y138.441 E8.79851
G1 X85.071 Y138.41 E8.80265
G1 X84.354 Y138.078 E8.84207
G1 X83.675 Y137.676 E8.88144
G1 X83.04 Y137.207 E8.92083
G1 X82.499 Y136.72 E8.95714
G1 X77.485 Y131.761 E9.30897
G1 X76.952 Y131.178 E9.34838
G1 X76.687 Y130.837 E9.36993
G1 X71.98 Y124.438 E9.76624
G1 X71.545 Y123.779 E9.80564
G1 X71.178 Y123.079 E9.84507
G1 X70.851 Y122.246 E9.88971
G1 X70.831 Y122.185 E9.89292
G1 X70.623 Y121.423 E9.93232
G1 X70.494 Y120.644 E9.97172
G1 X70.443 Y119.755 E10.01614
G1 X70.443 Y88.364 E11.58225
G1 X70.483 Y87.575 E11.62166
G1 X70.621 Y86.707 E11.66551
G1 X70.631 Y86.661 E11.66786
G1 X70.838 Y85.899 E11.70725
G1 X71.161 Y85.072 E11.75155
G1 X73.493 Y79.977 E12.0311
G1 X73.857 Y79.276 E12.0705
G1 X74.291 Y78.616 E12.10991
G1 X74.789 Y78.003 E12.14932
G1 X75.346 Y77.444 E12.18869
M205 X10 Y10
G0 F6000 X75.674 Y77.687
M205 X8 Y8
G1 F1200 X76.276 Y77.207 E12.2271
G1 X76.711 Y76.917 E12.25318
G1 X77.381 Y76.538 E12.29158
G1 X78.086 Y76.231 E12.32995
G1 X78.819 Y75.999 E12.36831
G1 X79.572 Y75.844 E12.40666
G1 X80.684 Y75.76 E12.4623
G1 X102.318 Y75.76 E13.54162
G1 X103.086 Y75.8 E13.57999
G1 X103.846 Y75.919 E13.61837
G1 X104.589 Y76.117 E13.65673
G1 X105.308 Y76.391 E13.69512
G1 X105.994 Y76.738 E13.73347
G1 X106.641 Y77.154 E13.77185
G1 X107.241 Y77.635 E13.81021
G1 X107.668 Y78.044 E13.83971
G1 X108.182 Y78.616 E13.87808
G1 X108.635 Y79.238 E13.91647
G1 X109.021 Y79.903 E13.95483
G1 X109.336 Y80.605 E13.99321
G1 X109.477 Y81.035 E14.01579
G1 X114.921 Y81.035 E14.28739
G1 X114.921 Y79.034 E14.38722
G1 X114.961 Y78.266 E14.42559
G1 X115.08 Y77.506 E14.46397
G1 X115.278 Y76.763 E14.50233
G1 X115.552 Y76.044 E14.54072
G1 X115.899 Y75.358 E14.57907
G1 X116.315 Y74.711 E14.61745
G1 X116.796 Y74.111 E14.65581
G1 X117.205 Y73.684 E14.68531
G1 X117.777 Y73.17 E14.72368
G1 X118.399 Y72.717 E14.76207
G1 X119.064 Y72.331 E14.80043
G1 X119.766 Y72.016 E14.83882
G1 X120.497 Y71.776 E14.8772
G1 X121.248 Y71.613 E14.91554
G1 X122.013 Y71.529 E14.95394
G1 X122.438 Y71.517 E14.97515
G1 X131.648 Y71.517 E15.43464
G1 X132.416 Y71.557 E15.47301
G1 X133.176 Y71.676 E15.51138
G1 X133.919 Y71.874 E15.54975
G1 X134.638 Y72.148 E15.58813
G1 X135.324 Y72.495 E15.62649
G1 X135.971 Y72.911 E15.66486
G1 X136.571 Y73.392 E15.70323
G1 X136.998 Y73.801 E15.73273
G1 X137.512 Y74.373 E15.77109
G1 X137.965 Y74.995 E15.80948
G1 X138.351 Y75.66 E15.84784
G1 X138.666 Y76.362 E15.88623
G1 X138.906 Y77.093 E15.92462
G1 X139.069 Y77.844 E15.96296
G1 X139.153 Y78.609 E16.00135
G1 X139.165 Y79.034 E16.02256
G1 X139.165 Y107.826 E17.459
G1 X139.148 Y109.62 E17.54851
G1 X139.1 Y110.388 E17.5869
G1 X138.974 Y111.146 E17.62523
G1 X138.769 Y111.888 E17.66364
G1 X138.488 Y112.604 E17.70201
G1 X138.135 Y113.287 E17.74037
G1 X137.713 Y113.93 E17.77874
G1 X137.226 Y114.525 E17.8171
G1 X136.841 Y114.921 E17.84466
G1 X136.267 Y115.433 E17.88303
G1 X135.644 Y115.884 E17.9214
G1 X134.977 Y116.266 E17.95975
G1 X134.274 Y116.578 E17.99812
G1 X133.542 Y116.815 E18.03651
G1 X132.789 Y116.975 E18.07491
G1 X132.024 Y117.056 E18.11329
G1 X131.631 Y117.066 E18.13291
G1 X115.358 Y117.066 E18.94477
G1 X100.108 Y134.273 E20.09186
G1 X98.643 Y135.983 E20.2042
G1 X98.113 Y136.54 E20.24256
G1 X97.527 Y137.039 E20.28095
G1 X96.894 Y137.475 E20.3193
G1 X96.199 Y137.851 E20.35872
G1 X96.119 Y137.889 E20.36314
G1 X95.408 Y138.183 E20.40153
G1 X94.67 Y138.401 E20.43992
G1 X93.914 Y138.541 E20.47828
G1 X92.944 Y138.605 E20.52678
G1 X88.061 Y138.605 E20.77039
G1 X87.293 Y138.565 E20.80876
G1 X86.533 Y138.446 E20.84714
G1 X85.79 Y138.248 E20.8855
G1 X85.297 Y138.07 E20.91165
G1 X85.22 Y138.039 E20.91579
G1 X84.523 Y137.715 E20.95414
G1 X83.863 Y137.32 E20.99251
G1 X83.247 Y136.859 E21.0309
G1 X82.78 Y136.435 E21.06237
G1 X77.766 Y131.476 E21.4142
G1 X77.248 Y130.908 E21.45255
G1 X77.009 Y130.6 E21.472
G1 X72.302 Y124.201 E21.86831
G1 X71.879 Y123.558 E21.90671
G1 X71.525 Y122.876 E21.94505
G1 X71.231 Y122.121 E21.98547
G1 X71.211 Y122.06 E21.98867
G1 X71.01 Y121.318 E22.02702
G1 X70.887 Y120.559 E22.06538
G1 X70.843 Y119.755 E22.10556
G1 X70.843 Y88.364 E23.67166
G1 X70.883 Y87.596 E23.71003
G1 X71.012 Y86.792 E23.75065
G1 X71.022 Y86.746 E23.753
G1 X71.224 Y86.004 E23.79137
G1 X71.524 Y85.238 E23.83241
G1 X73.856 Y80.143 E24.11196
G1 X74.212 Y79.461 E24.15034
G1 X74.637 Y78.82 E24.18871
G1 X75.126 Y78.227 E24.22706
G1 X75.674 Y77.687 E24.26544
M205 X10 Y10
G0 F6000 X76.002 Y77.932
M205 X8 Y8
G1 F1200 X76.827 Y77.317 E24.31678
G1 X76.926 Y77.254 E24.32263
G1 X77.578 Y76.887 E24.35996
G1 X78.265 Y76.591 E24.39728
G1 X78.979 Y76.371 E24.43456
G1 X79.714 Y76.228 E24.47191
G1 X80.684 Y76.16 E24.52042
G1 X102.318 Y76.16 E25.59975
G1 X103.065 Y76.2 E25.63707
G1 X103.803 Y76.319 E25.67437
G1 X104.525 Y76.517 E25.71172
G1 X105.221 Y76.79 E25.74902
G1 X105.884 Y77.137 E25.78635
G1 X106.507 Y77.552 E25.82369
G1 X107.268 Y78.21 E25.87389
G1 X107.385 Y78.327 E25.88214
G1 X107.885 Y78.884 E25.91948
G1 X108.322 Y79.49 E25.95676
G1 X108.693 Y80.14 E25.9941
G1 X108.992 Y80.826 E26.03143
G1 X109.183 Y81.435 E26.06327
G1 X115.321 Y81.435 E26.3695
G1 X115.321 Y79.034 E26.48929
G1 X115.361 Y78.287 E26.52661
G1 X115.48 Y77.549 E26.5639
G1 X115.678 Y76.827 E26.60125
G1 X115.951 Y76.131 E26.63855
G1 X116.298 Y75.468 E26.67589
G1 X116.713 Y74.845 E26.71323
G1 X117.371 Y74.084 E26.76342
G1 X117.488 Y73.967 E26.77168
G1 X118.045 Y73.467 E26.80902
G1 X118.651 Y73.03 E26.84629
G1 X119.301 Y72.659 E26.88363
G1 X119.987 Y72.36 E26.92097
G1 X120.701 Y72.136 E26.9583
G1 X121.434 Y71.989 E26.9956
G1 X122.438 Y71.917 E27.04582
G1 X131.648 Y71.917 E27.50531
G1 X132.395 Y71.957 E27.54263
G1 X133.133 Y72.076 E27.57992
G1 X133.855 Y72.274 E27.61727
G1 X134.551 Y72.547 E27.65457
G1 X135.214 Y72.894 E27.69191
G1 X135.837 Y73.309 E27.72925
G1 X136.598 Y73.967 E27.77944
G1 X136.715 Y74.084 E27.7877
G1 X137.215 Y74.641 E27.82504
G1 X137.652 Y75.247 E27.86232
G1 X138.023 Y75.897 E27.89965
G1 X138.322 Y76.583 E27.93699
G1 X138.546 Y77.297 E27.97432
G1 X138.693 Y78.03 E28.01162
G1 X138.765 Y79.034 E28.06184
G1 X138.765 Y107.822 E29.49808
G1 X138.748 Y109.616 E29.58758
G1 X138.701 Y110.363 E29.62493
G1 X138.574 Y111.1 E29.66224
G1 X138.37 Y111.82 E29.69957
G1 X138.09 Y112.513 E29.73686
G1 X137.737 Y113.173 E29.7742
G1 X137.316 Y113.792 E29.81155
G1 X136.676 Y114.521 E29.85995
G1 X136.559 Y114.637 E29.86817
G1 X136.001 Y115.134 E29.90545
G1 X135.392 Y115.57 E29.94281
G1 X134.741 Y115.937 E29.9801
G1 X134.054 Y116.233 E30.01742
G1 X133.339 Y116.454 E30.05476
G1 X132.605 Y116.598 E30.09207
G1 X131.631 Y116.666 E30.14078
G1 X115.179 Y116.666 E30.96158
G1 X99.762 Y134.062 E32.12125
G1 X98.339 Y135.722 E32.23033
G1 X97.823 Y136.263 E32.26763
G1 X97.251 Y136.746 E32.30498
G1 X96.632 Y137.166 E32.3423
G1 X96.027 Y137.49 E32.37654
G1 X95.947 Y137.528 E32.38096
G1 X95.256 Y137.812 E32.41823
G1 X94.537 Y138.021 E32.45559
G1 X93.801 Y138.152 E32.49288
G1 X92.944 Y138.205 E32.53572
G1 X88.061 Y138.205 E32.77933
G1 X87.314 Y138.165 E32.81665
G1 X86.576 Y138.046 E32.85395
G1 X85.854 Y137.848 E32.8913
G1 X85.37 Y137.668 E32.91706
G1 X84.692 Y137.351 E32.9544
G1 X84.051 Y136.965 E32.99173
G1 X83.456 Y136.512 E33.02904
G1 X83.062 Y136.151 E33.0557
G1 X78.048 Y131.192 E33.40753
G1 X77.331 Y130.363 E33.46221
G1 X72.624 Y123.964 E33.85853
G1 X72.214 Y123.338 E33.89586
G1 X71.872 Y122.673 E33.93317
G1 X71.611 Y121.997 E33.96932
G1 X71.591 Y121.936 E33.97253
G1 X71.397 Y121.214 E34.00982
G1 X71.28 Y120.475 E34.04715
G1 X71.243 Y119.755 E34.08312
G1 X71.243 Y88.364 E35.64922
G1 X71.283 Y87.617 E35.68654
G1 X71.403 Y86.877 E35.72395
G1 X71.413 Y86.831 E35.72629
G1 X71.611 Y86.11 E35.7636
G1 X71.888 Y85.405 E35.80139
G1 X74.22 Y80.31 E36.08094
G1 X74.567 Y79.647 E36.11827
G1 X74.983 Y79.025 E36.1556
G1 X75.463 Y78.452 E36.1929
G1 X76.002 Y77.932 E36.23026
M205 X10 Y10
G0 F6000 X76.328 Y78.18
M205 X8 Y8
G1 F1200 X77.042 Y77.655 E36.27448
G1 X77.141 Y77.592 E36.28033
G1 X77.774 Y77.236 E36.31656
G1 X78.443 Y76.952 E36.35282
G1 X79.138 Y76.744 E36.38902
G1 X79.853 Y76.613 E36.42528
G1 X80.684 Y76.56 E36.46682
G1 X102.318 Y76.56 E37.54615
G1 X103.043 Y76.6 E37.58237
G1 X103.76 Y76.719 E37.61863
G1 X104.459 Y76.917 E37.65488
G1 X105.132 Y77.19 E37.69111
G1 X105.771 Y77.535 E37.72734
G1 X106.368 Y77.949 E37.76359
G1 X106.985 Y78.493 E37.80463
G1 X107.102 Y78.61 E37.81288
G1 X107.586 Y79.151 E37.8491
G1 X108.009 Y79.742 E37.88536
G1 X108.363 Y80.376 E37.92158
G1 X108.646 Y81.045 E37.95782
G1 X108.854 Y81.741 E37.99406
G1 X108.871 Y81.835 E37.99883
G1 X115.721 Y81.835 E38.34058
G1 X115.721 Y79.034 E38.48032
G1 X115.761 Y78.309 E38.51655
G1 X115.88 Y77.592 E38.55281
G1 X116.078 Y76.893 E38.58905
G1 X116.351 Y76.22 E38.62528
G1 X116.696 Y75.581 E38.66151
G1 X117.11 Y74.984 E38.69776
G1 X117.654 Y74.367 E38.7388
G1 X117.771 Y74.25 E38.74705
G1 X118.312 Y73.766 E38.78327
G1 X118.903 Y73.343 E38.81953
G1 X119.537 Y72.989 E38.85575
G1 X120.206 Y72.706 E38.89199
G1 X120.902 Y72.498 E38.92824
G1 X121.617 Y72.368 E38.96449
G1 X122.438 Y72.317 E39.00553
G1 X131.648 Y72.317 E39.46502
G1 X132.373 Y72.357 E39.50124
G1 X133.09 Y72.476 E39.53751
G1 X133.789 Y72.674 E39.57375
G1 X134.462 Y72.947 E39.60998
G1 X135.101 Y73.292 E39.64621
G1 X135.698 Y73.706 E39.68246
G1 X136.315 Y74.25 E39.7235
G1 X136.432 Y74.367 E39.73175
G1 X136.916 Y74.908 E39.76797
G1 X137.339 Y75.499 E39.80423
G1 X137.693 Y76.133 E39.84045
G1 X137.976 Y76.802 E39.87669
G1 X138.184 Y77.498 E39.91294
G1 X138.314 Y78.213 E39.94919
G1 X138.365 Y79.034 E39.99023
G1 X138.365 Y107.819 E41.42632
G1 X138.348 Y109.613 E41.51583
G1 X138.301 Y110.337 E41.55202
G1 X138.175 Y111.053 E41.58829
G1 X137.971 Y111.75 E41.62453
G1 X137.691 Y112.42 E41.66075
G1 X137.34 Y113.056 E41.697
G1 X136.921 Y113.649 E41.73322
G1 X136.395 Y114.237 E41.77258
G1 X136.278 Y114.353 E41.7808
G1 X135.735 Y114.835 E41.81702
G1 X135.142 Y115.255 E41.85328
G1 X134.506 Y115.607 E41.88954
G1 X133.836 Y115.887 E41.92577
G1 X133.139 Y116.091 E41.962
G1 X132.424 Y116.218 E41.99823
G1 X131.631 Y116.266 E42.03787
G1 X114.999 Y116.266 E42.86764
G1 X99.47 Y133.787 E44.03569
G1 X98.035 Y135.462 E44.14573
G1 X97.533 Y135.987 E44.18197
G1 X96.976 Y136.453 E44.2182
G1 X96.371 Y136.855 E44.25444
G1 X95.856 Y137.129 E44.28354
G1 X95.776 Y137.167 E44.28796
G1 X95.104 Y137.442 E44.32418
G1 X94.405 Y137.641 E44.36044
G1 X93.689 Y137.763 E44.39668
G1 X92.944 Y137.805 E44.43391
G1 X88.061 Y137.805 E44.67752
G1 X87.336 Y137.765 E44.71375
G1 X86.619 Y137.646 E44.75001
G1 X85.596 Y137.327 E44.80347
G1 X85.519 Y137.296 E44.80761
G1 X84.861 Y136.989 E44.84383
G1 X84.241 Y136.61 E44.88009
G1 X83.667 Y136.166 E44.91629
G1 X83.343 Y135.867 E44.93829
G1 X78.329 Y130.908 E45.29012
G1 X77.653 Y130.126 E45.34169
G1 X72.946 Y123.727 E45.738
G1 X72.549 Y123.119 E45.77423
G1 X72.221 Y122.471 E45.81046
G1 X71.991 Y121.872 E45.84248
G1 X71.971 Y121.811 E45.84568
G1 X71.784 Y121.11 E45.88187
G1 X71.674 Y120.392 E45.91811
G1 X71.643 Y119.755 E45.94993
G1 X71.643 Y88.364 E47.51603
G1 X71.683 Y87.639 E47.55226
G1 X71.794 Y86.962 E47.58649
G1 X71.804 Y86.916 E47.58883
G1 X71.997 Y86.216 E47.62506
G1 X72.252 Y85.571 E47.65966
