;FLAVOR:Marlin
;TIME:2049
;Filament used: 1.21234m
;Layer height: 0.2
;MINX:85.262
;MINY:89.394
;MINZ:0.3
;MAXX:124.741
;MAXY:126.517
;MAXZ:23.375
;Generated with Cura_SteamEngine 4.13.1
M82 ;absolute extrusion mode
G21                                        ; metric values 
G90                                        ; absolute positioning 
M82                                        ; set extruder to absolute mode 
M107                                       ; start with the fan off 
M140 S60           ; Start heating the bed 
G4 S60                                     ; wait 1 minute 
M104 S210         ; start heating the hot end 
M190 S60           ; wait for bed 
M109 S210         ; wait for hotend 
M300 S1000 P500                            ; BEEP heating done 
G28 X0 Y10 Z0                              ; move X/Y to min endstops 
M420 S1                                    ; Enable leveling 
M420 Z2.0                                  ; Set leveling fading height to 2 mm 
G0 Z0.15                                   ; lift nozzle a bit 
G92 E0                                     ; zero the extruded length 
G1 X50 E25 F500                            ; Extrude 25mm of filament in a 5cm line. 
G92 E0                                     ; zero the extruded length again 
G1 E-2 F500                                ; Retract a little 
G1 X120 F4000                              ; Quickly wipe away from the filament line`
G92 E0
G92 E0
G1 F1500 E-6
;LAYER_COUNT:116
;LAYER:0
M106 S76.5
M205 X10 Y10
G1 F600 Z0.375
G0 F6000 X87.664 Y91.679 Z0.375
M205 X8 Y8
;TYPE:SKIRT
G1 F600 Z0.3
G1 F1500 E0
G1 F1200 X88.25 Y91.149 E0.03942
G1 X88.886 Y90.682 E0.07878
G1 X89.566 Y90.281 E0.11817
G1 X90.284 Y89.951 E0.15759
G1 X91.031 Y89.696 E0.19697
G1 X91.8 Y89.517 E0.23636
G1 X92.584 Y89.417 E0.27579
G1 X93.179 Y89.394 E0.3055
G1 X116.824 Y89.394 E1.48516
G1 X117.613 Y89.434 E1.52457
G1 X118.393 Y89.553 E1.56393
G1 X119.158 Y89.751 E1.60336
G1 X119.898 Y90.025 E1.64273
G1 X120.607 Y90.373 E1.68213
G1 X121.278 Y90.791 E1.72157
G1 X121.902 Y91.274 E1.76094
G1 X122.339 Y91.679 E1.79066
G1 X122.456 Y91.796 E1.79892
G1 X122.986 Y92.382 E1.83834
G1 X123.453 Y93.018 E1.8777
G1 X123.854 Y93.698 E1.91709
G1 X124.184 Y94.416 E1.95651
G1 X124.439 Y95.163 E1.99589
G1 X124.618 Y95.932 E2.03528
G1 X124.718 Y96.716 E2.07471
G1 X124.741 Y97.311 E2.10442
G1 X124.741 Y112.973 E2.8858
G1 X124.701 Y113.762 E2.92521
G1 X124.582 Y114.542 E2.96458
G1 X124.384 Y115.307 E3.004
G1 X124.11 Y116.047 E3.04337
G1 X123.762 Y116.756 E3.08277
G1 X123.344 Y117.427 E3.12221
G1 X122.861 Y118.051 E3.16158
G1 X122.456 Y118.488 E3.19131
G1 X122.339 Y118.605 E3.19956
G1 X121.753 Y119.135 E3.23898
G1 X121.117 Y119.602 E3.27835
G1 X120.437 Y120.003 E3.31773
G1 X119.719 Y120.333 E3.35716
G1 X118.972 Y120.588 E3.39654
G1 X118.203 Y120.767 E3.43593
G1 X117.419 Y120.867 E3.47536
G1 X116.824 Y120.89 E3.50506
G1 X109.782 Y120.89 E3.85639
G1 X109.72 Y121.053 E3.86509
G1 X109.365 Y121.758 E3.90447
G1 X108.94 Y122.424 E3.94389
G1 X108.45 Y123.044 E3.98331
G1 X107.901 Y123.61 E4.02265
G1 X107.172 Y124.211 E4.06979
G1 X106.053 Y125.025 E4.13882
G1 X105.392 Y125.456 E4.17819
G1 X104.691 Y125.819 E4.21758
G1 X103.956 Y126.109 E4.257
G1 X103.196 Y126.323 E4.29639
G1 X102.418 Y126.459 E4.33579
G1 X101.465 Y126.517 E4.38342
G1 X100.083 Y126.517 E4.45237
G1 X99.294 Y126.477 E4.49179
G1 X98.514 Y126.358 E4.53115
G1 X97.749 Y126.16 E4.57057
G1 X97.009 Y125.886 E4.60994
G1 X96.3 Y125.538 E4.64935
G1 X95.495 Y125.025 E4.69697
G1 X94.376 Y124.211 E4.76601
G1 X93.761 Y123.714 E4.80545
G1 X93.2 Y123.159 E4.84482
G1 X92.699 Y122.549 E4.88421
G1 X92.261 Y121.892 E4.9236
G1 X91.892 Y121.193 E4.96303
G1 X91.716 Y120.745 E4.98705
G1 X91.609 Y120.729 E4.99245
G1 X90.845 Y120.532 E5.03181
G1 X90.104 Y120.257 E5.07124
G1 X89.395 Y119.91 E5.11062
G1 X88.725 Y119.492 E5.15002
G1 X88.1 Y119.009 E5.18943
G1 X87.664 Y118.604 E5.21912
G1 X87.547 Y118.487 E5.22737
G1 X87.017 Y117.901 E5.26679
G1 X86.55 Y117.265 E5.30616
G1 X86.149 Y116.585 E5.34554
G1 X85.819 Y115.867 E5.38497
G1 X85.564 Y115.12 E5.42434
G1 X85.385 Y114.351 E5.46374
G1 X85.285 Y113.567 E5.50317
G1 X85.262 Y112.972 E5.53287
G1 X85.262 Y97.311 E6.3142
G1 X85.302 Y96.522 E6.35362
G1 X85.421 Y95.742 E6.39298
G1 X85.619 Y94.977 E6.43241
G1 X85.893 Y94.237 E6.47177
G1 X86.241 Y93.528 E6.51118
G1 X86.659 Y92.857 E6.55062
G1 X87.142 Y92.233 E6.58999
G1 X87.547 Y91.796 E6.61971
G1 X87.664 Y91.679 E6.62797
M205 X10 Y10
G0 F6000 X87.946 Y91.961
M205 X8 Y8
G1 F1200 X88.518 Y91.447 E6.66633
G1 X89.14 Y90.994 E6.70472
G1 X89.805 Y90.608 E6.74308
G1 X90.507 Y90.293 E6.78147
G1 X91.238 Y90.053 E6.81986
G1 X91.989 Y89.89 E6.8582
G1 X92.754 Y89.806 E6.89659
G1 X93.179 Y89.794 E6.9178
G1 X116.824 Y89.794 E8.09746
G1 X117.592 Y89.834 E8.13582
G1 X118.352 Y89.953 E8.1742
G1 X119.095 Y90.151 E8.21256
G1 X119.814 Y90.425 E8.25095
G1 X120.5 Y90.772 E8.28931
G1 X121.147 Y91.188 E8.32768
G1 X121.747 Y91.669 E8.36605
G1 X122.174 Y92.078 E8.39555
G1 X122.688 Y92.65 E8.43391
G1 X123.141 Y93.272 E8.4723
G1 X123.527 Y93.937 E8.51066
G1 X123.842 Y94.639 E8.54905
G1 X124.082 Y95.37 E8.58743
G1 X124.245 Y96.121 E8.62577
G1 X124.329 Y96.886 E8.66417
G1 X124.341 Y97.311 E8.68538
G1 X124.341 Y112.973 E9.46676
G1 X124.301 Y113.741 E9.50513
G1 X124.182 Y114.501 E9.54351
G1 X123.984 Y115.244 E9.58187
G1 X123.71 Y115.963 E9.62026
G1 X123.363 Y116.649 E9.65861
G1 X122.947 Y117.296 E9.69699
G1 X122.466 Y117.896 E9.73535
G1 X122.057 Y118.323 E9.76485
G1 X121.485 Y118.837 E9.80322
G1 X120.863 Y119.29 E9.84161
G1 X120.198 Y119.676 E9.87997
G1 X119.496 Y119.991 E9.91836
G1 X118.765 Y120.231 E9.95674
G1 X118.014 Y120.394 E9.99508
G1 X117.249 Y120.478 E10.03348
G1 X116.824 Y120.49 E10.05469
G1 X109.507 Y120.49 E10.41973
G1 X109.346 Y120.91 E10.44217
G1 X108.997 Y121.595 E10.48053
G1 X108.579 Y122.241 E10.51892
G1 X108.096 Y122.84 E10.55731
G1 X107.554 Y123.385 E10.59565
G1 X106.937 Y123.887 E10.63534
G1 X105.818 Y124.701 E10.70437
G1 X105.173 Y125.121 E10.74277
G1 X104.489 Y125.471 E10.78111
G1 X103.771 Y125.748 E10.8195
G1 X103.029 Y125.95 E10.85787
G1 X102.27 Y126.073 E10.89623
G1 X101.465 Y126.117 E10.93645
G1 X100.083 Y126.117 E11.0054
G1 X99.315 Y126.077 E11.04376
G1 X98.555 Y125.958 E11.08214
G1 X97.812 Y125.76 E11.1205
G1 X97.093 Y125.486 E11.15889
G1 X96.407 Y125.139 E11.19725
G1 X95.73 Y124.701 E11.23747
G1 X94.611 Y123.887 E11.30651
G1 X94.013 Y123.403 E11.34489
G1 X93.469 Y122.859 E11.38327
G1 X92.984 Y122.262 E11.42165
G1 X92.564 Y121.618 E11.46001
G1 X92.213 Y120.934 E11.49836
G1 X92.001 Y120.384 E11.52777
G1 X91.651 Y120.329 E11.54545
G1 X90.907 Y120.132 E11.58384
G1 X90.189 Y119.858 E11.62218
G1 X89.502 Y119.511 E11.66058
G1 X88.856 Y119.095 E11.69892
G1 X88.255 Y118.613 E11.73735
G1 X87.829 Y118.205 E11.76678
G1 X87.315 Y117.633 E11.80515
G1 X86.862 Y117.011 E11.84354
G1 X86.476 Y116.346 E11.8819
G1 X86.161 Y115.644 E11.92028
G1 X85.921 Y114.913 E11.95867
G1 X85.758 Y114.162 E11.99701
G1 X85.674 Y113.397 E12.0354
G1 X85.662 Y112.972 E12.05662
G1 X85.662 Y97.311 E12.83795
G1 X85.702 Y96.543 E12.87631
G1 X85.821 Y95.783 E12.91469
G1 X86.019 Y95.04 E12.95305
G1 X86.293 Y94.321 E12.99144
G1 X86.64 Y93.635 E13.0298
G1 X87.056 Y92.988 E13.06817
G1 X87.537 Y92.388 E13.10654
G1 X87.946 Y91.961 E13.13604
M205 X10 Y10
G0 F6000 X88.229 Y92.244
M205 X8 Y8
G1 F1200 X88.786 Y91.744 E13.17338
G1 X89.392 Y91.307 E13.21065
G1 X90.042 Y90.936 E13.24799
G1 X90.728 Y90.637 E13.28533
G1 X91.442 Y90.413 E13.32266
G1 X92.175 Y90.266 E13.35996
G1 X93.179 Y90.194 E13.41018
G1 X116.824 Y90.194 E14.58983
G1 X117.571 Y90.234 E14.62715
G1 X118.309 Y90.353 E14.66445
G1 X119.031 Y90.551 E14.7018
G1 X119.727 Y90.824 E14.7391
G1 X120.39 Y91.171 E14.77643
G1 X121.013 Y91.586 E14.81378
G1 X121.774 Y92.244 E14.86397
G1 X121.891 Y92.361 E14.87222
G1 X122.391 Y92.918 E14.90956
G1 X122.828 Y93.524 E14.94684
G1 X123.199 Y94.174 E14.98418
G1 X123.498 Y94.86 E15.02151
G1 X123.722 Y95.574 E15.05885
G1 X123.869 Y96.307 E15.09614
G1 X123.941 Y97.311 E15.14636
G1 X123.941 Y112.973 E15.92774
G1 X123.901 Y113.72 E15.96506
G1 X123.782 Y114.458 E16.00236
G1 X123.584 Y115.18 E16.03971
G1 X123.311 Y115.876 E16.07701
G1 X122.964 Y116.539 E16.11434
G1 X122.549 Y117.162 E16.15169
G1 X121.891 Y117.923 E16.20188
G1 X121.774 Y118.04 E16.21013
G1 X121.217 Y118.54 E16.24748
G1 X120.611 Y118.977 E16.28475
G1 X119.961 Y119.348 E16.32209
G1 X119.275 Y119.647 E16.35942
G1 X118.561 Y119.871 E16.39676
G1 X117.828 Y120.018 E16.43405
G1 X116.824 Y120.09 E16.48427
G1 X109.233 Y120.09 E16.86299
G1 X108.972 Y120.766 E16.89914
G1 X108.63 Y121.431 E16.93645
G1 X108.219 Y122.056 E16.97377
G1 X107.743 Y122.634 E17.01113
G1 X107.209 Y123.157 E17.04842
G1 X106.702 Y123.564 E17.08085
G1 X105.583 Y124.378 E17.14989
G1 X104.955 Y124.785 E17.18722
G1 X104.288 Y125.123 E17.22453
G1 X103.588 Y125.387 E17.26185
G1 X102.864 Y125.576 E17.29918
G1 X102.124 Y125.686 E17.33651
G1 X101.465 Y125.717 E17.36942
G1 X100.083 Y125.717 E17.43837
G1 X99.336 Y125.677 E17.47569
G1 X98.598 Y125.558 E17.51299
G1 X97.876 Y125.36 E17.55034
G1 X97.18 Y125.087 E17.58764
G1 X96.517 Y124.74 E17.62497
G1 X95.965 Y124.378 E17.6579
G1 X94.846 Y123.564 E17.72694
G1 X94.266 Y123.092 E17.76425
G1 X93.739 Y122.561 E17.80157
G1 X93.271 Y121.977 E17.83891
G1 X92.869 Y121.346 E17.87623
G1 X92.537 Y120.676 E17.91354
G1 X92.307 Y120.068 E17.94597
G1 X92.294 Y120.027 E17.94812
G1 X91.693 Y119.93 E17.97849
G1 X90.972 Y119.732 E18.01579
G1 X90.275 Y119.458 E18.05315
G1 X89.612 Y119.112 E18.09046
G1 X88.99 Y118.697 E18.12777
G1 X88.229 Y118.039 E18.17796
G1 X88.112 Y117.922 E18.18621
G1 X87.612 Y117.365 E18.22356
G1 X87.175 Y116.759 E18.26083
G1 X86.804 Y116.109 E18.29817
G1 X86.505 Y115.423 E18.33551
G1 X86.281 Y114.709 E18.37284
G1 X86.134 Y113.976 E18.41014
G1 X86.062 Y112.972 E18.46036
G1 X86.062 Y97.311 E19.24169
G1 X86.102 Y96.564 E19.27901
G1 X86.221 Y95.826 E19.3163
G1 X86.419 Y95.104 E19.35365
G1 X86.692 Y94.408 E19.39095
G1 X87.039 Y93.745 E19.42829
G1 X87.454 Y93.122 E19.46563
G1 X88.112 Y92.361 E19.51582
G1 X88.229 Y92.244 E19.52408
M205 X10 Y10
G0 F6000 X88.512 Y92.527
M205 X8 Y8
G1 F1200 X89.053 Y92.043 E19.56029
G1 X89.644 Y91.62 E19.59655
G1 X90.278 Y91.266 E19.63278
G1 X90.947 Y90.983 E19.66902
G1 X91.643 Y90.775 E19.70526
G1 X92.358 Y90.645 E19.74152
G1 X93.179 Y90.594 E19.78255
G1 X116.824 Y90.594 E20.96221
G1 X117.549 Y90.634 E20.99843
G1 X118.266 Y90.753 E21.03469
G1 X118.965 Y90.951 E21.07094
G1 X119.638 Y91.224 E21.10717
G1 X120.277 Y91.569 E21.1434
G1 X120.874 Y91.983 E21.17965
G1 X121.491 Y92.527 E21.22069
G1 X121.608 Y92.644 E21.22894
G1 X122.092 Y93.185 E21.26516
G1 X122.515 Y93.776 E21.30142
G1 X122.869 Y94.41 E21.33764
G1 X123.152 Y95.079 E21.37388
G1 X123.36 Y95.775 E21.41012
G1 X123.49 Y96.49 E21.44638
G1 X123.541 Y97.311 E21.48742
G1 X123.541 Y112.973 E22.2688
G1 X123.501 Y113.698 E22.30503
G1 X123.382 Y114.415 E22.34129
G1 X123.184 Y115.114 E22.37753
G1 X122.911 Y115.787 E22.41376
G1 X122.566 Y116.426 E22.44999
G1 X122.152 Y117.023 E22.48624
G1 X121.608 Y117.64 E22.52728
G1 X121.491 Y117.757 E22.53553
G1 X120.95 Y118.241 E22.57175
G1 X120.359 Y118.664 E22.60801
G1 X119.725 Y119.018 E22.64423
G1 X119.056 Y119.301 E22.68047
G1 X118.36 Y119.509 E22.71672
G1 X117.645 Y119.639 E22.75297
G1 X116.824 Y119.69 E22.79401
G1 X108.943 Y119.69 E23.1872
G1 X108.86 Y119.944 E23.20053
G1 X108.598 Y120.622 E23.23679
G1 X108.263 Y121.266 E23.27301
G1 X107.859 Y121.87 E23.30926
G1 X107.391 Y122.425 E23.34548
G1 X106.865 Y122.926 E23.38172
G1 X106.467 Y123.24 E23.40701
G1 X105.348 Y124.054 E23.47605
G1 X104.737 Y124.449 E23.51235
G1 X104.088 Y124.773 E23.54853
G1 X103.406 Y125.025 E23.58481
G1 X102.701 Y125.2 E23.62105
G1 X101.982 Y125.297 E23.65724
G1 X101.465 Y125.317 E23.68306
G1 X100.083 Y125.317 E23.75201
G1 X99.358 Y125.277 E23.78823
G1 X98.641 Y125.158 E23.82449
G1 X97.942 Y124.96 E23.86074
G1 X97.269 Y124.687 E23.89697
G1 X96.63 Y124.342 E23.9332
G1 X96.2 Y124.054 E23.95902
G1 X95.081 Y123.24 E24.02806
G1 X94.519 Y122.781 E24.06426
G1 X94.009 Y122.263 E24.10052
G1 X93.56 Y121.692 E24.13676
G1 X93.177 Y121.076 E24.17295
G1 X92.863 Y120.42 E24.20924
G1 X92.688 Y119.944 E24.23454
G1 X92.595 Y119.657 E24.24959
G1 X92.453 Y119.649 E24.25668
G1 X91.737 Y119.53 E24.2929
G1 X91.038 Y119.332 E24.32914
G1 X90.365 Y119.059 E24.36537
G1 X89.726 Y118.714 E24.4016
G1 X89.129 Y118.3 E24.43785
G1 X88.512 Y117.756 E24.47889
G1 X88.395 Y117.639 E24.48714
G1 X87.911 Y117.098 E24.52336
G1 X87.488 Y116.507 E24.55962
G1 X87.134 Y115.873 E24.59584
G1 X86.851 Y115.204 E24.63208
G1 X86.643 Y114.508 E24.66833
G1 X86.513 Y113.793 E24.70458
G1 X86.462 Y112.972 E24.74562
G1 X86.462 Y97.311 E25.52695
G1 X86.502 Y96.586 E25.56318
G1 X86.621 Y95.869 E25.59944
G1 X86.819 Y95.17 E25.63568
G1 X87.092 Y94.497 E25.67192
G1 X87.437 Y93.858 E25.70814
G1 X87.851 Y93.261 E25.74439
G1 X88.395 Y92.644 E25.78543
G1 X88.512 Y92.527 E25.79368
M205 X10 Y10
G0 F6000 X88.795 Y92.81
M205 X8 Y8
G1 F1200 X89.32 Y92.341 E25.82881
G1 X89.895 Y91.935 E25.86392
G1 X90.513 Y91.597 E25.89906
G1 X91.164 Y91.33 E25.93417
G1 X91.842 Y91.14 E25.9693
G1 X92.537 Y91.027 E26.00443
G1 X93.179 Y90.994 E26.0365
G1 X116.824 Y90.994 E27.21615
G1 X117.527 Y91.034 E27.25128
G1 X118.221 Y91.153 E27.28641
G1 X118.896 Y91.351 E27.32151
G1 X119.545 Y91.623 E27.35661
G1 X120.159 Y91.968 E27.39175
G1 X120.73 Y92.379 E27.42685
G1 X121.208 Y92.81 E27.45896
G1 X121.325 Y92.927 E27.46721
G1 X121.794 Y93.452 E27.50234
G1 X122.2 Y94.027 E27.53745
G1 X122.538 Y94.645 E27.5726
G1 X122.805 Y95.296 E27.6077
G1 X122.995 Y95.974 E27.64283
G1 X123.108 Y96.669 E27.67796
G1 X123.141 Y97.311 E27.71003
G1 X123.141 Y112.973 E28.49141
G1 X123.101 Y113.676 E28.52654
G1 X122.982 Y114.37 E28.56167
G1 X122.784 Y115.045 E28.59676
G1 X122.512 Y115.694 E28.63187
G1 X122.167 Y116.308 E28.66701
G1 X121.756 Y116.879 E28.70211
G1 X121.325 Y117.357 E28.73422
G1 X121.208 Y117.474 E28.74247
G1 X120.683 Y117.943 E28.77759
G1 X120.108 Y118.349 E28.81271
G1 X119.49 Y118.687 E28.84785
G1 X118.839 Y118.954 E28.88296
G1 X118.161 Y119.144 E28.91809
G1 X117.466 Y119.257 E28.95322
G1 X116.824 Y119.29 E28.98529
G1 X108.652 Y119.29 E29.39299
G1 X108.48 Y119.82 E29.42079
G1 X108.225 Y120.476 E29.4559
G1 X107.897 Y121.099 E29.49103
G1 X107.5 Y121.681 E29.52618
G1 X107.04 Y122.214 E29.5613
G1 X106.523 Y122.691 E29.5964
G1 X106.231 Y122.917 E29.61482
G1 X105.112 Y123.731 E29.68385
G1 X104.52 Y124.112 E29.71898
G1 X103.889 Y124.423 E29.75407
G1 X103.226 Y124.662 E29.78923
G1 X102.541 Y124.823 E29.82434
G1 X101.842 Y124.906 E29.85946
G1 X101.465 Y124.917 E29.87828
G1 X100.083 Y124.917 E29.94722
G1 X99.38 Y124.877 E29.98235
G1 X98.686 Y124.758 E30.01748
G1 X98.011 Y124.56 E30.05258
G1 X97.362 Y124.288 E30.08768
G1 X96.748 Y123.943 E30.12282
G1 X96.436 Y123.731 E30.14164
G1 X95.317 Y122.917 E30.21068
G1 X94.772 Y122.471 E30.24581
G1 X94.281 Y121.966 E30.28095
G1 X93.851 Y121.409 E30.31606
G1 X93.486 Y120.807 E30.35118
G1 X93.192 Y120.167 E30.38632
G1 X93.068 Y119.82 E30.4047
G1 X92.89 Y119.273 E30.4334
G1 X92.476 Y119.249 E30.45409
G1 X91.782 Y119.13 E30.48922
G1 X91.106 Y118.932 E30.52436
G1 X90.457 Y118.66 E30.55947
G1 X89.843 Y118.315 E30.59461
G1 X89.272 Y117.903 E30.62973
G1 X88.795 Y117.473 E30.66177
G1 X88.678 Y117.356 E30.67003
G1 X88.209 Y116.831 E30.70515
G1 X87.803 Y116.256 E30.74027
G1 X87.465 Y115.638 E30.77541
G1 X87.198 Y114.987 E30.81051
G1 X87.008 Y114.309 E30.84564
G1 X86.895 Y113.614 E30.88077
G1 X86.862 Y112.972 E30.91284
G1 X86.862 Y97.311 E31.69417
