;FLAVOR:Marlin
;TIME:1056
;Filament used: 0.753793m
;Layer height: 0.2
;MINX:86.283
;MINY:86.235
;MINZ:0.3
;MAXX:123.706
;MAXY:123.772
;MAXZ:7.175
;Generated with Cura_SteamEngine 4.13.1
M82 ;absolute extrusion mode
G21                                        ; metric values 
G90                                        ; absolute positioning 
M82                                        ; set extruder to absolute mode 
M107                                       ; start with the fan off 
M140 S60           ; Start heating the bed 
G4 S60                                     ; wait 1 minute 
M104 S210         ; start heating the hot end 
M190 S60           ; wait for bed 
M109 S210         ; wait for hotend 
M300 S1000 P500                            ; BEEP heating done 
G28 X0 Y10 Z0                              ; move X/Y to min endstops 
M420 S1                                    ; Enable leveling 
M420 Z2.0                                  ; Set leveling fading height to 2 mm 
G0 Z0.15                                   ; lift nozzle a bit 
G92 E0                                     ; zero the extruded length 
G1 X50 E25 F500                            ; Extrude 25mm of filament in a 5cm line. 
G92 E0                                     ; zero the extruded length again 
G1 E-2 F500                                ; Retract a little 
G1 X120 F4000                              ; Quickly wipe away from the filament line`
G92 E0
G92 E0
G1 F1500 E-6
;LAYER_COUNT:35
;LAYER:0
M106 S76.5
M205 X10 Y10
G1 F600 Z0.375
G0 F6000 X92.048 Y91.454 Z0.375
M205 X8 Y8
;TYPE:SKIRT
G1 F600 Z0.3
G1 F1500 E0
G1 F1200 X92.433 Y91.088 E0.0265
G1 X92.676 Y90.872 E0.04272
G1 X93.292 Y90.378 E0.08212
G1 X93.955 Y89.949 E0.12151
G1 X94.658 Y89.589 E0.16092
G1 X95.393 Y89.302 E0.20028
G1 X95.905 Y89.15 E0.22693
G1 X96.018 Y89.065 E0.23398
G1 X96.604 Y88.535 E0.2734
G1 X97.24 Y88.068 E0.31277
G1 X97.92 Y87.667 E0.35215
G1 X98.638 Y87.337 E0.39158
G1 X99.386 Y87.074 E0.43113
G1 X100.146 Y86.861 E0.47051
G1 X100.924 Y86.727 E0.5099
G1 X101.712 Y86.672 E0.54931
G1 X102.502 Y86.698 E0.58874
G1 X103.103 Y86.771 E0.61895
G1 X103.305 Y86.738 E0.62916
G1 X104.056 Y86.495 E0.66854
G1 X104.828 Y86.329 E0.70793
G1 X105.613 Y86.242 E0.74734
G1 X106.402 Y86.235 E0.7867
G1 X107.212 Y86.303 E0.82726
G1 X107.992 Y86.423 E0.86663
G1 X108.757 Y86.621 E0.90605
G1 X109.497 Y86.895 E0.94542
G1 X110.206 Y87.242 E0.9848
G1 X110.758 Y87.58 E1.01709
G1 X111.556 Y87.652 E1.05707
G1 X112.331 Y87.802 E1.09645
G1 X113.087 Y88.031 E1.13586
G1 X113.816 Y88.334 E1.17525
G1 X114.394 Y88.64 E1.20787
G1 X114.69 Y88.813 E1.22498
G1 X115.351 Y89.245 E1.26437
G1 X115.964 Y89.742 E1.30375
G1 X116.524 Y90.299 E1.34315
G1 X117.025 Y90.909 E1.38253
G1 X117.353 Y91.389 E1.41154
G1 X117.398 Y91.412 E1.41406
G1 X118.086 Y91.801 E1.45349
G1 X118.731 Y92.257 E1.4929
G1 X119.326 Y92.776 E1.53229
G1 X119.866 Y93.352 E1.57168
G1 X120.229 Y93.816 E1.60107
G1 X120.428 Y94.091 E1.61801
G1 X120.858 Y94.754 E1.65743
G1 X121.219 Y95.456 E1.69681
G1 X121.507 Y96.191 E1.7362
G1 X121.719 Y96.952 E1.77561
G1 X121.824 Y97.542 E1.80551
G1 X121.847 Y97.57 E1.80731
G1 X122.318 Y98.204 E1.84672
G1 X122.724 Y98.881 E1.8861
G1 X123.058 Y99.597 E1.92552
G1 X123.319 Y100.342 E1.9649
G1 X123.47 Y100.946 E1.99596
G1 X123.541 Y101.286 E2.01329
G1 X123.663 Y102.066 E2.05268
G1 X123.706 Y102.854 E2.09205
G1 X123.669 Y103.643 E2.13146
G1 X123.552 Y104.424 E2.17086
G1 X123.412 Y105 E2.20043
G1 X123.588 Y105.77 E2.23984
G1 X123.685 Y106.553 E2.2792
G1 X123.703 Y107.343 E2.31862
G1 X123.64 Y108.13 E2.35801
G1 X123.54 Y108.72 E2.38787
G1 X123.469 Y109.059 E2.40515
G1 X123.269 Y109.823 E2.44455
G1 X122.992 Y110.562 E2.48392
G1 X122.641 Y111.27 E2.52335
G1 X122.221 Y111.939 E2.56275
G1 X121.824 Y112.458 E2.59535
G1 X121.695 Y113.146 E2.63028
G1 X121.473 Y113.904 E2.66968
G1 X121.176 Y114.636 E2.70909
G1 X120.806 Y115.333 E2.74846
G1 X120.459 Y115.863 E2.78007
G1 X120.26 Y116.142 E2.79716
G1 X119.77 Y116.761 E2.83655
G1 X119.219 Y117.327 E2.87596
G1 X118.614 Y117.835 E2.91537
G1 X117.961 Y118.279 E2.95477
G1 X117.43 Y118.574 E2.98507
G1 X117.35 Y118.616 E2.98958
G1 X116.895 Y119.262 E3.029
G1 X116.377 Y119.858 E3.0684
G1 X115.802 Y120.399 E3.10779
G1 X115.175 Y120.879 E3.14718
G1 X114.665 Y121.202 E3.1773
G1 X114.37 Y121.373 E3.19431
G1 X113.667 Y121.734 E3.23374
G1 X112.932 Y122.022 E3.27312
G1 X112.171 Y122.234 E3.31253
G1 X111.393 Y122.369 E3.35193
G1 X110.76 Y122.419 E3.38361
G1 X110.09 Y122.821 E3.42259
G1 X109.375 Y123.156 E3.46198
G1 X108.63 Y123.418 E3.50138
G1 X107.862 Y123.603 E3.54079
G1 X107.212 Y123.697 E3.57356
G1 X106.868 Y123.732 E3.59081
G1 X106.079 Y123.772 E3.63022
G1 X105.29 Y123.732 E3.66964
G1 X104.51 Y123.613 E3.709
G1 X103.745 Y123.415 E3.74843
G1 X103.238 Y123.237 E3.77523
G1 X103.156 Y123.218 E3.77943
G1 X102.372 Y123.309 E3.81881
G1 X101.582 Y123.321 E3.85823
G1 X100.796 Y123.253 E3.89759
G1 X100.02 Y123.106 E3.93699
G1 X99.524 Y122.968 E3.96268
G1 X99.196 Y122.865 E3.97983
G1 X98.456 Y122.59 E4.01921
G1 X97.747 Y122.242 E4.05862
G1 X97.077 Y121.825 E4.09799
G1 X96.452 Y121.341 E4.13743
G1 X96.018 Y120.938 E4.16697
G1 X95.775 Y120.816 E4.18054
G1 X95.025 Y120.567 E4.21997
G1 X94.305 Y120.244 E4.25934
G1 X93.621 Y119.849 E4.29874
G1 X92.98 Y119.388 E4.33813
G1 X92.356 Y118.842 E4.3795
G1 X91.8 Y118.282 E4.41887
G1 X91.302 Y117.668 E4.45831
G1 X90.869 Y117.008 E4.49769
G1 X90.506 Y116.307 E4.53708
G1 X90.285 Y115.768 E4.56614
G1 X90.226 Y115.721 E4.5699
G1 X89.636 Y115.196 E4.60931
G1 X89.102 Y114.614 E4.64871
G1 X88.629 Y113.981 E4.68814
G1 X88.223 Y113.304 E4.72752
G1 X87.997 Y112.844 E4.75309
G1 X87.855 Y112.529 E4.77033
G1 X87.567 Y111.793 E4.80976
G1 X87.356 Y111.032 E4.84916
G1 X87.222 Y110.254 E4.88854
G1 X87.167 Y109.466 E4.92795
G1 X87.18 Y108.856 E4.95839
G1 X87.154 Y108.752 E4.96374
G1 X86.827 Y108.033 E5.00315
G1 X86.575 Y107.285 E5.04252
G1 X86.4 Y106.515 E5.08192
G1 X86.303 Y105.731 E5.12133
G1 X86.283 Y105.171 E5.14929
G1 X86.283 Y104.828 E5.1664
G1 X86.323 Y104.039 E5.20581
G1 X86.442 Y103.259 E5.24518
G1 X86.64 Y102.494 E5.2846
G1 X86.914 Y101.754 E5.32397
G1 X87.154 Y101.247 E5.35196
G1 X87.18 Y101.145 E5.35721
G1 X87.173 Y100.356 E5.39657
G1 X87.245 Y99.569 E5.436
G1 X87.397 Y98.794 E5.4754
G1 X87.626 Y98.039 E5.51476
G1 X87.851 Y97.481 E5.54478
G1 X87.993 Y97.165 E5.56206
G1 X88.353 Y96.462 E5.60147
G1 X88.782 Y95.799 E5.64087
G1 X89.276 Y95.183 E5.68026
G1 X89.829 Y94.619 E5.71967
G1 X90.226 Y94.279 E5.74574
G1 X90.345 Y94.091 E5.75685
G1 X90.668 Y93.37 E5.79626
G1 X91.063 Y92.686 E5.83567
G1 X91.524 Y92.045 E5.87506
G1 X92.048 Y91.454 E5.91446
M205 X10 Y10
G0 F6000 X92.39 Y91.678
M205 X8 Y8
G1 F1200 X92.942 Y91.171 E5.95186
G1 X93.542 Y90.691 E5.99019
G1 X94.19 Y90.275 E6.02861
G1 X94.877 Y89.929 E6.06698
G1 X95.917 Y89.561 E6.12202
G1 X96.231 Y89.416 E6.13928
G1 X96.3 Y89.347 E6.14415
G1 X96.872 Y88.833 E6.18251
G1 X97.494 Y88.38 E6.2209
G1 X98.159 Y87.994 E6.25926
G1 X99.186 Y87.562 E6.31485
G1 X99.512 Y87.453 E6.332
G1 X100.254 Y87.247 E6.37042
G1 X101.012 Y87.12 E6.40876
G1 X101.78 Y87.071 E6.44715
G1 X102.548 Y87.103 E6.4855
G1 X103.139 Y87.182 E6.51525
G1 X103.447 Y87.112 E6.53101
G1 X104.179 Y86.876 E6.56938
G1 X104.932 Y86.717 E6.60777
G1 X105.697 Y86.638 E6.64614
G1 X106.827 Y86.666 E6.70254
G1 X107.171 Y86.701 E6.71979
G1 X107.931 Y86.819 E6.75816
G1 X108.675 Y87.014 E6.79653
G1 X109.394 Y87.286 E6.83488
G1 X110.082 Y87.631 E6.87328
G1 X110.544 Y87.917 E6.90039
G1 X110.754 Y87.98 E6.91133
G1 X111.52 Y88.051 E6.94971
G1 X112.274 Y88.2 E6.98805
G1 X113.009 Y88.428 E7.02644
G1 X113.716 Y88.73 E7.0648
G1 X114.192 Y88.985 E7.09174
G1 X114.488 Y89.158 E7.10885
G1 X115.131 Y89.58 E7.14722
G1 X115.727 Y90.067 E7.18562
G1 X116.269 Y90.613 E7.224
G1 X116.751 Y91.212 E7.26236
G1 X117.077 Y91.701 E7.29168
G1 X117.219 Y91.77 E7.29955
G1 X117.889 Y92.15 E7.33798
G1 X118.515 Y92.596 E7.37633
G1 X119.091 Y93.105 E7.41468
G1 X119.612 Y93.672 E7.45309
G1 X120.104 Y94.326 E7.49392
G1 X120.522 Y94.972 E7.53231
G1 X120.871 Y95.657 E7.57067
G1 X121.146 Y96.375 E7.60903
G1 X121.346 Y97.118 E7.64741
G1 X121.449 Y97.719 E7.67783
G1 X121.538 Y97.825 E7.68474
G1 X121.997 Y98.443 E7.72315
G1 X122.389 Y99.104 E7.76149
G1 X122.71 Y99.803 E7.79986
G1 X122.957 Y100.532 E7.83826
G1 X123.079 Y101.027 E7.8637
G1 X123.15 Y101.367 E7.88102
G1 X123.268 Y102.127 E7.9194
G1 X123.306 Y102.896 E7.95781
G1 X123.264 Y103.664 E7.99618
G1 X123.143 Y104.423 E8.03453
G1 X123.011 Y104.951 E8.06168
G1 X123.027 Y105.109 E8.0696
G1 X123.198 Y105.859 E8.10798
G1 X123.289 Y106.622 E8.14632
G1 X123.301 Y107.391 E8.18469
G1 X123.233 Y108.157 E8.22305
G1 X123.078 Y108.977 E8.26469
G1 X122.881 Y109.721 E8.30308
G1 X122.609 Y110.44 E8.34144
G1 X122.263 Y111.127 E8.37981
G1 X121.847 Y111.774 E8.41819
G1 X121.532 Y112.183 E8.44394
G1 X121.443 Y112.317 E8.45197
G1 X121.302 Y113.073 E8.49034
G1 X121.082 Y113.81 E8.52871
G1 X120.788 Y114.521 E8.56709
G1 X120.421 Y115.197 E8.60547
G1 X120.134 Y115.631 E8.63143
G1 X119.935 Y115.91 E8.64852
G1 X119.456 Y116.512 E8.68691
G1 X118.917 Y117.061 E8.72529
G1 X118.325 Y117.552 E8.76366
G1 X117.685 Y117.978 E8.80202
G1 X117.16 Y118.262 E8.8318
G1 X117.011 Y118.403 E8.84203
G1 X116.568 Y119.031 E8.88037
G1 X116.061 Y119.61 E8.91877
G1 X115.497 Y120.133 E8.95714
G1 X114.882 Y120.595 E8.99552
G1 X114.169 Y121.027 E9.03711
G1 X113.485 Y121.378 E9.07547
G1 X112.767 Y121.655 E9.11386
G1 X112.025 Y121.857 E9.15223
G1 X111.266 Y121.981 E9.19059
G1 X110.754 Y122.019 E9.21621
G1 X110.544 Y122.083 E9.22716
G1 X109.884 Y122.477 E9.26551
G1 X109.186 Y122.801 E9.3039
G1 X108.459 Y123.051 E9.34226
G1 X107.709 Y123.224 E9.38066
G1 X107.171 Y123.299 E9.40776
G1 X106.827 Y123.334 E9.42501
G1 X106.059 Y123.372 E9.46337
G1 X105.291 Y123.33 E9.50174
G1 X104.531 Y123.209 E9.54014
G1 X103.472 Y122.898 E9.5952
G1 X103.09 Y122.823 E9.61462
G1 X102.326 Y122.911 E9.65299
G1 X101.557 Y122.92 E9.69136
G1 X100.791 Y122.848 E9.72974
G1 X100.037 Y122.698 E9.7681
G1 X99.316 Y122.483 E9.80564
G1 X98.595 Y122.215 E9.84401
G1 X97.906 Y121.873 E9.88239
G1 X97.256 Y121.462 E9.92075
G1 X96.652 Y120.985 E9.95915
G1 X96.231 Y120.587 E9.98806
G1 X95.881 Y120.43 E10.00719
G1 X95.152 Y120.187 E10.04553
G1 X94.451 Y119.869 E10.08393
G1 X93.787 Y119.48 E10.12233
G1 X92.877 Y118.775 E10.17976
G1 X92.625 Y118.546 E10.19675
G1 X92.084 Y117.999 E10.23513
G1 X91.602 Y117.4 E10.27349
G1 X91.185 Y116.754 E10.31185
G1 X90.837 Y116.068 E10.35022
G1 X90.619 Y115.52 E10.37965
G1 X90.476 Y115.409 E10.38868
G1 X89.902 Y114.897 E10.42705
G1 X89.384 Y114.328 E10.46544
G1 X88.928 Y113.709 E10.5038
G1 X88.539 Y113.045 E10.54219
G1 X88.22 Y112.364 E10.57971
G1 X87.941 Y111.647 E10.61809
G1 X87.737 Y110.906 E10.65644
G1 X87.612 Y110.147 E10.69481
G1 X87.566 Y109.379 E10.7332
G1 X87.585 Y108.78 E10.7631
G1 X87.509 Y108.569 E10.77429
G1 X87.192 Y107.868 E10.81267
G1 X86.949 Y107.138 E10.85105
G1 X86.784 Y106.387 E10.88942
G1 X86.697 Y105.623 E10.92778
G1 X86.683 Y104.828 E10.96745
G1 X86.723 Y104.06 E11.00581
G1 X86.842 Y103.3 E11.04419
G1 X87.04 Y102.557 E11.08256
G1 X87.314 Y101.838 E11.12094
G1 X87.555 Y101.341 E11.1485
G1 X87.579 Y101.121 E11.15954
G1 X87.573 Y100.352 E11.19791
G1 X87.647 Y99.586 E11.2363
G1 X87.8 Y98.833 E11.27464
G1 X88.03 Y98.099 E11.31301
G1 X88.358 Y97.329 E11.35477
G1 X88.709 Y96.645 E11.39312
G1 X89.13 Y96.001 E11.43151
G1 X89.615 Y95.404 E11.46988
G1 X90.159 Y94.86 E11.50826
G1 X90.552 Y94.53 E11.53387
G1 X90.718 Y94.236 E11.55071
G1 X91.034 Y93.534 E11.58912
G1 X91.421 Y92.87 E11.62746
G1 X91.874 Y92.249 E11.66581
G1 X92.39 Y91.678 E11.70421
M205 X10 Y10
G0 F6000 X92.964 Y91.686
M205 X8 Y8
G1 F1200 X93.207 Y91.47 E11.72043
G1 X93.792 Y91.004 E11.75774
G1 X94.424 Y90.602 E11.79511
G1 X95.094 Y90.271 E11.83239
G1 X96.022 Y89.947 E11.88143
G1 X96.352 Y89.871 E11.89833
G1 X96.583 Y89.63 E11.91498
G1 X97.14 Y89.13 E11.95232
G1 X97.746 Y88.693 E11.9896
G1 X98.396 Y88.322 E12.02694
G1 X99.313 Y87.941 E12.07648
G1 X99.639 Y87.832 E12.09363
G1 X100.36 Y87.633 E12.13094
G1 X101.099 Y87.512 E12.1683
G1 X101.846 Y87.471 E12.20563
G1 X102.593 Y87.51 E12.24295
G1 X103.265 Y87.618 E12.2769
G1 X103.589 Y87.485 E12.29438
G1 X104.301 Y87.257 E12.33167
G1 X105.034 Y87.106 E12.36901
G1 X105.779 Y87.034 E12.40635
G1 X106.787 Y87.064 E12.45667
G1 X107.131 Y87.099 E12.47392
G1 X107.87 Y87.214 E12.51123
G1 X108.592 Y87.408 E12.54853
G1 X109.29 Y87.678 E12.58586
G1 X109.955 Y88.02 E12.62317
G1 X110.403 Y88.305 E12.64966
G1 X110.738 Y88.38 E12.66679
G1 X111.483 Y88.449 E12.70412
G1 X112.216 Y88.598 E12.74143
G1 X112.929 Y88.825 E12.77877
G1 X113.614 Y89.126 E12.81609
G1 X114.286 Y89.504 E12.85456
G1 X114.911 Y89.915 E12.89188
G1 X115.488 Y90.391 E12.9292
G1 X116.011 Y90.925 E12.96649
G1 X116.475 Y91.513 E13.00386
G1 X116.798 Y92.021 E13.03389
G1 X117.04 Y92.128 E13.04709
G1 X117.691 Y92.498 E13.08445
G1 X118.298 Y92.935 E13.12176
G1 X118.855 Y93.434 E13.15907
G1 X119.581 Y94.285 E13.21488
G1 X119.78 Y94.56 E13.23182
G1 X120.185 Y95.189 E13.26914
G1 X120.522 Y95.857 E13.30647
G1 X120.785 Y96.558 E13.34382
G1 X120.971 Y97.282 E13.38111
G1 X121.061 Y97.841 E13.40936
G1 X121.23 Y98.08 E13.42396
G1 X121.675 Y98.681 E13.46127
G1 X122.054 Y99.326 E13.4986
G1 X122.361 Y100.008 E13.53591
G1 X122.594 Y100.719 E13.57324
G1 X122.758 Y101.449 E13.61057
G1 X122.872 Y102.188 E13.64787
G1 X122.906 Y102.936 E13.68523
G1 X122.86 Y103.682 E13.72252
G1 X122.651 Y104.754 E13.77701
G1 X122.572 Y105.004 E13.79009
G1 X122.642 Y105.217 E13.80127
G1 X122.807 Y105.947 E13.83861
G1 X122.893 Y106.69 E13.87593
G1 X122.899 Y107.438 E13.91325
G1 X122.825 Y108.183 E13.9506
G1 X122.686 Y108.895 E13.98679
G1 X122.494 Y109.618 E14.02411
G1 X122.226 Y110.316 E14.06141
G1 X121.885 Y110.982 E14.09874
G1 X121.474 Y111.607 E14.13606
G1 X121.161 Y112.003 E14.16124
G1 X121.047 Y112.264 E14.17545
G1 X120.908 Y112.999 E14.21277
G1 X120.692 Y113.715 E14.25008
G1 X120.4 Y114.404 E14.28742
G1 X120.036 Y115.058 E14.32476
G1 X119.609 Y115.678 E14.36232
G1 X119.143 Y116.263 E14.39963
G1 X118.617 Y116.795 E14.43695
G1 X118.037 Y117.267 E14.47426
G1 X117.41 Y117.675 E14.51158
G1 X116.787 Y117.99 E14.54641
G1 X116.673 Y118.189 E14.55785
G1 X116.241 Y118.8 E14.59519
G1 X115.746 Y119.361 E14.63251
G1 X115.193 Y119.865 E14.66984
G1 X114.591 Y120.308 E14.70713
G1 X113.968 Y120.681 E14.74336
G1 X113.302 Y121.021 E14.78066
G1 X112.603 Y121.288 E14.81799
G1 X111.88 Y121.479 E14.8553
G1 X111.141 Y121.592 E14.8926
G1 X110.638 Y121.623 E14.91774
G1 X110.403 Y121.695 E14.93
G1 X110.321 Y121.75 E14.93493
G1 X109.679 Y122.133 E14.97222
G1 X108.999 Y122.445 E15.00955
G1 X108.29 Y122.683 E15.04686
G1 X107.559 Y122.844 E15.08421
G1 X106.787 Y122.936 E15.12299
G1 X106.039 Y122.972 E15.16036
G1 X105.293 Y122.928 E15.19764
G1 X104.555 Y122.804 E15.23497
G1 X103.612 Y122.523 E15.28406
G1 X103.265 Y122.377 E15.30285
G1 X103.024 Y122.429 E15.31515
G1 X102.28 Y122.513 E15.3525
G1 X101.532 Y122.518 E15.38982
G1 X100.788 Y122.443 E15.42713
G1 X99.764 Y122.204 E15.47959
G1 X99.436 Y122.101 E15.49674
G1 X98.735 Y121.84 E15.53406
G1 X98.066 Y121.504 E15.57141
G1 X97.437 Y121.1 E15.6087
G1 X96.583 Y120.373 E15.66466
G1 X96.367 Y120.14 E15.68051
G1 X95.988 Y120.045 E15.7
G1 X95.279 Y119.807 E15.73731
G1 X94.599 Y119.495 E15.77464
G1 X93.956 Y119.112 E15.81198
G1 X93.146 Y118.479 E15.86326
G1 X92.894 Y118.25 E15.88025
G1 X92.368 Y117.718 E15.91758
G1 X91.902 Y117.133 E15.95489
G1 X91.501 Y116.501 E15.99223
G1 X91.17 Y115.83 E16.02956
G1 X90.964 Y115.28 E16.05886
G1 X90.726 Y115.097 E16.07384
