;FLAVOR:Marlin
;TIME:8724
;Filament used: 7.5584m
;Layer height: 0.2
;MINX:58.668
;MINY:59.746
;MINZ:0.3
;MAXX:151.328
;MAXY:150.25
;MAXZ:7.575
;Generated with Cura_SteamEngine 4.13.1
M82 ;absolute extrusion mode
G21                                        ; metric values 
G90                                        ; absolute positioning 
M82                                        ; set extruder to absolute mode 
M107                                       ; start with the fan off 
M140 S60.0           ; Start heating the bed 
G4 S60                                     ; wait 1 minute 
M104 S220.0         ; start heating the hot end 
M190 S60.0           ; wait for bed 
M109 S220.0         ; wait for hotend 
M300 S1000 P500                            ; BEEP heating done 
G28 X0 Y10 Z0                              ; move X/Y to min endstops 
M420 S1                                    ; Enable leveling 
M420 Z2.0                                  ; Set leveling fading height to 2 mm 
G0 Z0.15                                   ; lift nozzle a bit 
G92 E0                                     ; zero the extruded length 
G1 X50 E25 F500                            ; Extrude 25mm of filament in a 5cm line. 
G92 E0                                     ; zero the extruded length again 
G1 E-2 F500                                ; Retract a little 
G1 X120 F4000                              ; Quickly wipe away from the filament line`
G92 E0
G92 E0
G1 F2400 E-3
;LAYER_COUNT:37
;LAYER:0
M106 S76.5
M205 X10 Y10
G1 F600 Z0.375
G0 F6000 X60.856 Y62.536 Z0.375
M205 X8 Y8
;TYPE:SKIRT
G1 F600 Z0.3
G1 F2400 E0
G1 F1200 X61.42 Y61.984 E0.03937
G1 X62.037 Y61.491 E0.07877
G1 X62.701 Y61.064 E0.11816
G1 X63.405 Y60.706 E0.15756
G1 X64.141 Y60.42 E0.19696
G1 X64.903 Y60.211 E0.23638
G1 X65.681 Y60.08 E0.27574
G1 X66.619 Y60.027 E0.32261
G1 X72.149 Y60.05 E0.59851
G1 X72.938 Y60.093 E0.63793
G1 X73.718 Y60.216 E0.67732
G1 X74.482 Y60.417 E0.71674
G1 X75.221 Y60.694 E0.75611
G1 X75.929 Y61.045 E0.79553
G1 X76.597 Y61.465 E0.8349
G1 X77.22 Y61.951 E0.87432
G1 X77.632 Y62.335 E0.90242
G1 X77.749 Y62.452 E0.91067
G1 X78.279 Y63.038 E0.95009
G1 X78.447 Y63.267 E0.96426
G1 X78.779 Y62.834 E0.99148
G1 X79.163 Y62.414 E1.01988
G1 X79.279 Y62.296 E1.02813
G1 X79.86 Y61.762 E1.0675
G1 X80.492 Y61.289 E1.10688
G1 X81.169 Y60.882 E1.14629
G1 X81.884 Y60.546 E1.18571
G1 X82.629 Y60.284 E1.22511
G1 X83.397 Y60.099 E1.26452
G1 X84.179 Y59.992 E1.3039
G1 X84.807 Y59.964 E1.33526
G1 X113.488 Y59.838 E2.76617
G1 X114.277 Y59.875 E2.80558
G1 X115.058 Y59.991 E2.84497
G1 X115.823 Y60.185 E2.88435
G1 X116.565 Y60.456 E2.92376
G1 X117.275 Y60.8 E2.96312
G1 X117.948 Y61.215 E3.00256
G1 X118.574 Y61.695 E3.04192
G1 X118.99 Y62.076 E3.07006
G1 X119.108 Y62.192 E3.07832
G1 X119.642 Y62.773 E3.11769
G1 X119.833 Y63.028 E3.13358
G1 X120.145 Y62.621 E3.15917
G1 X120.552 Y62.177 E3.18922
G1 X120.669 Y62.059 E3.19751
G1 X121.253 Y61.527 E3.23692
G1 X121.887 Y61.057 E3.27629
G1 X122.566 Y60.653 E3.31571
G1 X123.282 Y60.321 E3.35509
G1 X124.028 Y60.062 E3.39448
G1 X124.797 Y59.88 E3.43391
G1 X125.58 Y59.776 E3.47332
G1 X126.201 Y59.751 E3.50432
G1 X131.92 Y59.746 E3.78965
G1 X143.402 Y59.746 E4.36249
G1 X144.191 Y59.786 E4.4019
G1 X144.971 Y59.905 E4.44126
G1 X145.736 Y60.103 E4.48069
G1 X146.476 Y60.377 E4.52006
G1 X147.185 Y60.725 E4.55946
G1 X147.856 Y61.143 E4.5989
G1 X148.48 Y61.626 E4.63827
G1 X148.917 Y62.031 E4.66799
G1 X149.034 Y62.148 E4.67625
G1 X149.564 Y62.734 E4.71567
G1 X150.031 Y63.37 E4.75503
G1 X150.432 Y64.05 E4.79442
G1 X150.762 Y64.768 E4.83384
G1 X151.017 Y65.515 E4.87322
G1 X151.196 Y66.284 E4.91261
G1 X151.296 Y67.068 E4.95204
G1 X151.319 Y67.663 E4.98175
G1 X151.319 Y76.235 E5.40941
G1 X151.279 Y77.024 E5.44882
G1 X151.16 Y77.804 E5.48819
G1 X150.962 Y78.569 E5.52761
G1 X150.688 Y79.309 E5.56698
G1 X150.34 Y80.018 E5.60638
G1 X149.922 Y80.689 E5.64582
G1 X149.439 Y81.313 E5.68519
G1 X149.564 Y81.501 E5.69645
G1 X150.031 Y82.137 E5.73582
G1 X150.432 Y82.817 E5.7752
G1 X150.762 Y83.535 E5.81463
G1 X151.017 Y84.282 E5.85401
G1 X151.196 Y85.051 E5.8934
G1 X151.296 Y85.835 E5.93283
G1 X151.319 Y86.43 E5.96254
G1 X151.319 Y92.553 E6.26801
G1 X151.07 Y118.247 E7.54995
G1 X151.303 Y124.201 E7.84723
G1 X151.294 Y124.99 E7.88659
G1 X151.205 Y125.775 E7.92601
G1 X151.037 Y126.547 E7.96542
G1 X150.792 Y127.297 E8.00479
G1 X150.473 Y128.02 E8.04421
G1 X150.082 Y128.706 E8.08361
G1 X149.624 Y129.349 E8.12299
G1 X149.231 Y129.786 E8.15231
G1 X149.688 Y130.409 E8.19086
G1 X150.089 Y131.089 E8.23025
G1 X150.419 Y131.807 E8.26967
G1 X150.674 Y132.554 E8.30905
G1 X150.853 Y133.323 E8.34844
G1 X150.965 Y134.287 E8.39686
G1 X151.326 Y141.067 E8.73559
G1 X151.328 Y141.857 E8.77501
G1 X151.25 Y142.643 E8.81441
G1 X151.093 Y143.417 E8.85381
G1 X150.859 Y144.171 E8.8932
G1 X150.549 Y144.897 E8.93258
G1 X150.168 Y145.589 E8.972
G1 X149.505 Y146.505 E9.02841
G1 X149.404 Y146.625 E9.03623
G1 X148.865 Y147.202 E9.07563
G1 X148.271 Y147.723 E9.11505
G1 X147.627 Y148.18 E9.15444
G1 X146.941 Y148.57 E9.19381
G1 X146.218 Y148.889 E9.23324
G1 X145.467 Y149.133 E9.27263
G1 X144.425 Y149.339 E9.32563
G1 X137.769 Y150.19 E9.6604
G1 X136.982 Y150.25 E9.69978
G1 X136.261 Y150.236 E9.73575
G1 X135.477 Y150.147 E9.77512
G1 X135.063 Y150.067 E9.79615
G1 X121.055 Y146.968 E10.51191
G1 X120.178 Y146.719 E10.5574
G1 X99.237 Y139.437 E11.66351
G1 X98.2 Y138.99 E11.71985
G1 X97.478 Y138.568 E11.76157
G1 X79.742 Y126.866 E12.82167
G1 X79.106 Y126.398 E12.86106
G1 X78.523 Y125.87 E12.90031
G1 X78.497 Y125.844 E12.90214
G1 X77.967 Y125.258 E12.94156
G1 X77.478 Y124.588 E12.98294
G1 X65.626 Y106.405 E14.06579
G1 X65.228 Y105.723 E14.10519
G1 X64.99 Y105.217 E14.13308
G1 X64.713 Y104.478 E14.17246
G1 X64.602 Y104.093 E14.19245
G1 X60.442 Y88.219 E15.01115
G1 X60.29 Y87.506 E15.04752
G1 X60.211 Y86.87 E15.07949
G1 X58.694 Y68.603 E15.99397
G1 X58.668 Y67.813 E16.03341
G1 X58.723 Y67.025 E16.07282
G1 X58.857 Y66.247 E16.1122
G1 X59.069 Y65.486 E16.15162
G1 X59.356 Y64.751 E16.19098
G1 X59.717 Y64.049 E16.23036
G1 X60.147 Y63.386 E16.26979
G1 X60.736 Y62.666 E16.3162
G1 X60.856 Y62.536 E16.32503
M205 X10 Y10
G0 F6000 X61.149 Y62.808
M205 X8 Y8
G1 F1200 X61.7 Y62.27 E16.36345
G1 X62.303 Y61.793 E16.4018
G1 X62.952 Y61.381 E16.44016
G1 X63.641 Y61.039 E16.47853
G1 X64.362 Y60.77 E16.51692
G1 X65.106 Y60.577 E16.55527
G1 X65.867 Y60.462 E16.59367
G1 X66.618 Y60.427 E16.63118
G1 X72.148 Y60.45 E16.90707
G1 X72.916 Y60.493 E16.94545
G1 X73.675 Y60.616 E16.98381
G1 X74.418 Y60.817 E17.02221
G1 X75.135 Y61.093 E17.06054
G1 X75.82 Y61.443 E17.09892
G1 X76.465 Y61.862 E17.13729
G1 X77.063 Y62.346 E17.17567
G1 X77.467 Y62.734 E17.20362
G1 X77.981 Y63.306 E17.24198
G1 X78.434 Y63.928 E17.28037
G1 X78.697 Y63.589 E17.30178
G1 X79.176 Y62.987 E17.34016
G1 X79.564 Y62.576 E17.36836
G1 X80.131 Y62.057 E17.40671
G1 X80.749 Y61.599 E17.44508
G1 X81.411 Y61.207 E17.48347
G1 X82.11 Y60.886 E17.52184
G1 X82.839 Y60.64 E17.56023
G1 X83.589 Y60.471 E17.59858
G1 X84.353 Y60.38 E17.63697
G1 X84.808 Y60.364 E17.65968
G1 X113.489 Y60.238 E19.0906
G1 X114.258 Y60.275 E19.12901
G1 X115.018 Y60.391 E19.16736
G1 X115.762 Y60.585 E19.20572
G1 X116.482 Y60.856 E19.2441
G1 X117.17 Y61.2 E19.28248
G1 X117.819 Y61.613 E19.32086
G1 X118.421 Y62.092 E19.35924
G1 X118.828 Y62.477 E19.38719
G1 X119.347 Y63.044 E19.42554
G1 X119.805 Y63.662 E19.46391
G1 X119.842 Y63.724 E19.46752
G1 X120.063 Y63.376 E19.48808
G1 X120.541 Y62.774 E19.52643
G1 X120.953 Y62.341 E19.55625
G1 X121.522 Y61.823 E19.59464
G1 X122.142 Y61.368 E19.63301
G1 X122.806 Y60.979 E19.6714
G1 X123.506 Y60.662 E19.70974
G1 X124.236 Y60.419 E19.74812
G1 X124.987 Y60.252 E19.78651
G1 X125.751 Y60.165 E19.82487
G1 X126.202 Y60.151 E19.84738
G1 X131.921 Y60.146 E20.1327
G1 X143.402 Y60.146 E20.70549
G1 X144.17 Y60.186 E20.74386
G1 X144.93 Y60.305 E20.78224
G1 X145.673 Y60.503 E20.8206
G1 X146.392 Y60.777 E20.85899
G1 X147.078 Y61.124 E20.89734
G1 X147.725 Y61.54 E20.93572
G1 X148.325 Y62.021 E20.97408
G1 X148.752 Y62.43 E21.00358
G1 X149.266 Y63.002 E21.04195
G1 X149.719 Y63.624 E21.08034
G1 X150.105 Y64.289 E21.1187
G1 X150.42 Y64.991 E21.15709
G1 X150.66 Y65.722 E21.19547
G1 X150.823 Y66.473 E21.23381
G1 X150.907 Y67.238 E21.27221
G1 X150.919 Y67.663 E21.29342
G1 X150.919 Y76.235 E21.72108
G1 X150.879 Y77.003 E21.75944
G1 X150.76 Y77.763 E21.79782
G1 X150.562 Y78.506 E21.83619
G1 X150.288 Y79.225 E21.87457
G1 X149.941 Y79.911 E21.91293
G1 X149.525 Y80.558 E21.9513
G1 X149.044 Y81.158 E21.98967
G1 X148.877 Y81.336 E22.00184
G1 X149.266 Y81.769 E22.03088
G1 X149.719 Y82.391 E22.06927
G1 X150.105 Y83.056 E22.10763
G1 X150.42 Y83.758 E22.14602
G1 X150.66 Y84.489 E22.18441
G1 X150.823 Y85.24 E22.22275
G1 X150.907 Y86.005 E22.26114
G1 X150.919 Y86.43 E22.28235
G1 X150.919 Y92.549 E22.58763
G1 X150.67 Y118.259 E23.87037
G1 X150.903 Y124.216 E24.16779
G1 X150.893 Y124.985 E24.20616
G1 X150.804 Y125.749 E24.24454
G1 X150.635 Y126.5 E24.28294
G1 X150.39 Y127.229 E24.32131
G1 X150.07 Y127.928 E24.35966
G1 X149.679 Y128.591 E24.39806
G1 X149.222 Y129.209 E24.43641
G1 X148.694 Y129.786 E24.47543
G1 X148.923 Y130.041 E24.49253
G1 X149.376 Y130.663 E24.53092
G1 X149.762 Y131.328 E24.56928
G1 X150.077 Y132.03 E24.60767
G1 X150.317 Y132.761 E24.64605
G1 X150.48 Y133.512 E24.68439
G1 X150.566 Y134.309 E24.72439
G1 X150.927 Y141.089 E25.06312
G1 X150.927 Y141.858 E25.10149
G1 X150.849 Y142.623 E25.13985
G1 X150.691 Y143.376 E25.17823
G1 X150.455 Y144.108 E25.21661
G1 X150.145 Y144.812 E25.25498
G1 X149.764 Y145.48 E25.29335
G1 X149.199 Y146.247 E25.34088
G1 X149.098 Y146.367 E25.3487
G1 X148.572 Y146.929 E25.3871
G1 X147.992 Y147.433 E25.42544
G1 X147.362 Y147.875 E25.46383
G1 X146.689 Y148.248 E25.50222
G1 X145.982 Y148.55 E25.54058
G1 X145.247 Y148.777 E25.57896
G1 X144.374 Y148.942 E25.62328
G1 X137.718 Y149.793 E25.95805
G1 X136.952 Y149.851 E25.99638
G1 X136.286 Y149.837 E26.02961
G1 X135.15 Y149.676 E26.08685
G1 X121.142 Y146.577 E26.80261
G1 X120.309 Y146.341 E26.84581
G1 X99.368 Y139.059 E27.95192
G1 X98.385 Y138.635 E28.00533
G1 X97.699 Y138.234 E28.04498
G1 X79.963 Y126.532 E29.10507
G1 X79.344 Y126.075 E29.14346
G1 X78.805 Y125.588 E29.1797
G1 X78.779 Y125.562 E29.18154
G1 X78.265 Y124.99 E29.2199
G1 X77.813 Y124.37 E29.25818
G1 X65.961 Y106.187 E30.34103
G1 X65.575 Y105.522 E30.37939
G1 X65.357 Y105.058 E30.40497
G1 X64.989 Y103.992 E30.46123
G1 X60.829 Y88.118 E31.27993
G1 X60.685 Y87.441 E31.31446
G1 X60.609 Y86.836 E31.34488
G1 X59.092 Y68.569 E32.25936
G1 X59.069 Y67.801 E32.2977
G1 X59.125 Y67.034 E32.33607
G1 X59.26 Y66.276 E32.37448
G1 X59.474 Y65.537 E32.41286
G1 X59.763 Y64.825 E32.4512
G1 X60.124 Y64.146 E32.48956
G1 X60.554 Y63.508 E32.52795
G1 X61.029 Y62.938 E32.56496
G1 X61.149 Y62.808 E32.57379
M205 X10 Y10
G0 F6000 X61.443 Y63.079
M205 X8 Y8
G1 F1200 X61.979 Y62.557 E32.61112
G1 X62.568 Y62.096 E32.64843
G1 X63.203 Y61.7 E32.68577
G1 X63.876 Y61.373 E32.7231
G1 X64.58 Y61.121 E32.7604
G1 X65.307 Y60.945 E32.79772
G1 X66.049 Y60.848 E32.83506
G1 X66.616 Y60.827 E32.86336
G1 X72.146 Y60.85 E33.13926
G1 X72.893 Y60.893 E33.17659
G1 X73.631 Y61.016 E33.21391
G1 X74.352 Y61.216 E33.25124
G1 X75.047 Y61.493 E33.28857
G1 X75.708 Y61.842 E33.32586
G1 X76.329 Y62.259 E33.36318
G1 X77.067 Y62.9 E33.41195
G1 X77.184 Y63.017 E33.4202
G1 X77.684 Y63.574 E33.45755
G1 X78.121 Y64.18 E33.49482
G1 X78.462 Y64.777 E33.52912
G1 X78.684 Y64.346 E33.55331
G1 X79.096 Y63.722 E33.59061
G1 X79.733 Y62.975 E33.63959
G1 X79.849 Y62.857 E33.64785
G1 X80.401 Y62.352 E33.68517
G1 X81.004 Y61.909 E33.7225
G1 X81.651 Y61.533 E33.75984
G1 X82.334 Y61.228 E33.79715
G1 X83.046 Y60.998 E33.83448
G1 X83.778 Y60.845 E33.87179
G1 X84.81 Y60.764 E33.92344
G1 X113.491 Y60.638 E35.35435
G1 X114.238 Y60.675 E35.39167
G1 X114.977 Y60.791 E35.42899
G1 X115.7 Y60.985 E35.46633
G1 X116.397 Y61.256 E35.50364
G1 X117.062 Y61.599 E35.54097
G1 X117.686 Y62.011 E35.57828
G1 X118.429 Y62.646 E35.62704
G1 X118.547 Y62.762 E35.63529
G1 X119.052 Y63.314 E35.67262
G1 X119.495 Y63.917 E35.70995
G1 X119.848 Y64.525 E35.74502
G1 X120.05 Y64.133 E35.76703
G1 X120.461 Y63.509 E35.8043
G1 X121.12 Y62.74 E35.85483
G1 X121.237 Y62.622 E35.86312
G1 X121.792 Y62.12 E35.90045
G1 X122.396 Y61.68 E35.93774
G1 X123.045 Y61.307 E35.97508
G1 X123.729 Y61.005 E36.01238
G1 X124.442 Y60.777 E36.04973
G1 X125.175 Y60.628 E36.08705
G1 X126.202 Y60.551 E36.13843
G1 X131.921 Y60.546 E36.42375
G1 X143.402 Y60.546 E36.99654
G1 X144.149 Y60.586 E37.03386
G1 X144.887 Y60.705 E37.07116
G1 X145.609 Y60.903 E37.10851
G1 X146.305 Y61.176 E37.14581
G1 X146.968 Y61.523 E37.18314
G1 X147.591 Y61.938 E37.22049
G1 X148.352 Y62.596 E37.27068
G1 X148.469 Y62.713 E37.27893
G1 X148.969 Y63.27 E37.31628
G1 X149.406 Y63.876 E37.35355
G1 X149.777 Y64.526 E37.39089
G1 X150.076 Y65.212 E37.42822
G1 X150.3 Y65.926 E37.46556
G1 X150.447 Y66.659 E37.50285
G1 X150.519 Y67.663 E37.55307
G1 X150.519 Y76.235 E37.98073
G1 X150.479 Y76.982 E38.01805
G1 X150.36 Y77.72 E38.05535
G1 X150.162 Y78.442 E38.0927
G1 X149.889 Y79.138 E38.13
G1 X149.542 Y79.801 E38.16733
G1 X149.127 Y80.424 E38.20468
G1 X148.469 Y81.185 E38.25487
G1 X148.352 Y81.363 E38.2655
G1 X148.469 Y81.48 E38.27375
G1 X148.969 Y82.037 E38.31109
G1 X149.406 Y82.643 E38.34837
G1 X149.777 Y83.293 E38.38571
G1 X150.076 Y83.979 E38.42304
G1 X150.3 Y84.693 E38.46037
G1 X150.447 Y85.426 E38.49767
G1 X150.519 Y86.43 E38.54789
G1 X150.519 Y92.545 E38.85297
G1 X150.27 Y118.25 E40.13546
G1 X150.504 Y124.232 E40.43413
G1 X150.493 Y124.98 E40.47145
G1 X150.402 Y125.723 E40.5088
G1 X150.233 Y126.451 E40.54608
G1 X149.987 Y127.158 E40.58343
G1 X149.667 Y127.834 E40.62074
G1 X149.277 Y128.472 E40.65805
G1 X148.821 Y129.065 E40.69537
G1 X148.419 Y129.495 E40.72474
G1 X148.133 Y129.76 E40.74419
G1 X148.626 Y130.309 E40.781
G1 X149.063 Y130.915 E40.81827
G1 X149.434 Y131.565 E40.85561
G1 X149.733 Y132.251 E40.89295
G1 X149.957 Y132.965 E40.93028
G1 X150.104 Y133.698 E40.96758
G1 X150.166 Y134.33 E40.99926
G1 X150.527 Y141.11 E41.338
G1 X150.527 Y141.858 E41.37531
G1 X150.447 Y142.602 E41.41265
G1 X150.288 Y143.333 E41.44997
G1 X150.052 Y144.042 E41.48725
G1 X149.741 Y144.723 E41.5246
G1 X149.36 Y145.367 E41.56193
G1 X148.893 Y145.99 E41.60077
G1 X148.792 Y146.11 E41.6086
G1 X148.28 Y146.655 E41.64591
G1 X147.713 Y147.143 E41.68323
G1 X147.097 Y147.568 E41.72057
G1 X146.44 Y147.925 E41.75787
G1 X145.748 Y148.209 E41.79519
G1 X145.03 Y148.418 E41.8325
G1 X144.324 Y148.545 E41.86828
G1 X137.668 Y149.396 E42.20306
G1 X136.922 Y149.452 E42.24038
G1 X136.311 Y149.437 E42.27087
G1 X135.236 Y149.286 E42.32503
G1 X121.228 Y146.187 E43.04079
G1 X120.441 Y145.964 E43.0816
G1 X99.5 Y138.682 E44.18771
G1 X98.57 Y138.281 E44.23824
G1 X97.919 Y137.9 E44.27587
G1 X80.183 Y126.198 E45.33597
G1 X79.581 Y125.753 E45.37332
G1 X79.088 Y125.305 E45.40655
G1 X79.062 Y125.279 E45.40839
G1 X78.562 Y124.722 E45.44573
G1 X78.148 Y124.151 E45.48092
G1 X66.296 Y105.968 E46.56377
G1 X65.921 Y105.321 E46.60108
G1 X65.724 Y104.899 E46.62431
G1 X65.376 Y103.891 E46.67751
G1 X61.216 Y88.017 E47.49621
G1 X61.079 Y87.375 E47.52896
G1 X61.008 Y86.803 E47.55772
G1 X59.491 Y68.536 E48.4722
G1 X59.469 Y67.789 E48.50948
G1 X59.527 Y67.043 E48.54682
G1 X59.664 Y66.307 E48.58417
G1 X59.879 Y65.591 E48.62146
G1 X60.169 Y64.901 E48.6588
G1 X60.531 Y64.247 E48.6961
G1 X60.961 Y63.634 E48.73345
G1 X61.323 Y63.209 E48.76131
G1 X61.443 Y63.079 E48.77013
M205 X10 Y10
G0 F6000 X61.737 Y63.35
M205 X8 Y8
G1 F1200 X62.259 Y62.845 E48.80637
