;FLAVOR:Marlin
;TIME:2426
;Filament used: 1.81202m
;Layer height: 0.2
;MINX:75.245
;MINY:79.129
;MINZ:0.3
;MAXX:134.771
;MAXY:130.614
;MAXZ:8.775
;Generated with Cura_SteamEngine 4.13.1
M82 ;absolute extrusion mode
G21                                        ; metric values 
G90                                        ; absolute positioning 
M82                                        ; set extruder to absolute mode 
M107                                       ; start with the fan off 
M140 S60.0           ; Start heating the bed 
G4 S60                                     ; wait 1 minute 
M104 S220.0         ; start heating the hot end 
M190 S60.0           ; wait for bed 
M109 S220.0         ; wait for hotend 
M300 S1000 P500                            ; BEEP heating done 
G28 X0 Y10 Z0                              ; move X/Y to min endstops 
M420 S1                                    ; Enable leveling 
M420 Z2.0                                  ; Set leveling fading height to 2 mm 
G0 Z0.15                                   ; lift nozzle a bit 
G92 E0                                     ; zero the extruded length 
G1 X50 E25 F500                            ; Extrude 25mm of filament in a 5cm line. 
G92 E0                                     ; zero the extruded length again 
G1 E-2 F500                                ; Retract a little 
G1 X120 F4000                              ; Quickly wipe away from the filament line`
G92 E0
G92 E0
G1 F2400 E-3
;LAYER_COUNT:43
;LAYER:0
M106 S76.5
M205 X10 Y10
G1 F600 Z0.375
G0 F6000 X81.18 Y84.286 Z0.375
M205 X8 Y8
;TYPE:SKIRT
G1 F600 Z0.3
G1 F2400 E0
G1 F1200 X81.988 Y83.573 E0.05376
G1 X82.571 Y83.107 E0.091
G1 X83.465 Y82.459 E0.14608
G1 X84.104 Y82.042 E0.18415
G1 X85.056 Y81.485 E0.23918
G1 X85.725 Y81.136 E0.27682
G1 X86.719 Y80.677 E0.33145
G1 X87.43 Y80.39 E0.3697
G1 X88.481 Y80.025 E0.42521
G1 X89.187 Y79.816 E0.46194
G1 X90.254 Y79.555 E0.51674
G1 X90.987 Y79.413 E0.55399
G1 X92.083 Y79.254 E0.60924
G1 X92.83 Y79.182 E0.64668
G1 X93.936 Y79.129 E0.70193
G1 X94.683 Y79.129 E0.73919
G1 X95.767 Y79.181 E0.79334
G1 X96.513 Y79.253 E0.83073
G1 X97.63 Y79.415 E0.88704
G1 X98.373 Y79.56 E0.92481
G1 X99.438 Y79.822 E0.97952
G1 X100.13 Y80.026 E1.01552
G1 X101.183 Y80.391 E1.07112
G1 X101.92 Y80.69 E1.1108
G1 X102.921 Y81.156 E1.16588
G1 X103.568 Y81.495 E1.20233
G1 X104.508 Y82.045 E1.25666
G1 X105.16 Y82.471 E1.29552
G1 X106.061 Y83.127 E1.35112
G1 X106.645 Y83.597 E1.38852
G1 X107.449 Y84.31 E1.44213
G1 X107.836 Y84.688 E1.46912
G1 X108.171 Y84.476 E1.4889
G1 X109.286 Y83.868 E1.55226
G1 X110.212 Y83.439 E1.60317
G1 X111.43 Y82.969 E1.66831
G1 X112.41 Y82.663 E1.71953
G1 X113.65 Y82.364 E1.78317
G1 X114.649 Y82.191 E1.83375
G1 X115.931 Y82.054 E1.89807
G1 X116.961 Y82.013 E1.9495
G1 X118.241 Y82.046 E2.01338
G1 X119.241 Y82.136 E2.06347
G1 X120.518 Y82.335 E2.12795
G1 X121.52 Y82.56 E2.17918
G1 X122.736 Y82.918 E2.24243
G1 X123.694 Y83.269 E2.29333
G1 X124.883 Y83.796 E2.35821
G1 X125.79 Y84.272 E2.40932
G1 X126.883 Y84.94 E2.47322
G1 X127.709 Y85.522 E2.52364
G1 X128.703 Y86.323 E2.58732
G1 X129.458 Y87.018 E2.63852
G1 X130.351 Y87.956 E2.70313
G1 X131.006 Y88.741 E2.75414
G1 X131.755 Y89.769 E2.8176
G1 X132.296 Y90.621 E2.86795
G1 X132.913 Y91.75 E2.93214
G1 X133.345 Y92.683 E2.98343
G1 X133.815 Y93.901 E3.04856
G1 X134.121 Y94.881 E3.09979
G1 X134.42 Y96.121 E3.16342
G1 X134.592 Y97.117 E3.21385
G1 X134.728 Y98.384 E3.27742
G1 X134.771 Y99.409 E3.3286
G1 X134.739 Y100.704 E3.39323
G1 X134.647 Y101.718 E3.44403
G1 X134.447 Y102.995 E3.50852
G1 X134.223 Y103.994 E3.55959
G1 X133.861 Y105.222 E3.62346
G1 X133.508 Y106.181 E3.67445
G1 X132.986 Y107.357 E3.73864
G1 X132.511 Y108.261 E3.78959
G1 X131.842 Y109.355 E3.85356
G1 X131.256 Y110.187 E3.90433
G1 X130.445 Y111.191 E3.96872
G1 X129.754 Y111.941 E4.0196
G1 X128.827 Y112.823 E4.08344
G1 X128.047 Y113.473 E4.13409
G1 X127.019 Y114.223 E4.19758
G1 X126.163 Y114.767 E4.24818
G1 X125.034 Y115.384 E4.31237
G1 X124.101 Y115.816 E4.36366
G1 X122.883 Y116.286 E4.4288
G1 X121.903 Y116.592 E4.48002
G1 X120.663 Y116.891 E4.54365
G1 X119.664 Y117.064 E4.59424
G1 X118.382 Y117.201 E4.65856
G1 X117.352 Y117.242 E4.70999
G1 X116.072 Y117.209 E4.77387
G1 X115.066 Y117.118 E4.82426
G1 X113.789 Y116.918 E4.88875
G1 X112.8 Y116.697 E4.93931
G1 X112.733 Y116.677 E4.9428
G1 X112.418 Y117.552 E4.98919
G1 X112.363 Y117.675 E4.99591
G1 X112.004 Y118.379 E5.03534
G1 X111.576 Y119.042 E5.07471
G1 X111.084 Y119.66 E5.11412
G1 X110.531 Y120.224 E5.15353
G1 X109.924 Y120.729 E5.19292
G1 X109.27 Y121.171 E5.2323
G1 X108.923 Y121.368 E5.25221
G1 X106.229 Y122.81 E5.40466
G1 X106.048 Y123.504 E5.44044
G1 X105.814 Y124.223 E5.47816
G1 X105.532 Y124.96 E5.51753
G1 X105.177 Y125.666 E5.55695
G1 X104.752 Y126.332 E5.59637
G1 X104.262 Y126.951 E5.63576
G1 X103.712 Y127.518 E5.67517
G1 X102.986 Y128.116 E5.72209
G1 X102.373 Y128.562 E5.75991
G1 X101.712 Y128.994 E5.79931
G1 X101.01 Y129.357 E5.83874
G1 X100.276 Y129.646 E5.87809
G1 X99.515 Y129.86 E5.91753
G1 X98.738 Y129.996 E5.95689
G1 X97.95 Y130.053 E5.9963
G1 X97.095 Y130.025 E6.03898
G1 X96.667 Y129.987 E6.06042
G1 X96.068 Y130.181 E6.09183
G1 X95.286 Y130.349 E6.13173
G1 X94.212 Y130.522 E6.18601
G1 X93.427 Y130.608 E6.22541
G1 X92.638 Y130.614 E6.26477
G1 X91.654 Y130.509 E6.31414
G1 X91.499 Y130.482 E6.32199
G1 X90.958 Y130.516 E6.34903
G1 X90.168 Y130.484 E6.38848
G1 X89.387 Y130.373 E6.42784
G1 X88.62 Y130.184 E6.46725
G1 X87.877 Y129.917 E6.50664
G1 X87.164 Y129.578 E6.54602
G1 X86.284 Y129.023 E6.59793
G1 X85.671 Y128.577 E6.63575
G1 X85.057 Y128.081 E6.67513
G1 X84.496 Y127.525 E6.71453
G1 X83.994 Y126.915 E6.75395
G1 X83.557 Y126.258 E6.79331
G1 X83.188 Y125.56 E6.8327
G1 X82.841 Y124.678 E6.87999
G1 X82.607 Y123.957 E6.91781
G1 X82.402 Y123.194 E6.95722
G1 X82.36 Y122.94 E6.97007
G1 X79.424 Y121.369 E7.1362
G1 X78.748 Y120.962 E7.17556
G1 X78.116 Y120.488 E7.21498
G1 X77.535 Y119.953 E7.25438
G1 X77.011 Y119.362 E7.29379
G1 X76.55 Y118.721 E7.33318
G1 X76.004 Y117.723 E7.38993
G1 X75.948 Y117.6 E7.39667
G1 X75.658 Y116.866 E7.43605
G1 X75.443 Y116.106 E7.47545
G1 X75.306 Y115.328 E7.51486
G1 X75.249 Y114.54 E7.55428
G1 X75.271 Y113.751 E7.59366
G1 X75.374 Y112.968 E7.63306
G1 X75.463 Y112.546 E7.65458
G1 X77.057 Y105.911 E7.99502
G1 X76.87 Y105.524 E8.01646
G1 X76.572 Y104.82 E8.0546
G1 X76.196 Y103.796 E8.10902
G1 X75.958 Y103.026 E8.14923
G1 X75.689 Y101.966 E8.20379
G1 X75.538 Y101.225 E8.24152
G1 X75.377 Y100.171 E8.29471
G1 X75.297 Y99.37 E8.33487
G1 X75.245 Y98.294 E8.38862
G1 X75.246 Y97.52 E8.42723
G1 X75.301 Y96.44 E8.48119
G1 X75.379 Y95.667 E8.51995
G1 X75.541 Y94.599 E8.57384
G1 X75.7 Y93.821 E8.61346
G1 X75.97 Y92.774 E8.6674
G1 X76.201 Y92.032 E8.70617
G1 X76.575 Y91.014 E8.76028
G1 X76.879 Y90.3 E8.79899
G1 X77.35 Y89.329 E8.85284
G1 X77.719 Y88.655 E8.89117
G1 X78.29 Y87.724 E8.94566
G1 X78.732 Y87.078 E8.98471
G1 X79.385 Y86.22 E9.0385
G1 X79.868 Y85.645 E9.07597
G1 X80.617 Y84.836 E9.13097
G1 X81.18 Y84.286 E9.17024
M205 X10 Y10
G0 F6000 X81.445 Y84.586
M205 X8 Y8
G1 F1200 X82.253 Y83.873 E9.224
G1 X82.806 Y83.43 E9.25935
G1 X83.7 Y82.782 E9.31444
G1 X84.306 Y82.387 E9.35052
G1 X85.258 Y81.83 E9.40555
G1 X85.893 Y81.499 E9.44128
G1 X86.887 Y81.04 E9.4959
G1 X87.561 Y80.768 E9.53216
G1 X88.612 Y80.403 E9.58767
G1 X89.282 Y80.205 E9.62252
G1 X90.349 Y79.944 E9.67733
G1 X91.045 Y79.809 E9.7127
G1 X92.141 Y79.65 E9.76795
G1 X92.849 Y79.581 E9.80344
G1 X93.955 Y79.528 E9.85868
G1 X94.664 Y79.528 E9.89405
G1 X95.748 Y79.58 E9.9482
G1 X96.455 Y79.649 E9.98364
G1 X97.572 Y79.811 E10.03995
G1 X98.278 Y79.948 E10.07583
G1 X99.343 Y80.21 E10.13054
G1 X99.999 Y80.404 E10.16467
G1 X101.052 Y80.769 E10.22027
G1 X101.751 Y81.052 E10.2579
G1 X102.752 Y81.518 E10.31298
G1 X103.366 Y81.84 E10.34757
G1 X104.306 Y82.39 E10.40191
G1 X104.925 Y82.795 E10.43881
G1 X105.826 Y83.451 E10.49441
G1 X106.38 Y83.896 E10.52987
G1 X107.184 Y84.609 E10.58348
G1 X107.699 Y85.113 E10.61943
G1 X107.777 Y85.197 E10.62515
G1 X108.362 Y84.827 E10.65968
G1 X109.477 Y84.219 E10.72304
G1 X110.356 Y83.812 E10.77137
G1 X111.574 Y83.342 E10.8365
G1 X112.503 Y83.052 E10.88506
G1 X113.743 Y82.753 E10.94869
G1 X114.692 Y82.589 E10.99674
G1 X115.974 Y82.452 E11.06106
G1 X116.951 Y82.412 E11.10985
G1 X118.231 Y82.445 E11.17373
G1 X119.179 Y82.531 E11.22122
G1 X120.456 Y82.73 E11.2857
G1 X121.407 Y82.943 E11.33432
G1 X122.623 Y83.301 E11.39756
G1 X123.532 Y83.635 E11.44587
G1 X124.721 Y84.162 E11.51076
G1 X125.581 Y84.613 E11.55921
G1 X126.674 Y85.281 E11.62311
G1 X127.458 Y85.833 E11.67095
G1 X128.452 Y86.634 E11.73464
G1 X129.169 Y87.294 E11.78326
G1 X130.062 Y88.232 E11.84787
G1 X130.683 Y88.976 E11.89622
G1 X131.432 Y90.004 E11.95968
G1 X131.945 Y90.813 E12.00747
G1 X132.562 Y91.942 E12.07166
G1 X132.972 Y92.827 E12.12032
G1 X133.442 Y94.045 E12.18545
G1 X133.732 Y94.974 E12.234
G1 X134.031 Y96.214 E12.29764
G1 X134.195 Y97.159 E12.34549
G1 X134.331 Y98.426 E12.40907
G1 X134.371 Y99.399 E12.45765
G1 X134.339 Y100.694 E12.52228
G1 X134.252 Y101.656 E12.57047
G1 X134.052 Y102.933 E12.63495
G1 X133.839 Y103.88 E12.68338
G1 X133.477 Y105.108 E12.74725
G1 X133.143 Y106.018 E12.79561
G1 X132.621 Y107.194 E12.8598
G1 X132.17 Y108.053 E12.90821
G1 X131.501 Y109.147 E12.97218
G1 X130.945 Y109.936 E13.02034
G1 X130.134 Y110.94 E13.08473
G1 X129.478 Y111.651 E13.13299
G1 X128.551 Y112.533 E13.19683
G1 X127.811 Y113.15 E13.2449
G1 X126.783 Y113.9 E13.30838
G1 X125.971 Y114.416 E13.35638
G1 X124.842 Y115.033 E13.42057
G1 X123.957 Y115.443 E13.46923
G1 X122.739 Y115.913 E13.53437
G1 X121.81 Y116.203 E13.58292
G1 X120.57 Y116.502 E13.64656
G1 X119.621 Y116.666 E13.6946
G1 X118.339 Y116.803 E13.75893
G1 X117.362 Y116.843 E13.80771
G1 X116.082 Y116.81 E13.87159
G1 X115.128 Y116.723 E13.91938
G1 X113.851 Y116.523 E13.98387
G1 X112.913 Y116.313 E14.03183
G1 X112.462 Y116.181 E14.05527
G1 X112.4 Y116.443 E14.0687
G1 X112.052 Y117.389 E14.11899
G1 X111.997 Y117.512 E14.12571
G1 X111.647 Y118.197 E14.16409
G1 X111.228 Y118.841 E14.20242
G1 X110.744 Y119.439 E14.2408
G1 X110.201 Y119.984 E14.27919
G1 X109.604 Y120.469 E14.31756
G1 X108.734 Y121.015 E14.3688
G1 X105.876 Y122.545 E14.53054
G1 X105.668 Y123.38 E14.57347
G1 X105.434 Y124.099 E14.61119
G1 X105.158 Y124.817 E14.64957
G1 X104.809 Y125.503 E14.68797
G1 X104.391 Y126.148 E14.72631
G1 X103.908 Y126.747 E14.7647
G1 X103.366 Y127.292 E14.80305
G1 X102.751 Y127.793 E14.84262
G1 X102.138 Y128.239 E14.88044
G1 X101.493 Y128.658 E14.91882
G1 X100.808 Y129.009 E14.95722
G1 X100.091 Y129.286 E14.99556
G1 X99.349 Y129.488 E15.03393
G1 X98.589 Y129.611 E15.07234
G1 X97.822 Y129.655 E15.11067
G1 X97.131 Y129.626 E15.14517
G1 X96.628 Y129.581 E15.17037
G1 X95.925 Y129.805 E15.20718
G1 X95.223 Y129.954 E15.24298
G1 X94.149 Y130.127 E15.29725
G1 X93.384 Y130.21 E15.33564
G1 X92.615 Y130.212 E15.37401
G1 X91.722 Y130.115 E15.41882
G1 X91.522 Y130.081 E15.42895
G1 X90.933 Y130.116 E15.45838
G1 X90.165 Y130.082 E15.49674
G1 X89.404 Y129.969 E15.53512
G1 X88.659 Y129.777 E15.5735
G1 X87.938 Y129.509 E15.61188
G1 X87.249 Y129.168 E15.65023
G1 X86.519 Y128.7 E15.69349
G1 X85.906 Y128.254 E15.73131
G1 X85.309 Y127.77 E15.76966
G1 X84.765 Y127.226 E15.80804
G1 X84.28 Y126.629 E15.84641
G1 X83.86 Y125.984 E15.88481
G1 X83.509 Y125.3 E15.92317
G1 X83.221 Y124.554 E15.96306
G1 X82.987 Y123.833 E16.00088
G1 X82.788 Y123.09 E16.03926
G1 X82.723 Y122.679 E16.06002
G1 X79.613 Y121.016 E16.23596
G1 X78.954 Y120.619 E16.27435
G1 X78.341 Y120.155 E16.3127
G1 X77.778 Y119.63 E16.35111
G1 X77.274 Y119.05 E16.38944
G1 X76.832 Y118.42 E16.42784
G1 X76.368 Y117.557 E16.47672
G1 X76.312 Y117.434 E16.48346
G1 X76.03 Y116.719 E16.52181
G1 X75.824 Y115.978 E16.56018
G1 X75.696 Y115.219 E16.59858
G1 X75.647 Y114.452 E16.63693
G1 X75.679 Y113.683 E16.67533
G1 X75.852 Y112.64 E16.72807
G1 X77.479 Y105.864 E17.07574
G1 X77.231 Y105.35 E17.10421
G1 X76.947 Y104.682 E17.14042
G1 X76.571 Y103.658 E17.19484
G1 X76.345 Y102.927 E17.23302
G1 X76.076 Y101.867 E17.28758
G1 X75.934 Y101.164 E17.32336
G1 X75.773 Y100.11 E17.37655
G1 X75.697 Y99.35 E17.41466
G1 X75.645 Y98.274 E17.4684
G1 X75.646 Y97.541 E17.50497
G1 X75.701 Y96.461 E17.55892
G1 X75.775 Y95.727 E17.59573
G1 X75.937 Y94.659 E17.64962
G1 X76.087 Y93.921 E17.68719
G1 X76.357 Y92.874 E17.74114
G1 X76.577 Y92.17 E17.77793
G1 X76.951 Y91.152 E17.83204
G1 X77.239 Y90.474 E17.86879
G1 X77.71 Y89.503 E17.92263
G1 X78.06 Y88.864 E17.95898
G1 X78.631 Y87.933 E18.01347
G1 X79.05 Y87.32 E18.05052
G1 X79.703 Y86.462 E18.10431
G1 X80.162 Y85.917 E18.13986
G1 X80.911 Y85.108 E18.19486
G1 X81.445 Y84.586 E18.23212
M205 X10 Y10
G0 F6000 X81.709 Y84.886
M205 X8 Y8
G1 F1200 X82.517 Y84.173 E18.28588
G1 X83.041 Y83.754 E18.31935
G1 X83.935 Y83.106 E18.37444
G1 X84.508 Y82.732 E18.40857
G1 X85.46 Y82.175 E18.4636
G1 X86.06 Y81.862 E18.49736
G1 X87.054 Y81.403 E18.55199
G1 X87.693 Y81.145 E18.58637
G1 X88.744 Y80.78 E18.64187
G1 X89.377 Y80.593 E18.6748
G1 X90.444 Y80.332 E18.72961
G1 X91.102 Y80.205 E18.76304
G1 X92.198 Y80.046 E18.81829
G1 X92.868 Y79.981 E18.85187
G1 X93.974 Y79.928 E18.90712
G1 X94.644 Y79.928 E18.94054
G1 X95.728 Y79.98 E18.99469
G1 X96.398 Y80.044 E19.02826
G1 X97.515 Y80.206 E19.08458
G1 X98.182 Y80.337 E19.11849
G1 X99.247 Y80.599 E19.1732
G1 X99.868 Y80.782 E19.2055
G1 X100.921 Y81.147 E19.2611
G1 X101.582 Y81.415 E19.29669
G1 X102.583 Y81.881 E19.35178
G1 X103.164 Y82.185 E19.38449
G1 X104.104 Y82.735 E19.43883
G1 X104.689 Y83.118 E19.47371
G1 X105.59 Y83.774 E19.52931
G1 X106.114 Y84.196 E19.56288
G1 X106.918 Y84.909 E19.61649
G1 X107.405 Y85.385 E19.65047
G1 X107.713 Y85.717 E19.67306
G1 X107.787 Y85.663 E19.67763
G1 X108.554 Y85.178 E19.7229
G1 X109.669 Y84.57 E19.78626
G1 X110.5 Y84.185 E19.83196
G1 X111.718 Y83.715 E19.89709
G1 X112.597 Y83.441 E19.94302
G1 X113.837 Y83.142 E20.00666
G1 X114.734 Y82.987 E20.05208
G1 X116.016 Y82.85 E20.1164
G1 X116.94 Y82.812 E20.16254
G1 X118.22 Y82.845 E20.22642
G1 X119.118 Y82.926 E20.2714
G1 X120.395 Y83.125 E20.33588
G1 X121.294 Y83.327 E20.38185
G1 X122.51 Y83.685 E20.44509
G1 X123.369 Y84 E20.49074
G1 X124.558 Y84.527 E20.55562
G1 X125.372 Y84.954 E20.60148
G1 X126.465 Y85.622 E20.66539
G1 X127.207 Y86.144 E20.71065
G1 X128.201 Y86.945 E20.77434
G1 X128.879 Y87.569 E20.82031
G1 X129.772 Y88.507 E20.88492
G1 X130.36 Y89.212 E20.93072
G1 X131.109 Y90.24 E20.99418
G1 X131.594 Y91.005 E21.03937
G1 X132.211 Y92.134 E21.10356
G1 X132.599 Y92.971 E21.14958
G1 X133.069 Y94.189 E21.21472
G1 X133.343 Y95.068 E21.26065
G1 X133.642 Y96.308 E21.32429
G1 X133.797 Y97.202 E21.36956
G1 X133.933 Y98.469 E21.43313
G1 X133.971 Y99.389 E21.47907
G1 X133.939 Y100.684 E21.5437
G1 X133.857 Y101.594 E21.58928
G1 X133.657 Y102.871 E21.65377
G1 X133.455 Y103.767 E21.69959
G1 X133.093 Y104.995 E21.76346
G1 X132.777 Y105.856 E21.80922
G1 X132.255 Y107.032 E21.87341
G1 X131.829 Y107.844 E21.91916
G1 X131.16 Y108.938 E21.98313
G1 X130.633 Y109.685 E22.02874
G1 X129.822 Y110.689 E22.09313
G1 X129.202 Y111.361 E22.13875
G1 X128.275 Y112.243 E22.20259
G1 X127.576 Y112.827 E22.24803
G1 X126.548 Y113.577 E22.31151
G1 X125.779 Y114.065 E22.35695
G1 X124.65 Y114.682 E22.42114
G1 X123.813 Y115.07 E22.46717
G1 X122.595 Y115.54 E22.5323
G1 X121.716 Y115.814 E22.57824
G1 X120.476 Y116.113 E22.64187
G1 X119.579 Y116.268 E22.68729
G1 X118.297 Y116.405 E22.75161
G1 X117.373 Y116.443 E22.79775
G1 X116.093 Y116.41 E22.86163
G1 X115.19 Y116.328 E22.90687
G1 X113.913 Y116.128 E22.97135
G1 X113.026 Y115.929 E23.0167
