;FLAVOR:Marlin
;TIME:2842
;Filament used: 2.01554m
;Layer height: 0.2
;MINX:77.096
;MINY:82.18
;MINZ:0.3
;MAXX:128.669
;MAXY:127.912
;MAXZ:15.975
;Generated with Cura_SteamEngine 4.13.1
M82 ;absolute extrusion mode
G21                                        ; metric values 
G90                                        ; absolute positioning 
M82                                        ; set extruder to absolute mode 
M107                                       ; start with the fan off 
M140 S60.0           ; Start heating the bed 
G4 S60                                     ; wait 1 minute 
M104 S220.0         ; start heating the hot end 
M190 S60.0           ; wait for bed 
M109 S220.0         ; wait for hotend 
M300 S1000 P500                            ; BEEP heating done 
G28 X0 Y10 Z0                              ; move X/Y to min endstops 
M420 S1                                    ; Enable leveling 
M420 Z2.0                                  ; Set leveling fading height to 2 mm 
G0 Z0.15                                   ; lift nozzle a bit 
G92 E0                                     ; zero the extruded length 
G1 X50 E25 F500                            ; Extrude 25mm of filament in a 5cm line. 
G92 E0                                     ; zero the extruded length again 
G1 E-2 F500                                ; Retract a little 
G1 X120 F4000                              ; Quickly wipe away from the filament line`
G92 E0
G92 E0
G1 F2400 E-3
;LAYER_COUNT:79
;LAYER:0
M106 S76.5
M205 X10 Y10
G1 F600 Z0.375
G0 F6000 X79.498 Y84.468 Z0.375
M205 X8 Y8
;TYPE:SKIRT
G1 F600 Z0.3
G1 F2400 E0
G1 F1200 X80.084 Y83.938 E0.03942
G1 X80.72 Y83.471 E0.07878
G1 X81.4 Y83.07 E0.11817
G1 X82.118 Y82.74 E0.15759
G1 X82.865 Y82.485 E0.19697
G1 X83.634 Y82.306 E0.23636
G1 X84.418 Y82.206 E0.27579
G1 X85.009 Y82.183 E0.3053
G1 X91.113 Y82.18 E0.60983
G1 X92.866 Y82.183 E0.69729
G1 X111.599 Y82.181 E1.63188
G1 X112.372 Y82.183 E1.67045
G1 X119.013 Y82.183 E2.00177
G1 X119.802 Y82.223 E2.04118
G1 X120.767 Y82.383 E2.08998
G1 X120.806 Y82.392 E2.09198
G1 X121.565 Y82.608 E2.13135
G1 X122.415 Y82.954 E2.17714
G1 X124.058 Y83.739 E2.26798
G1 X124.752 Y84.115 E2.30736
G1 X125.405 Y84.559 E2.34676
G1 X126.095 Y85.149 E2.39205
G1 X126.268 Y85.315 E2.40401
G1 X126.81 Y85.89 E2.44343
G1 X127.29 Y86.516 E2.48279
G1 X127.705 Y87.188 E2.52219
G1 X128.05 Y87.899 E2.56162
G1 X128.32 Y88.641 E2.60101
G1 X128.515 Y89.406 E2.6404
G1 X128.631 Y90.187 E2.67979
G1 X128.668 Y90.942 E2.7175
G1 X128.669 Y96.919 E3.0157
G1 X128.658 Y113.652 E3.85051
G1 X128.659 Y114.913 E3.91342
G1 X128.62 Y115.702 E3.95283
G1 X128.501 Y116.482 E3.9922
G1 X128.304 Y117.247 E4.03161
G1 X128.03 Y117.988 E4.07102
G1 X127.604 Y118.836 E4.11837
G1 X127.55 Y118.929 E4.12374
G1 X127.12 Y119.591 E4.16312
G1 X126.624 Y120.206 E4.20254
G1 X126.069 Y120.767 E4.24191
G1 X125.461 Y121.27 E4.28127
G1 X124.578 Y121.839 E4.33368
G1 X115.372 Y126.927 E4.85845
G1 X114.662 Y127.273 E4.89785
G1 X113.609 Y127.637 E4.95344
G1 X113.564 Y127.649 E4.95576
G1 X112.791 Y127.813 E4.99519
G1 X112.006 Y127.899 E5.03458
G1 X111.554 Y127.912 E5.05714
G1 X104.193 Y127.912 E5.42439
G1 X103.404 Y127.872 E5.4638
G1 X102.624 Y127.753 E5.50316
G1 X101.859 Y127.555 E5.54259
G1 X101.562 Y127.445 E5.55839
G1 X101.081 Y127.609 E5.58374
G1 X100.312 Y127.788 E5.62313
G1 X99.528 Y127.888 E5.66256
G1 X98.934 Y127.911 E5.69222
G1 X91.218 Y127.912 E6.07717
G1 X90.429 Y127.872 E6.11659
G1 X89.649 Y127.753 E6.15595
G1 X88.884 Y127.555 E6.19538
G1 X88.144 Y127.281 E6.23475
G1 X87.434 Y126.933 E6.27419
G1 X86.764 Y126.516 E6.31357
G1 X86.139 Y126.033 E6.35297
G1 X85.702 Y125.627 E6.38273
G1 X85.585 Y125.51 E6.39099
G1 X85.055 Y124.924 E6.43041
G1 X84.588 Y124.288 E6.46977
G1 X84.187 Y123.608 E6.50916
G1 X83.857 Y122.89 E6.54858
G1 X83.602 Y122.143 E6.58796
G1 X83.423 Y121.374 E6.62735
G1 X83.323 Y120.59 E6.66678
G1 X83.3 Y119.995 E6.69649
G1 X83.3 Y105.017 E7.44374
G1 X83.248 Y104.909 E7.44972
G1 X80.548 Y103.06 E7.61299
G1 X79.92 Y102.581 E7.65239
G1 X79.343 Y102.041 E7.69182
G1 X78.824 Y101.446 E7.73121
G1 X78.368 Y100.801 E7.77062
G1 X78.077 Y100.305 E7.79931
G1 X77.732 Y99.595 E7.83869
G1 X77.459 Y98.854 E7.87809
G1 X77.263 Y98.089 E7.91749
G1 X77.145 Y97.308 E7.95689
G1 X77.107 Y96.598 E7.99237
G1 X77.096 Y95.185 E8.06286
G1 X77.096 Y90.1 E8.31655
G1 X77.136 Y89.311 E8.35597
G1 X77.255 Y88.531 E8.39533
G1 X77.453 Y87.766 E8.43476
G1 X77.727 Y87.026 E8.47412
G1 X78.075 Y86.317 E8.51353
G1 X78.493 Y85.646 E8.55297
G1 X78.976 Y85.022 E8.59234
G1 X79.381 Y84.585 E8.62206
G1 X79.498 Y84.468 E8.63032
M205 X10 Y10
G0 F6000 X79.78 Y84.75
M205 X8 Y8
G1 F1200 X80.352 Y84.236 E8.66868
G1 X80.974 Y83.783 E8.70707
G1 X81.639 Y83.397 E8.74543
G1 X82.341 Y83.082 E8.78382
G1 X83.072 Y82.842 E8.82221
G1 X83.823 Y82.679 E8.86055
G1 X84.588 Y82.595 E8.89894
G1 X85.009 Y82.583 E8.91995
G1 X91.113 Y82.58 E9.22448
G1 X92.866 Y82.583 E9.31194
G1 X111.598 Y82.581 E10.24648
G1 X112.371 Y82.583 E10.28505
G1 X119.013 Y82.583 E10.61642
G1 X119.781 Y82.623 E10.65479
G1 X120.677 Y82.773 E10.70011
G1 X120.716 Y82.782 E10.70211
G1 X121.455 Y82.993 E10.74045
G1 X122.242 Y83.315 E10.78287
G1 X123.885 Y84.1 E10.87372
G1 X124.561 Y84.467 E10.91209
G1 X125.195 Y84.903 E10.95048
G1 X125.818 Y85.438 E10.99145
G1 X125.991 Y85.604 E11.00341
G1 X126.518 Y86.164 E11.04178
G1 X126.984 Y86.776 E11.08015
G1 X127.383 Y87.434 E11.11855
G1 X127.712 Y88.129 E11.15691
G1 X127.967 Y88.855 E11.1953
G1 X128.146 Y89.603 E11.23367
G1 X128.245 Y90.365 E11.272
G1 X128.268 Y90.942 E11.30081
G1 X128.269 Y96.919 E11.59901
G1 X128.258 Y113.652 E12.43382
G1 X128.259 Y114.913 E12.49673
G1 X128.22 Y115.681 E12.5351
G1 X128.101 Y116.441 E12.57348
G1 X127.904 Y117.185 E12.61187
G1 X127.63 Y117.904 E12.65026
G1 X127.258 Y118.635 E12.69118
G1 X127.204 Y118.728 E12.69655
G1 X126.784 Y119.372 E12.7349
G1 X126.299 Y119.969 E12.77328
G1 X125.755 Y120.513 E12.81166
G1 X125.157 Y120.997 E12.85004
G1 X124.385 Y121.489 E12.89572
G1 X115.179 Y126.577 E13.42048
G1 X114.487 Y126.913 E13.45886
G1 X113.506 Y127.25 E13.51061
G1 X113.461 Y127.262 E13.51294
G1 X112.708 Y127.421 E13.55133
G1 X111.943 Y127.502 E13.58971
G1 X111.554 Y127.512 E13.60912
G1 X104.193 Y127.512 E13.97637
G1 X103.425 Y127.472 E14.01473
G1 X102.665 Y127.353 E14.05311
G1 X101.922 Y127.155 E14.09147
G1 X101.574 Y127.022 E14.11006
G1 X100.874 Y127.252 E14.14682
G1 X100.123 Y127.415 E14.18516
G1 X99.358 Y127.499 E14.22356
G1 X98.934 Y127.511 E14.24472
G1 X91.218 Y127.512 E14.62967
G1 X90.45 Y127.472 E14.66804
G1 X89.69 Y127.353 E14.70642
G1 X88.947 Y127.155 E14.74478
G1 X88.228 Y126.881 E14.78317
G1 X87.541 Y126.535 E14.82154
G1 X86.895 Y126.118 E14.8599
G1 X86.294 Y125.637 E14.89831
G1 X85.867 Y125.228 E14.92781
G1 X85.353 Y124.656 E14.96617
G1 X84.9 Y124.034 E15.00456
G1 X84.514 Y123.369 E15.04292
G1 X84.199 Y122.667 E15.08131
G1 X83.959 Y121.936 E15.1197
G1 X83.796 Y121.185 E15.15803
G1 X83.712 Y120.42 E15.19643
G1 X83.7 Y119.995 E15.21764
G1 X83.7 Y104.925 E15.96949
G1 X83.563 Y104.639 E15.98531
G1 X80.774 Y102.729 E16.15395
G1 X80.163 Y102.262 E16.19232
G1 X79.603 Y101.735 E16.23069
G1 X79.102 Y101.151 E16.26907
G1 X78.476 Y100.199 E16.32592
G1 X78.428 Y100.112 E16.33087
G1 X78.092 Y99.42 E16.36925
G1 X77.829 Y98.697 E16.40764
G1 X77.643 Y97.951 E16.44599
G1 X77.536 Y97.189 E16.48438
G1 X77.507 Y96.595 E16.51405
G1 X77.496 Y95.182 E16.58455
G1 X77.496 Y90.1 E16.83809
G1 X77.536 Y89.332 E16.87646
G1 X77.655 Y88.572 E16.91484
G1 X77.853 Y87.829 E16.9532
G1 X78.127 Y87.11 E16.99159
G1 X78.474 Y86.424 E17.02994
G1 X78.89 Y85.777 E17.06832
G1 X79.371 Y85.177 E17.10668
G1 X79.78 Y84.75 E17.13618
M205 X10 Y10
G0 F6000 X80.063 Y85.033
M205 X8 Y8
G1 F1200 X80.62 Y84.533 E17.17352
G1 X81.226 Y84.096 E17.2108
G1 X81.876 Y83.725 E17.24814
G1 X82.562 Y83.426 E17.28547
G1 X83.276 Y83.202 E17.32281
G1 X84.009 Y83.055 E17.3601
G1 X85.01 Y82.983 E17.41017
G1 X91.112 Y82.98 E17.7146
G1 X92.865 Y82.983 E17.80206
G1 X111.597 Y82.981 E18.7366
G1 X112.37 Y82.983 E18.77517
G1 X119.013 Y82.983 E19.10659
G1 X119.76 Y83.023 E19.14391
G1 X120.587 Y83.162 E19.18575
G1 X120.626 Y83.171 E19.18775
G1 X121.345 Y83.378 E19.22507
G1 X122.07 Y83.676 E19.26418
G1 X123.713 Y84.461 E19.35503
G1 X124.37 Y84.819 E19.39235
G1 X124.984 Y85.245 E19.42964
G1 X125.542 Y85.726 E19.46639
G1 X125.715 Y85.892 E19.47835
G1 X126.226 Y86.438 E19.51566
G1 X126.676 Y87.036 E19.553
G1 X127.06 Y87.678 E19.59032
G1 X127.373 Y88.357 E19.62762
G1 X127.612 Y89.066 E19.66495
G1 X127.773 Y89.796 E19.70225
G1 X127.856 Y90.54 E19.73959
G1 X127.868 Y90.942 E19.75966
G1 X127.869 Y96.919 E20.05785
G1 X127.858 Y113.652 E20.89267
G1 X127.859 Y114.913 E20.95558
G1 X127.82 Y115.661 E20.99295
G1 X127.701 Y116.399 E21.03024
G1 X127.504 Y117.121 E21.06758
G1 X127.231 Y117.817 E21.10488
G1 X126.913 Y118.434 E21.13951
G1 X126.859 Y118.527 E21.14487
G1 X126.449 Y119.153 E21.18221
G1 X125.975 Y119.732 E21.21954
G1 X125.442 Y120.256 E21.25683
G1 X124.855 Y120.721 E21.29419
G1 X124.191 Y121.139 E21.33333
G1 X114.985 Y126.227 E21.8581
G1 X114.312 Y126.553 E21.89541
G1 X113.403 Y126.864 E21.94334
G1 X113.358 Y126.876 E21.94566
G1 X112.626 Y127.029 E21.98297
G1 X111.554 Y127.112 E22.03662
G1 X104.193 Y127.112 E22.40386
G1 X103.446 Y127.072 E22.44118
G1 X102.708 Y126.953 E22.47847
G1 X101.986 Y126.755 E22.51582
G1 X101.564 Y126.59 E22.53843
G1 X101.384 Y126.668 E22.54822
G1 X100.67 Y126.892 E22.58555
G1 X99.937 Y127.039 E22.62285
G1 X98.934 Y127.111 E22.67302
G1 X91.218 Y127.112 E23.05797
G1 X90.471 Y127.072 E23.09529
G1 X89.732 Y126.953 E23.13263
G1 X89.011 Y126.755 E23.16994
G1 X88.315 Y126.482 E23.20724
G1 X87.651 Y126.136 E23.24459
G1 X87.029 Y125.721 E23.2819
G1 X86.267 Y125.062 E23.33216
G1 X86.15 Y124.945 E23.34041
G1 X85.65 Y124.388 E23.37775
G1 X85.213 Y123.782 E23.41503
G1 X84.842 Y123.132 E23.45237
G1 X84.543 Y122.446 E23.4897
G1 X84.319 Y121.732 E23.52704
G1 X84.172 Y120.999 E23.56433
G1 X84.1 Y119.995 E23.61455
G1 X84.1 Y104.835 E24.37089
G1 X83.876 Y104.369 E24.39668
G1 X81 Y102.399 E24.5706
G1 X80.406 Y101.944 E24.60793
G1 X79.864 Y101.429 E24.64523
G1 X79.381 Y100.858 E24.68254
G1 X78.826 Y100.006 E24.73327
G1 X78.778 Y99.919 E24.73823
G1 X78.452 Y99.245 E24.77558
G1 X78.2 Y98.541 E24.81289
G1 X78.024 Y97.814 E24.85021
G1 X77.927 Y97.072 E24.88754
G1 X77.907 Y96.591 E24.91156
G1 X77.896 Y95.178 E24.98205
G1 X77.896 Y90.1 E25.2354
G1 X77.936 Y89.353 E25.27272
G1 X78.055 Y88.615 E25.31001
G1 X78.253 Y87.893 E25.34736
G1 X78.526 Y87.197 E25.38466
G1 X78.873 Y86.534 E25.422
G1 X79.288 Y85.911 E25.45934
G1 X79.946 Y85.15 E25.50953
G1 X80.063 Y85.033 E25.51779
M205 X10 Y10
G0 F6000 X80.346 Y85.316
M205 X8 Y8
G1 F1200 X80.887 Y84.832 E25.554
G1 X81.478 Y84.409 E25.59026
G1 X82.112 Y84.055 E25.62649
G1 X82.781 Y83.772 E25.66273
G1 X83.477 Y83.564 E25.69897
G1 X84.192 Y83.434 E25.73523
G1 X85.01 Y83.383 E25.77612
G1 X91.111 Y83.38 E26.0805
G1 X92.864 Y83.383 E26.16795
G1 X111.596 Y83.381 E27.1025
G1 X112.369 Y83.383 E27.14106
G1 X119.013 Y83.383 E27.47253
G1 X119.738 Y83.423 E27.50876
G1 X120.497 Y83.552 E27.54717
G1 X120.536 Y83.561 E27.54917
G1 X121.234 Y83.763 E27.58542
G1 X121.897 Y84.037 E27.62121
G1 X123.54 Y84.822 E27.71205
G1 X124.177 Y85.171 E27.74829
G1 X124.772 Y85.587 E27.78451
G1 X125.265 Y86.015 E27.81708
G1 X125.438 Y86.181 E27.82904
G1 X125.933 Y86.712 E27.86526
G1 X126.367 Y87.294 E27.90148
G1 X126.735 Y87.92 E27.93771
G1 X127.032 Y88.583 E27.97395
G1 X127.254 Y89.275 E28.01021
G1 X127.398 Y89.987 E28.04645
G1 X127.468 Y90.942 E28.09423
G1 X127.469 Y96.918 E28.39237
G1 X127.458 Y113.651 E29.22718
G1 X127.459 Y114.914 E29.29019
G1 X127.42 Y115.639 E29.32642
G1 X127.301 Y116.356 E29.36268
G1 X127.104 Y117.055 E29.39891
G1 X126.831 Y117.728 E29.43514
G1 X126.567 Y118.233 E29.46357
G1 X126.513 Y118.326 E29.46894
G1 X126.114 Y118.933 E29.50518
G1 X125.651 Y119.493 E29.54143
G1 X125.129 Y119.998 E29.57766
G1 X124.555 Y120.443 E29.6139
G1 X123.998 Y120.788 E29.64659
G1 X114.792 Y125.876 E30.17135
G1 X114.137 Y126.192 E30.20764
G1 X113.3 Y126.477 E30.25175
G1 X113.255 Y126.489 E30.25407
G1 X112.544 Y126.637 E30.2903
G1 X111.554 Y126.712 E30.33984
G1 X104.193 Y126.712 E30.70708
G1 X103.468 Y126.672 E30.7433
G1 X102.751 Y126.553 E30.77956
G1 X102.052 Y126.355 E30.81581
G1 X101.559 Y126.155 E30.84235
G1 X101.165 Y126.322 E30.8637
G1 X100.469 Y126.53 E30.89994
G1 X99.754 Y126.66 E30.9362
G1 X98.934 Y126.711 E30.97719
G1 X91.218 Y126.712 E31.36214
G1 X90.493 Y126.672 E31.39837
G1 X89.776 Y126.553 E31.43463
G1 X89.077 Y126.355 E31.47087
G1 X88.404 Y126.082 E31.50711
G1 X87.765 Y125.737 E31.54334
G1 X87.168 Y125.324 E31.57955
G1 X86.55 Y124.779 E31.62066
G1 X86.433 Y124.662 E31.62892
G1 X85.949 Y124.121 E31.66513
G1 X85.526 Y123.53 E31.70139
G1 X85.172 Y122.896 E31.73762
G1 X84.889 Y122.227 E31.77386
G1 X84.681 Y121.531 E31.8101
G1 X84.551 Y120.816 E31.84636
G1 X84.5 Y119.995 E31.88739
G1 X84.5 Y104.743 E32.64832
G1 X84.191 Y104.099 E32.68396
G1 X81.226 Y102.069 E32.86323
G1 X80.65 Y101.627 E32.89945
G1 X80.126 Y101.123 E32.93572
G1 X79.661 Y100.565 E32.97196
G1 X79.176 Y99.812 E33.01665
G1 X79.128 Y99.725 E33.0216
G1 X78.813 Y99.071 E33.05782
G1 X78.571 Y98.386 E33.09406
G1 X78.406 Y97.679 E33.13028
G1 X78.32 Y96.957 E33.16656
G1 X78.307 Y96.588 E33.18498
G1 X78.296 Y95.175 E33.25548
G1 X78.296 Y90.1 E33.50867
G1 X78.336 Y89.375 E33.5449
G1 X78.455 Y88.658 E33.58116
G1 X78.653 Y87.959 E33.6174
G1 X78.926 Y87.286 E33.65364
G1 X79.271 Y86.647 E33.68987
G1 X79.685 Y86.05 E33.72611
G1 X80.229 Y85.433 E33.76715
G1 X80.346 Y85.316 E33.7754
M205 X10 Y10
G0 F6000 X80.629 Y85.599
M205 X8 Y8
G1 F1200 X81.154 Y85.13 E33.81053
G1 X81.729 Y84.724 E33.84564
G1 X82.347 Y84.386 E33.88079
G1 X82.998 Y84.119 E33.91589
G1 X83.676 Y83.929 E33.95102
G1 X84.371 Y83.816 E33.98615
G1 X85.01 Y83.783 E34.01807
G1 X91.111 Y83.78 E34.32245
G1 X92.864 Y83.783 E34.40991
G1 X111.595 Y83.781 E35.3444
G1 X112.368 Y83.783 E35.38297
G1 X119.013 Y83.783 E35.71449
G1 X119.716 Y83.823 E35.74962
G1 X120.407 Y83.942 E35.7846
G1 X120.446 Y83.951 E35.78659
G1 X121.122 Y84.148 E35.82172
G1 X121.725 Y84.398 E35.85429
G1 X123.368 Y85.183 E35.94513
G1 X123.985 Y85.522 E35.98026
G1 X124.559 Y85.929 E36.01536
G1 X124.988 Y86.303 E36.04376
G1 X125.161 Y86.469 E36.05572
G1 X125.64 Y86.985 E36.09084
G1 X126.058 Y87.551 E36.12595
G1 X126.409 Y88.162 E36.1611
G1 X126.689 Y88.808 E36.19623
G1 X126.893 Y89.481 E36.23131
G1 X127.02 Y90.174 E36.26646
G1 X127.068 Y90.942 E36.30485
G1 X127.069 Y96.918 E36.603
G1 X127.058 Y113.651 E37.43781
G1 X127.059 Y114.914 E37.50082
G1 X127.02 Y115.617 E37.53595
G1 X126.901 Y116.311 E37.57108
G1 X126.704 Y116.987 E37.60621
G1 X126.432 Y117.636 E37.64131
G1 X126.167 Y118.125 E37.66906
G1 X125.779 Y118.713 E37.70421
G1 X125.328 Y119.253 E37.73931
G1 X124.818 Y119.738 E37.77442
G1 X124.256 Y120.163 E37.80957
G1 X123.804 Y120.438 E37.83597
G1 X114.598 Y125.526 E38.36074
G1 X113.964 Y125.831 E38.39584
G1 X113.197 Y126.091 E38.43624
G1 X113.152 Y126.103 E38.43857
G1 X112.462 Y126.245 E38.47371
G1 X111.554 Y126.312 E38.51914
G1 X104.193 Y126.312 E38.88638
G1 X103.49 Y126.272 E38.92151
G1 X102.796 Y126.153 E38.95664
G1 X102.121 Y125.955 E38.99173
G1 X101.565 Y125.722 E39.02181
G1 X100.948 Y125.975 E39.05508
G1 X100.27 Y126.165 E39.09021
G1 X99.575 Y126.278 E39.12534
G1 X98.934 Y126.311 E39.15736
G1 X91.218 Y126.312 E39.54231
G1 X90.515 Y126.272 E39.57744
G1 X89.821 Y126.153 E39.61257
G1 X89.145 Y125.956 E39.6477
G1 X88.496 Y125.683 E39.68282
G1 X87.882 Y125.339 E39.71794
