;FLAVOR:Marlin
;TIME:940
;Filament used: 0.659771m
;Layer height: 0.2
;MINX:81.22
;MINY:81.028
;MINZ:0.3
;MAXX:128.817
;MAXY:128.972
;MAXZ:12.775
;Generated with Cura_SteamEngine 4.13.1
M82 ;absolute extrusion mode
G21                                        ; metric values 
G90                                        ; absolute positioning 
M82                                        ; set extruder to absolute mode 
M107                                       ; start with the fan off 
M140 S60           ; Start heating the bed 
G4 S60                                     ; wait 1 minute 
M104 S210         ; start heating the hot end 
M190 S60           ; wait for bed 
M109 S210         ; wait for hotend 
M300 S1000 P500                            ; BEEP heating done 
G28 X0 Y10 Z0                              ; move X/Y to min endstops 
M420 S1                                    ; Enable leveling 
M420 Z2.0                                  ; Set leveling fading height to 2 mm 
G0 Z0.15                                   ; lift nozzle a bit 
G92 E0                                     ; zero the extruded length 
G1 X50 E25 F500                            ; Extrude 25mm of filament in a 5cm line. 
G92 E0                                     ; zero the extruded length again 
G1 E-2 F500                                ; Retract a little 
G1 X120 F4000                              ; Quickly wipe away from the filament line`
G92 E0
G92 E0
G1 F1500 E-6
;LAYER_COUNT:63
;LAYER:0
M106 S76.5
M205 X10 Y10
G1 F600 Z0.375
G0 F6000 X99.63 Y99.773 Z0.375
M205 X8 Y8
;TYPE:SKIRT
G1 F600 Z0.3
G1 F1500 E0
G1 F1200 X98.709 Y100.896 E0.07246
G1 X98.026 Y102.173 E0.14471
G1 X97.415 Y104.19 E0.24985
G1 X97.149 Y104.933 E0.28923
G1 X97.115 Y105.004 E0.29315
G1 X97.415 Y105.81 E0.33606
G1 X98.026 Y107.83 E0.44135
G1 X98.708 Y109.105 E0.51349
G1 X99.627 Y110.224 E0.58573
G1 X100.753 Y111.148 E0.6584
G1 X102.029 Y111.831 E0.7306
G1 X103.409 Y112.249 E0.80254
G1 X104.857 Y112.391 E0.87513
G1 X106.305 Y112.249 E0.94771
G1 X107.685 Y111.831 E1.01965
G1 X108.961 Y111.148 E1.09186
G1 X110.087 Y110.224 E1.16453
G1 X111.006 Y109.105 E1.23677
G1 X111.687 Y107.831 E1.30884
G1 X112.106 Y106.448 E1.38093
G1 X112.248 Y104.998 E1.45362
G1 X112.106 Y103.549 E1.52626
G1 X111.689 Y102.175 E1.5979
G1 X111.005 Y100.896 E1.67026
G1 X110.084 Y99.773 E1.74272
G1 X108.961 Y98.852 E1.81517
G1 X107.685 Y98.169 E1.88738
G1 X106.305 Y97.751 E1.95932
G1 X104.857 Y97.609 E2.03191
G1 X103.409 Y97.751 E2.10449
G1 X102.029 Y98.169 E2.17643
G1 X100.753 Y98.852 E2.24864
G1 X99.63 Y99.773 E2.3211
M205 X10 Y10
G0 F6000 X99.343 Y99.492
M205 X8 Y8
G1 F1200 X98.377 Y100.669 E2.39706
G1 X97.656 Y102.016 E2.47328
G1 X97.033 Y104.074 E2.58056
G1 X96.772 Y104.798 E2.61896
G1 X96.675 Y104.998 E2.63005
G1 X96.754 Y105.16 E2.63904
G1 X97.033 Y105.926 E2.67971
G1 X97.657 Y107.987 E2.78714
G1 X98.373 Y109.326 E2.8629
G1 X99.345 Y110.51 E2.93932
G1 X100.529 Y111.482 E3.01575
G1 X101.876 Y112.202 E3.09195
G1 X103.33 Y112.643 E3.16775
G1 X104.857 Y112.793 E3.2443
G1 X106.384 Y112.643 E3.32085
G1 X107.838 Y112.202 E3.39665
G1 X109.185 Y111.482 E3.47285
G1 X110.369 Y110.51 E3.54928
G1 X111.341 Y109.326 E3.6257
G1 X112.059 Y107.984 E3.70164
G1 X112.5 Y106.528 E3.77754
G1 X112.65 Y104.998 E3.85423
G1 X112.5 Y103.474 E3.93063
G1 X112.059 Y102.018 E4.00653
G1 X111.339 Y100.672 E4.08269
G1 X110.365 Y99.486 E4.15925
G1 X109.188 Y98.52 E4.23522
G1 X107.838 Y97.798 E4.3116
G1 X106.384 Y97.357 E4.3874
G1 X104.857 Y97.207 E4.46395
G1 X103.33 Y97.357 E4.5405
G1 X101.876 Y97.798 E4.6163
G1 X100.529 Y98.518 E4.6925
G1 X99.343 Y99.492 E4.76907
M205 X10 Y10
G0 F6000 X99.061 Y99.206
M205 X8 Y8
G1 F1200 X98.04 Y100.45 E4.84936
G1 X97.285 Y101.861 E4.9292
G1 X96.65 Y103.958 E5.03851
G1 X96.395 Y104.662 E5.07587
G1 X96.23 Y104.999 E5.09459
G1 X96.433 Y105.431 E5.1184
G1 X96.65 Y106.042 E5.15075
G1 X97.284 Y108.137 E5.25995
G1 X98.04 Y109.551 E5.33994
G1 X99.061 Y110.794 E5.4202
G1 X100.307 Y111.817 E5.50063
G1 X101.721 Y112.574 E5.58065
G1 X103.25 Y113.037 E5.66035
G1 X104.857 Y113.195 E5.74091
G1 X106.464 Y113.037 E5.82147
G1 X107.993 Y112.574 E5.90117
G1 X109.407 Y111.817 E5.98119
G1 X110.653 Y110.794 E6.06162
G1 X111.674 Y109.551 E6.14187
G1 X112.431 Y108.135 E6.22198
G1 X112.894 Y106.607 E6.30163
G1 X113.052 Y104.993 E6.38254
G1 X112.896 Y103.399 E6.46245
G1 X112.43 Y101.863 E6.54253
G1 X111.674 Y100.45 E6.62248
G1 X110.651 Y99.204 E6.70291
G1 X109.407 Y98.183 E6.7832
G1 X107.993 Y97.426 E6.86322
G1 X106.464 Y96.963 E6.94292
G1 X104.857 Y96.805 E7.02348
G1 X103.25 Y96.963 E7.10404
G1 X101.721 Y97.426 E7.18374
G1 X100.307 Y98.183 E7.26376
G1 X99.061 Y99.206 E7.34419
M205 X10 Y10
G0 F6000 X98.777 Y98.921
M205 X8 Y8
G1 F1200 X97.707 Y100.225 E7.42835
G1 X96.912 Y101.711 E7.51243
G1 X96.267 Y103.842 E7.6235
G1 X96.018 Y104.525 E7.65977
G1 X95.787 Y104.994 E7.68586
G1 X95.812 Y105.036 E7.68829
G1 X96.109 Y105.699 E7.72454
G1 X96.267 Y106.158 E7.74876
G1 X96.913 Y108.292 E7.85999
G1 X97.705 Y109.773 E7.94378
G1 X98.777 Y111.079 E8.02808
G1 X100.082 Y112.15 E8.1123
G1 X101.57 Y112.946 E8.1965
G1 X103.175 Y113.433 E8.28017
G1 X104.857 Y113.598 E8.36449
G1 X106.539 Y113.433 E8.44881
G1 X108.144 Y112.946 E8.53249
G1 X109.632 Y112.15 E8.61668
G1 X110.937 Y111.079 E8.70091
G1 X112.009 Y109.773 E8.7852
G1 X112.802 Y108.29 E8.8691
G1 X113.29 Y106.682 E8.95294
G1 X113.455 Y104.998 E9.03736
G1 X113.29 Y103.319 E9.12152
G1 X112.803 Y101.712 E9.2053
G1 X112.007 Y100.225 E9.28945
G1 X110.936 Y98.92 E9.37367
G1 X109.632 Y97.85 E9.45783
G1 X108.144 Y97.054 E9.54202
G1 X106.539 Y96.567 E9.6257
G1 X104.857 Y96.402 E9.71002
G1 X103.175 Y96.567 E9.79433
G1 X101.57 Y97.054 E9.87801
G1 X100.082 Y97.85 E9.9622
G1 X98.777 Y98.921 E10.04643
M205 X10 Y10
G0 F6000 X98.493 Y98.637
M205 X8 Y8
G1 F1200 X97.373 Y100.001 E10.13448
G1 X96.541 Y101.557 E10.22251
G1 X95.884 Y103.727 E10.33562
G1 X95.642 Y104.388 E10.37074
G1 X95.33 Y105.01 E10.40546
G1 X95.505 Y105.317 E10.42309
G1 X95.884 Y106.273 E10.4744
G1 X96.542 Y108.446 E10.58767
G1 X97.371 Y109.996 E10.67536
G1 X98.493 Y111.363 E10.76359
G1 X99.858 Y112.484 E10.85172
G1 X101.417 Y113.318 E10.93993
G1 X103.096 Y113.827 E11.02746
G1 X104.857 Y114 E11.11574
G1 X106.618 Y113.827 E11.20401
G1 X108.297 Y113.318 E11.29154
G1 X109.856 Y112.484 E11.37975
G1 X111.221 Y111.363 E11.46788
G1 X112.343 Y109.996 E11.55611
G1 X113.174 Y108.442 E11.64402
G1 X113.684 Y106.761 E11.73166
G1 X113.857 Y104.999 E11.81999
G1 X113.684 Y103.239 E11.90822
G1 X113.174 Y101.559 E11.99582
G1 X112.341 Y100.001 E12.08396
G1 X111.22 Y98.636 E12.17208
G1 X109.856 Y97.516 E12.26013
G1 X108.297 Y96.682 E12.34834
G1 X106.618 Y96.173 E12.43587
G1 X104.857 Y96 E12.52415
G1 X103.096 Y96.173 E12.61243
G1 X101.417 Y96.682 E12.69996
G1 X99.858 Y97.516 E12.78817
G1 X98.493 Y98.637 E12.87629
M205 X10 Y10
G0 F6000 X98.209 Y98.352
M205 X8 Y8
G1 F1200 X97.038 Y99.78 E12.96842
G1 X96.17 Y101.402 E13.0602
G1 X95.501 Y103.611 E13.17536
G1 X95.266 Y104.25 E13.20932
G1 X94.957 Y104.857 E13.2433
G1 X94.869 Y104.998 E13.2516
G1 X95.196 Y105.595 E13.28556
G1 X95.501 Y106.389 E13.32799
G1 X96.169 Y108.597 E13.44308
G1 X97.038 Y110.222 E13.53502
G1 X98.208 Y111.647 E13.627
G1 X99.636 Y112.819 E13.71917
G1 X101.258 Y113.687 E13.81095
G1 X103.021 Y114.221 E13.90285
G1 X104.857 Y114.401 E13.99489
G1 X106.693 Y114.221 E14.08693
G1 X108.456 Y113.687 E14.17883
G1 X110.078 Y112.819 E14.27061
G1 X111.506 Y111.647 E14.36277
G1 X112.676 Y110.222 E14.45476
G1 X113.544 Y108.597 E14.54667
G1 X114.079 Y106.832 E14.63869
G1 X114.258 Y104.998 E14.73062
G1 X114.078 Y103.16 E14.82276
G1 X113.546 Y101.404 E14.9143
G1 X112.676 Y99.779 E15.00626
G1 X111.505 Y98.352 E15.09835
G1 X110.077 Y97.181 E15.19048
G1 X108.456 Y96.313 E15.28222
G1 X106.693 Y95.779 E15.37412
G1 X104.857 Y95.599 E15.46616
G1 X103.021 Y95.779 E15.5582
G1 X101.258 Y96.313 E15.6501
G1 X99.636 Y97.181 E15.74188
G1 X98.209 Y98.352 E15.83398
M205 X10 Y10
G0 F6000 X97.924 Y98.069
M205 X8 Y8
G1 F1200 X96.702 Y99.557 E15.93004
G1 X95.799 Y101.247 E16.02563
G1 X95.118 Y103.495 E16.14282
G1 X94.89 Y104.111 E16.17559
G1 X94.589 Y104.695 E16.20837
G1 X94.38 Y105.001 E16.22686
G1 X94.578 Y105.288 E16.24425
G1 X94.882 Y105.871 E16.27705
G1 X95.118 Y106.505 E16.31081
G1 X95.798 Y108.749 E16.42779
G1 X96.705 Y110.445 E16.52374
G1 X97.924 Y111.931 E16.61963
G1 X99.414 Y113.155 E16.71583
G1 X101.103 Y114.058 E16.81138
G1 X102.941 Y114.615 E16.9072
G1 X104.857 Y114.803 E17.00325
G1 X106.773 Y114.615 E17.0993
G1 X108.611 Y114.058 E17.19511
G1 X110.3 Y113.155 E17.29067
G1 X111.79 Y111.931 E17.38687
G1 X113.009 Y110.445 E17.48276
G1 X113.916 Y108.75 E17.57867
G1 X114.472 Y106.916 E17.67428
G1 X114.66 Y104.998 E17.77043
G1 X114.472 Y103.085 E17.86633
G1 X113.914 Y101.245 E17.96225
G1 X113.012 Y99.557 E18.05774
G1 X111.788 Y98.067 E18.15394
G1 X110.3 Y96.845 E18.25
G1 X108.611 Y95.942 E18.34555
G1 X106.773 Y95.385 E18.44137
G1 X104.857 Y95.197 E18.53742
G1 X102.941 Y95.385 E18.63347
G1 X101.103 Y95.942 E18.72928
G1 X99.414 Y96.845 E18.82483
G1 X97.924 Y98.069 E18.92104
M205 X10 Y10
G0 F6000 X97.64 Y97.784
M205 X8 Y8
G1 F1200 X96.371 Y99.33 E19.02082
G1 X95.426 Y101.098 E19.12084
G1 X94.735 Y103.379 E19.23974
G1 X94.514 Y103.971 E19.27127
G1 X94.22 Y104.531 E19.30283
G1 X93.892 Y105 E19.33138
G1 X93.935 Y105.05 E19.33467
G1 X94.284 Y105.577 E19.3662
G1 X94.564 Y106.143 E19.39771
G1 X94.735 Y106.621 E19.42303
G1 X95.426 Y108.904 E19.54204
G1 X96.369 Y110.667 E19.64179
G1 X97.64 Y112.215 E19.74171
G1 X99.187 Y113.486 E19.8416
G1 X100.955 Y114.431 E19.94162
G1 X102.861 Y115.009 E20.04098
G1 X104.857 Y115.205 E20.14104
G1 X106.853 Y115.009 E20.2411
G1 X108.759 Y114.431 E20.34047
G1 X110.527 Y113.486 E20.44048
G1 X112.074 Y112.215 E20.54037
G1 X113.345 Y110.667 E20.6403
G1 X114.287 Y108.905 E20.73998
G1 X114.866 Y106.995 E20.83955
G1 X115.062 Y104.998 E20.93966
G1 X114.866 Y103.005 E21.03957
G1 X114.288 Y101.096 E21.13908
G1 X113.343 Y99.33 E21.23901
G1 X112.073 Y97.783 E21.33887
G1 X110.527 Y96.514 E21.43865
G1 X108.759 Y95.569 E21.53867
G1 X106.853 Y94.991 E21.63804
G1 X104.857 Y94.795 E21.7381
G1 X102.861 Y94.991 E21.83815
G1 X100.955 Y95.569 E21.93752
G1 X99.187 Y96.514 E22.03754
G1 X97.64 Y97.784 E22.13739
M205 X10 Y10
G0 F6000 X97.356 Y97.5
M205 X8 Y8
G1 F1200 X96.036 Y99.108 E22.24119
G1 X95.057 Y100.939 E22.34477
G1 X94.353 Y103.263 E22.46592
G1 X94.139 Y103.83 E22.49616
G1 X93.853 Y104.365 E22.52642
G1 X93.499 Y104.857 E22.55666
G1 X93.365 Y105 E22.56644
G1 X93.66 Y105.351 E22.58931
G1 X93.986 Y105.862 E22.61955
G1 X94.241 Y106.412 E22.6498
G1 X94.353 Y106.737 E22.66695
G1 X95.057 Y109.064 E22.78824
G1 X96.033 Y110.889 E22.89149
G1 X97.355 Y112.5 E22.99546
G1 X98.966 Y113.821 E23.0994
G1 X100.8 Y114.802 E23.20317
G1 X102.782 Y115.403 E23.3065
G1 X104.857 Y115.607 E23.41052
G1 X106.932 Y115.403 E23.51454
G1 X108.914 Y114.802 E23.61787
G1 X110.748 Y113.821 E23.72163
G1 X112.359 Y112.5 E23.82557
G1 X113.681 Y110.889 E23.92954
G1 X114.659 Y109.06 E24.03302
G1 X115.26 Y107.075 E24.13649
G1 X115.464 Y104.998 E24.24061
G1 X115.26 Y102.925 E24.34453
G1 X114.659 Y100.941 E24.44795
G1 X113.678 Y99.109 E24.55163
G1 X112.357 Y97.499 E24.65553
G1 X110.749 Y96.179 E24.75932
G1 X108.914 Y95.198 E24.86313
G1 X106.932 Y94.597 E24.96646
G1 X104.857 Y94.393 E25.07048
G1 X102.782 Y94.597 E25.17451
G1 X100.8 Y95.198 E25.27783
G1 X98.966 Y96.179 E25.3816
G1 X97.356 Y97.5 E25.4855
M205 X10 Y10
G0 F6000 X97.072 Y97.216
M205 X8 Y8
G1 F1200 X95.7 Y98.887 E25.59337
G1 X94.685 Y100.784 E25.7007
G1 X93.97 Y103.147 E25.82387
G1 X93.764 Y103.689 E25.8528
G1 X93.486 Y104.197 E25.88169
G1 X93.14 Y104.662 E25.91061
G1 X92.805 Y105.003 E25.93446
G1 X93.017 Y105.201 E25.94893
G1 X93.383 Y105.65 E25.97783
G1 X93.683 Y106.146 E26.00675
G1 X93.97 Y106.853 E26.04482
G1 X94.684 Y109.212 E26.16778
G1 X95.702 Y111.116 E26.2755
G1 X97.072 Y112.784 E26.38319
G1 X98.743 Y114.156 E26.49105
G1 X100.645 Y115.173 E26.59866
G1 X102.702 Y115.797 E26.7059
G1 X104.857 Y116.009 E26.81393
G1 X107.012 Y115.797 E26.92196
G1 X109.069 Y115.173 E27.02921
G1 X110.971 Y114.156 E27.13681
G1 X112.642 Y112.784 E27.24468
G1 X114.012 Y111.116 E27.35237
G1 X115.032 Y109.208 E27.4603
G1 X115.654 Y107.155 E27.56733
G1 X115.866 Y104.998 E27.67546
G1 X115.654 Y102.846 E27.78334
G1 X115.03 Y100.786 E27.89073
G1 X114.013 Y98.886 E27.99824
G1 X112.641 Y97.215 E28.10611
G1 X110.97 Y95.843 E28.21398
G1 X109.069 Y94.827 E28.32151
G1 X107.012 Y94.203 E28.42876
G1 X104.857 Y93.991 E28.53679
G1 X102.702 Y94.203 E28.64482
G1 X100.645 Y94.827 E28.75206
G1 X98.743 Y95.844 E28.85967
G1 X97.072 Y97.216 E28.96753
M205 X10 Y10
G0 F6000 X96.79 Y96.929
M205 X8 Y8
G1 F1200 X95.366 Y98.664 E29.07952
G1 X94.313 Y100.633 E29.19091
G1 X93.587 Y103.031 E29.31591
G1 X93.389 Y103.546 E29.34344
G1 X93.12 Y104.026 E29.37089
G1 X92.783 Y104.462 E29.39839
G1 X92.387 Y104.845 E29.42587
G1 X92.171 Y104.999 E29.4391
G1 X92.362 Y105.134 E29.45077
G1 X92.762 Y105.514 E29.4783
G1 X93.102 Y105.947 E29.50577
G1 X93.376 Y106.425 E29.53325
G1 X93.587 Y106.969 E29.56236
G1 X94.313 Y109.367 E29.68736
G1 X95.367 Y111.338 E29.79887
G1 X96.787 Y113.068 E29.91054
G1 X98.518 Y114.489 E30.02227
G1 X100.489 Y115.544 E30.1338
G1 X102.628 Y116.192 E30.24531
G1 X104.857 Y116.411 E30.35705
G1 X107.086 Y116.192 E30.46879
G1 X109.225 Y115.544 E30.58029
G1 X111.196 Y114.489 E30.69183
G1 X112.927 Y113.068 E30.80356
G1 X114.347 Y111.338 E30.91522
G1 X115.401 Y109.368 E31.02669
G1 X116.049 Y107.23 E31.13814
G1 X116.268 Y104.998 E31.25003
G1 X116.049 Y102.771 E31.36167
G1 X115.4 Y100.631 E31.47324
G1 X114.346 Y98.661 E31.58471
G1 X112.928 Y96.933 E31.69623
G1 X111.193 Y95.509 E31.80821
G1 X109.225 Y94.456 E31.91956
G1 X107.086 Y93.808 E32.03107
G1 X104.857 Y93.589 E32.14281
G1 X102.628 Y93.808 E32.25455
G1 X100.489 Y94.456 E32.36606
G1 X98.518 Y95.511 E32.47759
G1 X96.79 Y96.929 E32.58911
M205 X10 Y10
G0 F6000 X96.503 Y96.648
M205 X8 Y8
G1 F1200 X95.034 Y98.437 E32.7046
G1 X93.941 Y100.481 E32.82024
G1 X93.204 Y102.915 E32.94712
G1 X93.015 Y103.401 E32.97313
G1 X92.755 Y103.852 E32.9991
G1 X92.428 Y104.258 E33.02511
G1 X92.043 Y104.61 E33.05114
G1 X91.575 Y104.921 E33.07917
G1 X91.421 Y104.999 E33.08778
G1 X91.706 Y105.158 E33.10406
G1 X92.13 Y105.461 E33.13006
G1 X92.503 Y105.825 E33.15607
G1 X92.816 Y106.241 E33.18204
G1 X93.062 Y106.701 E33.20806
G1 X93.204 Y107.085 E33.22849
G1 X93.942 Y109.522 E33.35552
G1 X95.032 Y111.56 E33.47083
G1 X96.503 Y113.352 E33.5865
G1 X98.295 Y114.823 E33.70216
G1 X100.337 Y115.916 E33.81772
G1 X102.548 Y116.586 E33.93298
G1 X104.857 Y116.812 E34.04872
G1 X107.166 Y116.586 E34.16447
G1 X109.377 Y115.916 E34.27973
G1 X111.419 Y114.823 E34.39528
G1 X113.211 Y113.352 E34.51095
G1 X114.682 Y111.56 E34.62662
G1 X115.772 Y109.523 E34.74188
G1 X116.443 Y107.309 E34.8573
G1 X116.669 Y104.998 E34.97314
G1 X116.443 Y102.69 E35.08884
G1 X115.773 Y100.48 E35.20405
G1 X114.68 Y98.438 E35.3196
G1 X113.209 Y96.646 E35.43527
G1 X111.42 Y95.177 E35.55076
G1 X109.377 Y94.084 E35.66635
G1 X107.166 Y93.414 E35.78161
G1 X104.857 Y93.188 E35.89736
G1 X102.548 Y93.414 E36.01311
G1 X100.337 Y94.084 E36.12837
G1 X98.295 Y95.177 E36.24392
G1 X96.503 Y96.648 E36.35959
M205 X10 Y10
G0 F6000 X96.219 Y96.363
M205 X8 Y8
G1 F1200 X94.699 Y98.216 E36.47916
G1 X93.57 Y100.326 E36.59855
G1 X92.821 Y102.799 E36.72746
G1 X92.39 Y103.675 E36.77617
G1 X92.074 Y104.048 E36.80056
G1 X91.499 Y104.499 E36.83702
G1 X90.93 Y104.796 E36.86904
G1 X89.977 Y105.005 E36.91771
G1 X89.246 Y104.954 E36.95427
